;FLAVOR:Marlin
;TIME:17702
;Filament used: 9.64828m
;Layer height: 0.13125
;MINX:1.425
;MINY:40.875
;MINZ:0.263
;MAXX:118.55
;MAXY:79.125
;MAXZ:37.074
;Generated with Cura_SteamEngine 4.7.1
M140 S65
M105
M190 S65
M104 S215
M105
M109 S215
M82 ;absolute extrusion mode
G21;(metric values)
G90;(absolute positioning)
M82;(set extruder to absolute mode)
M107;(start with the fan off)
G28;(Home the printer)
G92 E0;(Reset the extruder to 0)
G0 Z5 E5 F500;(Move up and prime the nozzle)
G0 X-1 Z0;(Move outside the printable area)
G1 Y60 E8 F500;(Draw a priming/wiping line to the rear)
G1 X-1;(Move a little closer to the print area)
G1 Y10 E16 F500;(draw more priming/wiping)
G1 E15 F250;(Small retract)
G92 E0;(Zero the extruder)
G92 E0
G92 E0
G1 F2400 E-3
;LAYER_COUNT:282
;LAYER:0
M107
G0 F4320 X4.861 Y40.885 Z0.263
;TYPE:SKIRT
G1 F2400 E0
G1 F1800 X5.28 Y40.875 E0.01604
G1 X59.392 Y40.875 E2.0869
G1 X60.452 Y40.89 E2.12747
G1 X61.842 Y40.9 E2.18067
G1 X114.265 Y40.9 E4.18689
G1 X114.967 Y40.91 E4.21376
G1 X115.496 Y40.958 E4.23409
G1 X116.011 Y41.084 E4.25438
G1 X116.502 Y41.286 E4.2747
G1 X116.956 Y41.56 E4.29499
G1 X117.384 Y41.917 E4.31632
G1 X117.482 Y42.013 E4.32157
G1 X117.832 Y42.412 E4.34189
G1 X118.118 Y42.859 E4.36219
G1 X118.334 Y43.343 E4.38248
G1 X118.475 Y43.855 E4.4028
G1 X118.538 Y44.414 E4.42433
G1 X118.55 Y45.019 E4.44749
G1 X118.55 Y46.619 E4.50872
G1 X118.539 Y47.333 E4.53605
G1 X118.522 Y47.627 E4.54732
G1 X118.42 Y48.656 E4.58689
G1 X118.189 Y51.376 E4.69136
G1 X118.037 Y54.08 E4.795
G1 X117.95 Y58.196 E4.95256
G1 X117.95 Y61.769 E5.0893
G1 X117.989 Y64.555 E5.19593
G1 X118.105 Y67.287 E5.30058
G1 X118.296 Y69.973 E5.40363
G1 X118.397 Y70.961 E5.44164
G1 X118.399 Y71.039 E5.44462
G1 X118.525 Y72.394 E5.4967
G1 X118.55 Y73.247 E5.52936
G1 X118.55 Y74.798 E5.58872
G1 X118.54 Y75.516 E5.6162
G1 X118.492 Y76.045 E5.63652
G1 X118.366 Y76.56 E5.65681
G1 X118.164 Y77.051 E5.67713
G1 X117.891 Y77.506 E5.69744
G1 X117.508 Y77.96 E5.72017
G1 X117.41 Y78.058 E5.72548
G1 X117.007 Y78.403 E5.74578
G1 X116.557 Y78.685 E5.7661
G1 X116.07 Y78.896 E5.78641
G1 X115.557 Y79.031 E5.80671
G1 X115.036 Y79.088 E5.82677
G1 X114.403 Y79.1 E5.851
G1 X62.092 Y79.1 E7.85294
G1 X60.865 Y79.117 E7.8999
G1 X59.763 Y79.125 E7.94208
G1 X5.607 Y79.125 E10.01462
G1 X4.909 Y79.115 E10.04134
G1 X4.38 Y79.067 E10.06167
G1 X3.865 Y78.941 E10.08196
G1 X3.374 Y78.739 E10.10227
G1 X2.919 Y78.465 E10.1226
G1 X2.511 Y78.126 E10.1429
G1 X2.158 Y77.73 E10.1632
G1 X1.868 Y77.285 E10.18353
G1 X1.649 Y76.802 E10.20383
G1 X1.504 Y76.291 E10.22415
G1 X1.435 Y75.686 E10.24746
G1 X1.425 Y75.258 E10.26384
G1 X1.425 Y45.026 E11.42082
G1 X1.435 Y44.356 E11.44646
G1 X1.483 Y43.828 E11.46675
G1 X1.61 Y43.313 E11.48705
G1 X1.812 Y42.822 E11.50737
G1 X2.086 Y42.368 E11.52766
G1 X2.425 Y41.959 E11.54799
G1 X2.822 Y41.607 E11.5683
G1 X3.267 Y41.317 E11.58863
G1 X3.75 Y41.098 E11.60892
G1 X4.174 Y40.978 E11.62579
G0 F1620 X4.261 Y40.954
G0 X4.861 Y40.885
G0 F4320 X5.191 Y41.226
G1 F1800 X59.387 Y41.225 E13.69986
G1 X60.447 Y41.24 E13.74043
G1 X61.839 Y41.25 E13.79371
G1 X114.26 Y41.25 E15.79986
G1 X114.962 Y41.26 E15.82672
G1 X115.464 Y41.307 E15.84602
G1 X115.951 Y41.433 E15.86527
G1 X116.413 Y41.634 E15.88455
G1 X116.837 Y41.906 E15.90383
G1 X117.237 Y42.263 E15.92435
G1 X117.567 Y42.643 E15.94361
G1 X117.834 Y43.07 E15.96288
G1 X118.029 Y43.534 E15.98214
G1 X118.149 Y44.023 E16.00141
G1 X118.193 Y44.575 E16.02261
G1 X118.2 Y45.024 E16.03979
G1 X118.2 Y46.614 E16.10064
G1 X118.189 Y47.328 E16.12797
G1 X118.174 Y47.592 E16.13809
G1 X118.072 Y48.621 E16.17766
G1 X117.84 Y51.361 E16.2829
G1 X117.687 Y54.081 E16.38715
G1 X117.6 Y58.169 E16.54364
G1 X117.6 Y61.774 E16.6816
G1 X117.64 Y64.573 E16.78873
G1 X117.755 Y67.29 E16.8928
G1 X117.947 Y70.004 E16.99693
G1 X118.049 Y70.997 E17.03513
G1 X118.051 Y71.078 E17.03823
G1 X118.176 Y72.426 E17.09004
G1 X118.2 Y73.251 E17.12162
G1 X118.2 Y74.793 E17.18064
G1 X118.19 Y75.511 E17.20812
G1 X118.143 Y76.013 E17.22741
G1 X118.017 Y76.5 E17.24666
G1 X117.816 Y76.962 E17.26594
G1 X117.544 Y77.386 E17.28522
G1 X117.162 Y77.81 E17.30706
G1 X116.779 Y78.137 E17.32634
G1 X116.349 Y78.399 E17.34561
G1 X115.883 Y78.59 E17.36488
G1 X115.392 Y78.704 E17.38417
G1 X114.876 Y78.743 E17.40397
G1 X114.399 Y78.75 E17.42223
G1 X62.087 Y78.75 E19.42421
G1 X60.862 Y78.767 E19.47109
G1 X59.76 Y78.775 E19.51327
G1 X5.612 Y78.775 E21.58551
G1 X4.914 Y78.765 E21.61222
G1 X4.412 Y78.718 E21.63152
G1 X3.925 Y78.592 E21.65077
G1 X3.463 Y78.39 E21.67007
G1 X3.039 Y78.119 E21.68933
G1 X2.663 Y77.783 E21.70862
G1 X2.345 Y77.393 E21.72788
G1 X2.093 Y76.957 E21.74715
G1 X1.913 Y76.487 E21.76641
G1 X1.81 Y75.994 E21.78569
G1 X1.776 Y75.344 E21.8106
G1 X1.775 Y45.032 E22.97064
G1 X1.785 Y44.362 E22.99628
G1 X1.833 Y43.86 E23.01558
G1 X1.959 Y43.373 E23.03483
G1 X2.16 Y42.911 E23.05411
G1 X2.432 Y42.487 E23.07339
G1 X2.768 Y42.112 E23.09266
G1 X3.159 Y41.794 E23.11195
G1 X3.595 Y41.542 E23.13122
G1 X4.065 Y41.363 E23.15047
G1 X4.499 Y41.272 E23.16744
G0 F1620 X4.558 Y41.26
G0 X5.191 Y41.226
G1 F2400 E20.16744
G0 F4320 X60.196 Y43.764
G0 X60.9 Y44.6
;TYPE:SUPPORT
G1 F2400 E23.16744
G1 F1800 X114.849 Y44.6 E25.23206
G1 X114.85 Y47.199 E25.33153
G1 X114.25 Y47.8 E25.36403
G1 X114.25 Y72.2 E26.29781
G1 X114.85 Y72.801 E26.33031
G1 X114.849 Y75.4 E26.42978
G1 X60.9 Y75.4 E28.4944
G1 X60.9 Y72.366 E28.61051
G1 X60.8 Y72.265 E28.61595
G1 X60.8 Y47.735 E29.55471
G1 X60.9 Y47.634 E29.56015
G1 X60.9 Y45.294 E29.6497
G0 F1620 X60.9 Y44.6
G0 F4320 X87.348 Y52.947
G1 F1800 X87.348 Y64.653 E30.09769
G1 X87.698 Y65.003 E30.11664
G1 X112.9 Y65.003 E31.08111
G1 X113.25 Y64.653 E31.10006
G1 X113.252 Y52.948 E31.54801
G1 X112.902 Y52.598 E31.56695
G1 X87.898 Y52.597 E32.52385
G0 F1620 X87.698 Y52.597
G0 X87.348 Y52.947
G0 F4320 X87.208 Y53.659
G1 F1800 X60.94 Y53.659 E33.52913
G0 F4320 X60.94 Y51.326
G1 F1800 X114.11 Y51.326 E35.56394
G0 F4320 X114.11 Y48.993
G1 F1800 X60.94 Y48.993 E37.59875
G0 F4320 X61.04 Y46.66
G1 F1800 X114.71 Y46.66 E39.6527
G0 F4320 X114.317 Y47.535
G1 F1800 X114.317 Y44.74 E39.75966
G0 F4320 X111.984 Y44.74
G1 F1800 X111.984 Y52.457 E40.05499
G0 F4320 X113.392 Y53.659
G1 F1800 X114.11 Y53.659 E40.08247
G0 F4320 X114.11 Y55.992
G1 F1800 X113.392 Y55.992 E40.10995
G0 F4320 X113.392 Y58.325
G1 F1800 X114.11 Y58.325 E40.13743
G0 F4320 X114.11 Y60.658
G1 F1800 X113.391 Y60.658 E40.16494
G0 F4320 X113.391 Y62.991
G1 F1800 X114.11 Y62.991 E40.19246
G0 F4320 X114.11 Y65.324
G1 F1800 X60.939 Y65.324 E42.22731
G0 F4320 X60.939 Y62.991
G1 F1800 X87.208 Y62.991 E43.23262
G0 F4320 X87.208 Y60.658
G1 F1800 X60.939 Y60.658 E44.23794
G0 F4320 X60.94 Y58.325
G1 F1800 X87.208 Y58.325 E45.24321
G0 F4320 X87.208 Y55.992
G1 F1800 X60.94 Y55.992 E46.24849
G0 F4320 X62.991 Y44.74
G1 F1800 X62.991 Y75.26 E47.41648
G0 F4320 X61.039 Y74.656
G1 F1800 X114.709 Y74.656 E49.47043
G0 F4320 X114.317 Y75.26
G1 F1800 X114.317 Y72.466 E49.57736
G0 F4320 X114.176 Y72.323
G1 F1800 X61.039 Y72.323 E51.61091
G0 F4320 X60.939 Y69.99
G1 F1800 X114.11 Y69.99 E53.64576
G0 F4320 X114.11 Y67.657
G1 F1800 X60.939 Y67.657 E55.68061
G0 F4320 X65.324 Y75.26
G1 F1800 X65.324 Y44.74 E56.84861
G0 F4320 X67.657 Y44.74
G1 F1800 X67.657 Y75.26 E58.01661
G0 F4320 X69.99 Y75.26
G1 F1800 X69.99 Y44.74 E59.18461
G0 F4320 X72.323 Y44.74
G1 F1800 X72.323 Y75.26 E60.35261
G0 F4320 X74.656 Y75.26
G1 F1800 X74.656 Y44.74 E61.5206
G0 F4320 X76.989 Y44.74
G1 F1800 X76.989 Y75.26 E62.6886
G0 F4320 X79.322 Y75.26
G1 F1800 X79.322 Y44.74 E63.8566
G0 F4320 X81.655 Y44.74
G1 F1800 X81.655 Y75.26 E65.0246
G0 F4320 X83.988 Y75.26
G1 F1800 X83.988 Y44.74 E66.1926
G0 F4320 X86.321 Y44.74
G1 F1800 X86.321 Y75.26 E67.3606
G0 F4320 X88.654 Y75.26
G1 F1800 X88.654 Y65.143 E67.74777
G0 F4320 X90.987 Y65.143
G1 F1800 X90.987 Y75.26 E68.13495
G0 F4320 X93.32 Y75.26
G1 F1800 X93.32 Y65.143 E68.52213
G0 F4320 X95.653 Y65.143
G1 F1800 X95.653 Y75.26 E68.90931
G0 F4320 X97.986 Y75.26
G1 F1800 X97.986 Y65.143 E69.29648
G0 F4320 X100.319 Y65.143
G1 F1800 X100.319 Y75.26 E69.68366
G0 F4320 X102.652 Y75.26
G1 F1800 X102.652 Y65.143 E70.07084
G0 F4320 X104.985 Y65.143
G1 F1800 X104.985 Y75.26 E70.45801
G0 F4320 X107.318 Y75.26
G1 F1800 X107.318 Y65.143 E70.84519
G0 F4320 X109.651 Y65.143
G1 F1800 X109.651 Y75.26 E71.23237
G0 F4320 X111.984 Y75.26
G1 F1800 X111.984 Y65.143 E71.61954
G0 F4320 X109.651 Y52.457
G1 F1800 X109.651 Y44.74 E71.91487
G0 F4320 X107.318 Y44.74
G1 F1800 X107.318 Y52.457 E72.2102
G0 F4320 X104.985 Y52.457
G1 F1800 X104.985 Y44.74 E72.50553
G0 F4320 X102.652 Y44.74
G1 F1800 X102.652 Y52.457 E72.80086
G0 F4320 X100.319 Y52.457
G1 F1800 X100.319 Y44.74 E73.09619
G0 F4320 X97.986 Y44.74
G1 F1800 X97.986 Y52.457 E73.39152
G0 F4320 X95.653 Y52.457
G1 F1800 X95.653 Y44.74 E73.68685
G0 F4320 X93.32 Y44.74
G1 F1800 X93.32 Y52.457 E73.98218
G0 F4320 X90.987 Y52.457
G1 F1800 X90.987 Y44.74 E74.27751
G0 F4320 X88.654 Y44.74
G1 F1800 X88.654 Y52.457 E74.57284
G1 F2400 E71.57284
;MESH:powermeterSensor_prototype4_bottom.stl
G0 F4320 X60.69 Y47.011
G0 X59.661 Y47.011
G0 X59.075 Y46.525
;TYPE:WALL-INNER
G1 F2400 E74.57284
G1 F1800 X59.075 Y73.475 E75.60421
G1 X59.175 Y73.475 E75.60804
G1 X59.175 Y74.725 E75.65588
G1 X5.825 Y74.725 E77.69758
G1 X5.825 Y45.275 E78.82463
G1 X59.175 Y45.275 E80.86633
G1 X59.175 Y45.931 E80.89143
G0 F1620 X59.175 Y46.525
G0 X59.075 Y46.525
G0 F4320 X59.425 Y46.875
G1 F1800 X59.425 Y73.125 E81.89602
G1 X59.525 Y73.125 E81.89985
G1 X59.525 Y75.075 E81.97447
G1 X5.475 Y75.075 E84.04296
G1 X5.475 Y44.925 E85.1968
G1 X59.525 Y44.925 E87.26529
G1 X59.525 Y46.281 E87.31719
G0 F1620 X59.525 Y46.875
G0 X59.425 Y46.875
G0 F4320 X59.75 Y47.2
;TYPE:WALL-OUTER
G1 F1800 X59.75 Y72.8 E88.2969
G1 X59.85 Y72.8 E88.30072
G1 X59.85 Y75.4 E88.40023
G1 X5.15 Y75.4 E90.49359
G1 X5.15 Y44.6 E91.67231
G1 X59.85 Y44.6 E93.76567
G1 X59.85 Y46.606 E93.84244
G0 F1620 X59.85 Y47.2
G0 X59.75 Y47.2
G0 F4320 X59.75 Y47.4
G0 X59.475 Y47.4
G0 X59.09 Y46.185
G0 X58.835 Y46.185
;TYPE:SKIN
G1 F1800 X58.735 Y46.185 E93.84627
G1 X58.735 Y73.815 E94.90367
G1 X58.835 Y73.815 E94.90749
G1 X58.835 Y74.385 E94.92931
G1 X6.165 Y74.385 E96.94499
G1 X6.165 Y45.615 E98.04601
G1 X58.711 Y45.615 E100.05694
G0 F1620 X58.835 Y45.615
G0 X58.835 Y46.185
G0 F4320 X58.578 Y46.203
G1 F1800 X58.146 Y45.772 E100.0803
G0 F4320 X57.651 Y45.772
G1 F1800 X58.578 Y46.698 E100.13044
G0 F4320 X58.578 Y47.193
G1 F1800 X57.156 Y45.772 E100.20738
G0 F4320 X56.661 Y45.772
G1 F1800 X58.578 Y47.688 E100.3111
G0 F4320 X58.578 Y48.183
G1 F1800 X56.166 Y45.772 E100.44162
G0 F4320 X55.671 Y45.772
G1 F1800 X58.578 Y48.678 E100.59892
G0 F4320 X58.578 Y49.173
G1 F1800 X55.176 Y45.772 E100.78302
G0 F4320 X54.681 Y45.772
G1 F1800 X58.578 Y49.668 E100.9939
G0 F4320 X58.578 Y50.163
G1 F1800 X54.187 Y45.772 E101.23155
G0 F4320 X53.692 Y45.772
G1 F1800 X58.578 Y50.658 E101.49599
G0 F4320 X58.578 Y51.153
G1 F1800 X53.197 Y45.772 E101.78722
G0 F4320 X52.702 Y45.772
G1 F1800 X58.578 Y51.648 E102.10524
G0 F4320 X58.578 Y52.143
G1 F1800 X52.207 Y45.772 E102.45005
G0 F4320 X51.712 Y45.772
G1 F1800 X58.578 Y52.638 E102.82165
G0 F4320 X58.578 Y53.133
G1 F1800 X51.217 Y45.772 E103.22004
G0 F4320 X50.722 Y45.772
G1 F1800 X58.578 Y53.628 E103.64522
G0 F4320 X58.578 Y54.123
G1 F1800 X50.227 Y45.772 E104.0972
G0 F4320 X49.732 Y45.772
G1 F1800 X58.578 Y54.618 E104.57596
G0 F4320 X58.578 Y55.113
G1 F1800 X49.237 Y45.772 E105.08151
G0 F4320 X48.742 Y45.772
G1 F1800 X58.578 Y55.608 E105.61385
G0 F4320 X58.578 Y56.103
G1 F1800 X48.247 Y45.772 E106.17299
G0 F4320 X47.752 Y45.772
G1 F1800 X58.578 Y56.598 E106.75891
G0 F4320 X58.578 Y57.093
G1 F1800 X47.257 Y45.772 E107.37162
G0 F4320 X46.762 Y45.772
G1 F1800 X58.578 Y57.588 E108.01113
G0 F4320 X58.578 Y58.083
G1 F1800 X46.267 Y45.772 E108.67742
G0 F4320 X45.772 Y45.772
G1 F1800 X58.578 Y58.578 E109.37051
G0 F4320 X58.578 Y59.073
G1 F1800 X45.277 Y45.772 E110.09038
G0 F4320 X44.782 Y45.772
G1 F1800 X58.578 Y59.568 E110.83705
G0 F4320 X58.578 Y60.063
G1 F1800 X44.287 Y45.772 E111.6105
G0 F4320 X43.792 Y45.772
G1 F1800 X58.578 Y60.558 E112.41075
G0 F4320 X58.578 Y61.053
G1 F1800 X43.297 Y45.772 E113.23778
G0 F4320 X42.802 Y45.772
G1 F1800 X58.578 Y61.547 E114.09158
G0 F4320 X58.578 Y62.042
G1 F1800 X42.307 Y45.772 E114.97217
G0 F4320 X41.812 Y45.772
G1 F1800 X58.578 Y62.537 E115.87955
G0 F4320 X58.578 Y63.032
G1 F1800 X41.317 Y45.772 E116.81373
G0 F4320 X40.822 Y45.772
G1 F1800 X58.578 Y63.527 E117.77469
G0 F4320 X58.578 Y64.022
G1 F1800 X40.327 Y45.772 E118.76244
G0 F4320 X39.832 Y45.772
G1 F1800 X58.578 Y64.517 E119.77698
G0 F4320 X58.578 Y65.012
G1 F1800 X39.337 Y45.772 E120.81831
G0 F4320 X38.842 Y45.772
G1 F1800 X58.578 Y65.507 E121.88643
G0 F4320 X58.578 Y66.002
G1 F1800 X38.347 Y45.772 E122.98135
G0 F4320 X37.852 Y45.772
G1 F1800 X58.578 Y66.497 E124.10305
G0 F4320 X58.578 Y66.992
G1 F1800 X37.357 Y45.772 E125.25154
G0 F4320 X36.862 Y45.772
G1 F1800 X58.578 Y67.487 E126.42683
G0 F4320 X58.578 Y67.982
G1 F1800 X36.367 Y45.772 E127.6289
G0 F4320 X35.872 Y45.772
G1 F1800 X58.578 Y68.477 E128.85776
G0 F4320 X58.578 Y68.972
G1 F1800 X35.377 Y45.772 E130.11342
G0 F4320 X34.882 Y45.772
G1 F1800 X58.578 Y69.467 E131.39586
G0 F4320 X58.578 Y69.962
G1 F1800 X34.388 Y45.772 E132.70507
G0 F4320 X33.893 Y45.772
G1 F1800 X58.578 Y70.457 E134.04107
G0 F4320 X58.578 Y70.952
G1 F1800 X33.398 Y45.772 E135.40386
G0 F4320 X32.903 Y45.772
G1 F1800 X58.578 Y71.447 E136.79344
G0 F4320 X58.578 Y71.942
G1 F1800 X32.408 Y45.772 E138.20981
G0 F4320 X31.913 Y45.772
G1 F1800 X58.578 Y72.437 E139.65297
G0 F4320 X58.578 Y72.932
G1 F1800 X31.418 Y45.772 E141.12292
G0 F4320 X30.923 Y45.772
G1 F1800 X58.578 Y73.427 E142.61966
G0 F4320 X58.578 Y73.922
G1 F1800 X30.428 Y45.772 E144.14319
G0 F4320 X29.933 Y45.772
G1 F1800 X58.387 Y74.227 E145.6832
G0 F4320 X58.627 Y73.971
G1 F1800 X58.677 Y74.022 E145.68593
G0 F4320 X57.892 Y74.227
G1 F1800 X29.438 Y45.772 E147.22594
G0 F4320 X28.943 Y45.772
G1 F1800 X57.397 Y74.227 E148.76595
G0 F4320 X56.903 Y74.227
G1 F1800 X28.448 Y45.772 E150.30599
G0 F4320 X27.953 Y45.772
G1 F1800 X56.408 Y74.227 E151.84603
G0 F4320 X55.913 Y74.227
G1 F1800 X27.458 Y45.772 E153.38607
G0 F4320 X26.963 Y45.772
G1 F1800 X55.418 Y74.227 E154.9261
G0 F4320 X54.923 Y74.227
G1 F1800 X26.468 Y45.772 E156.46614
G0 F4320 X25.973 Y45.772
G1 F1800 X54.428 Y74.227 E158.00618
G0 F4320 X53.933 Y74.227
G1 F1800 X25.478 Y45.772 E159.54622
G0 F4320 X24.983 Y45.772
G1 F1800 X53.438 Y74.227 E161.08626
G0 F4320 X52.943 Y74.227
G1 F1800 X24.488 Y45.772 E162.62629
G0 F4320 X23.993 Y45.772
G1 F1800 X52.448 Y74.227 E164.16633
G0 F4320 X51.953 Y74.227
G1 F1800 X23.498 Y45.772 E165.70637
G0 F4320 X23.003 Y45.772
G1 F1800 X51.458 Y74.227 E167.24641
G0 F4320 X50.963 Y74.227
G1 F1800 X22.508 Y45.772 E168.78645
G0 F4320 X22.013 Y45.772
G1 F1800 X50.468 Y74.227 E170.32648
G0 F4320 X49.973 Y74.227
G1 F1800 X21.518 Y45.772 E171.86652
G0 F4320 X21.023 Y45.772
G1 F1800 X49.478 Y74.227 E173.40656
G0 F4320 X48.983 Y74.227
G1 F1800 X20.528 Y45.772 E174.9466
G0 F4320 X20.033 Y45.772
G1 F1800 X48.488 Y74.227 E176.48663
G0 F4320 X47.993 Y74.227
G1 F1800 X19.538 Y45.772 E178.02667
G0 F4320 X19.043 Y45.772
G1 F1800 X47.498 Y74.227 E179.56671
G0 F4320 X47.003 Y74.227
G1 F1800 X18.548 Y45.772 E181.10675
G0 F4320 X18.053 Y45.772
G1 F1800 X46.508 Y74.227 E182.64679
G0 F4320 X46.013 Y74.227
G1 F1800 X17.558 Y45.772 E184.18682
G0 F4320 X17.063 Y45.772
G1 F1800 X45.518 Y74.227 E185.72686
G0 F4320 X45.023 Y74.227
G1 F1800 X16.568 Y45.772 E187.2669
G0 F4320 X16.073 Y45.772
G1 F1800 X44.528 Y74.227 E188.80694
G0 F4320 X44.033 Y74.227
G1 F1800 X15.578 Y45.772 E190.34698
G0 F4320 X15.084 Y45.772
G1 F1800 X43.538 Y74.227 E191.88699
G0 F4320 X43.043 Y74.227
G1 F1800 X14.589 Y45.772 E193.427
G0 F4320 X14.094 Y45.772
G1 F1800 X42.548 Y74.227 E194.96701
G0 F4320 X42.053 Y74.227
G1 F1800 X13.599 Y45.772 E196.50702
G0 F4320 X13.104 Y45.772
G1 F1800 X41.558 Y74.227 E198.04703
G0 F4320 X41.063 Y74.227
G1 F1800 X12.609 Y45.772 E199.58704
G0 F4320 X12.114 Y45.772
G1 F1800 X40.568 Y74.227 E201.12705
