;FLAVOR:Marlin
;TIME:10356
;Filament used: 5.20458m
;Layer height: 0.13125
;MINX:14.5
;MINY:40.875
;MINZ:0.263
;MAXX:105.525
;MAXY:79.125
;MAXZ:23.057
;Generated with Cura_SteamEngine 4.6.1
M140 S65
M105
M190 S65
M104 S205
M105
M109 S205
M82 ;absolute extrusion mode
G21;(metric values)
G90;(absolute positioning)
M82;(set extruder to absolute mode)
M107;(start with the fan off)
G28;(Home the printer)
G92 E0;(Reset the extruder to 0)
G0 Z5 E5 F500;(Move up and prime the nozzle)
G0 X-1 Z0;(Move outside the printable area)
G1 Y60 E8 F500;(Draw a priming/wiping line to the rear)
G1 X-1;(Move a little closer to the print area)
G1 Y10 E16 F500;(draw more priming/wiping)
G1 E15 F250;(Small retract)
G92 E0;(Zero the extruder)
G92 E0
G92 E0
G1 F2400 E-2.5
;LAYER_COUNT:175
;LAYER:0
M107
G0 F4320 X17.59 Y78.693 Z0.263
;TYPE:SKIRT
G1 F2400 E0
G1 F1800 X17.103 Y78.567 E0.01925
G1 X16.641 Y78.365 E0.03855
G1 X16.217 Y78.094 E0.05781
G1 X15.859 Y77.781 E0.076
G1 X15.521 Y77.408 E0.09527
G1 X15.246 Y76.986 E0.11454
G1 X15.041 Y76.526 E0.13382
G1 X14.912 Y76.039 E0.1531
G1 X14.86 Y75.525 E0.17287
G1 X14.85 Y74.957 E0.19461
G1 X14.85 Y45.164 E1.33479
G1 X14.86 Y44.49 E1.36058
G1 X14.908 Y43.989 E1.37984
G1 X15.034 Y43.501 E1.39913
G1 X15.235 Y43.039 E1.41841
G1 X15.507 Y42.616 E1.43766
G1 X15.819 Y42.259 E1.4558
G1 X16.192 Y41.921 E1.47507
G1 X16.614 Y41.646 E1.49434
G1 X17.074 Y41.441 E1.51362
G1 X17.561 Y41.312 E1.5329
G1 X18.074 Y41.261 E1.55263
G1 X18.633 Y41.251 E1.57402
G1 X45.926 Y41.251 E2.61853
G1 X47.165 Y41.233 E2.66595
G1 X48.29 Y41.225 E2.709
G1 X101.338 Y41.225 E4.73915
G1 X102.036 Y41.235 E4.76586
G1 X102.538 Y41.282 E4.78516
G1 X103.025 Y41.408 E4.80441
G1 X103.487 Y41.61 E4.8237
G1 X103.911 Y41.881 E4.84296
G1 X104.287 Y42.217 E4.86226
G1 X104.605 Y42.607 E4.88152
G1 X104.857 Y43.043 E4.90079
G1 X105.037 Y43.513 E4.92005
G1 X105.14 Y44.006 E4.93932
G1 X105.174 Y44.634 E4.96339
G1 X105.175 Y74.903 E6.12179
G1 X105.166 Y75.63 E6.14961
G1 X105.12 Y76.132 E6.1689
G1 X104.995 Y76.62 E6.18818
G1 X104.794 Y77.082 E6.20746
G1 X104.523 Y77.506 E6.22672
G1 X104.189 Y77.882 E6.24597
G1 X103.799 Y78.201 E6.26525
G1 X103.363 Y78.454 E6.28454
G1 X102.893 Y78.635 E6.30382
G1 X102.401 Y78.739 E6.32306
G1 X101.759 Y78.774 E6.34767
G1 X48.662 Y78.775 E8.37969
G1 X47.601 Y78.76 E8.42029
G1 X46.21 Y78.75 E8.47353
G1 X18.79 Y78.75 E9.52289
G1 X18.282 Y78.742 E9.54233
G0 F1620 X18.092 Y78.74
G0 X17.59 Y78.693
G0 F4320 X17.558 Y79.042
G1 F1800 X17.043 Y78.916 E9.56262
G1 X16.552 Y78.714 E9.58294
G1 X16.097 Y78.44 E9.60327
G1 X15.619 Y78.036 E9.62722
G1 X15.261 Y77.644 E9.64754
G1 X14.966 Y77.203 E9.66784
G1 X14.741 Y76.723 E9.68813
G1 X14.59 Y76.214 E9.70845
G1 X14.511 Y75.531 E9.73476
G1 X14.501 Y74.963 E9.7565
G1 X14.5 Y45.159 E10.8971
G1 X14.51 Y44.485 E10.9229
G1 X14.558 Y43.956 E10.94322
G1 X14.685 Y43.441 E10.96352
G1 X14.887 Y42.95 E10.98384
G1 X15.161 Y42.496 E11.00414
G1 X15.564 Y42.019 E11.02803
G1 X15.956 Y41.661 E11.04835
G1 X16.397 Y41.366 E11.06866
G1 X16.877 Y41.141 E11.08894
G1 X17.386 Y40.99 E11.10926
G1 X18.068 Y40.911 E11.13554
G1 X18.627 Y40.901 E11.15693
G1 X45.921 Y40.901 E12.20147
G1 X47.16 Y40.883 E12.24889
G1 X48.287 Y40.875 E12.29202
G1 X101.343 Y40.875 E14.32247
G1 X102.041 Y40.885 E14.34919
G1 X102.57 Y40.933 E14.36952
G1 X103.085 Y41.059 E14.38981
G1 X103.576 Y41.261 E14.41013
G1 X104.031 Y41.535 E14.43045
G1 X104.439 Y41.874 E14.45075
G1 X104.792 Y42.27 E14.47106
G1 X105.082 Y42.715 E14.49138
G1 X105.301 Y43.198 E14.51168
G1 X105.446 Y43.709 E14.53201
G1 X105.515 Y44.309 E14.55512
G1 X105.525 Y74.908 E15.72614
G1 X105.516 Y75.635 E15.75397
G1 X105.469 Y76.163 E15.77425
G1 X105.344 Y76.679 E15.79457
G1 X105.143 Y77.17 E15.81488
G1 X104.87 Y77.625 E15.83518
G1 X104.532 Y78.034 E15.85549
G1 X104.136 Y78.388 E15.87582
G1 X103.692 Y78.678 E15.89611
G1 X103.209 Y78.899 E15.91644
G1 X102.699 Y79.044 E15.93673
G1 X102.09 Y79.115 E15.96019
G1 X48.657 Y79.125 E18.00507
G1 X47.596 Y79.11 E18.04568
G1 X46.207 Y79.1 E18.09884
G1 X18.785 Y79.1 E19.14828
G1 X18.25 Y79.092 E19.16875
G0 F1620 X18.087 Y79.09
G0 X17.558 Y79.042
G0 F4320 X18.201 Y75.4
;TYPE:SUPPORT
G1 F1800 X18.2 Y44.601 E20.34743
G1 X47.15 Y44.601 E21.45534
G1 X47.15 Y47.634 E21.57142
G1 X47.25 Y47.735 E21.57686
G1 X47.25 Y72.265 E22.51562
G1 X47.15 Y72.366 E22.52106
G1 X47.15 Y75.4 E22.63717
G1 X18.895 Y75.4 E23.71849
G0 F1620 X18.201 Y75.4
G0 F4320 X31.297 Y66.053
G1 F1800 X31.647 Y66.403 E23.73743
G1 X41.441 Y66.403 E24.11224
G1 X41.791 Y66.053 E24.13119
G1 X41.791 Y54.347 E24.57917
G1 X41.441 Y53.997 E24.59812
G1 X31.647 Y53.997 E24.97293
G1 X31.297 Y54.347 E24.99188
G1 X31.297 Y65.359 E25.4133
G0 F1620 X31.297 Y66.053
G0 F4320 X31.156 Y65.324
G1 F1800 X18.339 Y65.324 E25.90381
G0 F4320 X18.339 Y62.991
G1 F1800 X31.156 Y62.991 E26.39432
G0 F4320 X31.156 Y60.658
G1 F1800 X18.339 Y60.658 E26.88482
G0 F4320 X18.339 Y58.325
G1 F1800 X31.156 Y58.325 E27.37533
G0 F4320 X31.156 Y55.992
G1 F1800 X18.339 Y55.992 E27.86583
G0 F4320 X18.339 Y53.659
G1 F1800 X47.11 Y53.659 E28.9669
G0 F4320 X47.11 Y51.326
G1 F1800 X18.339 Y51.326 E30.06796
G0 F4320 X18.339 Y48.993
G1 F1800 X47.11 Y48.993 E31.16903
G0 F4320 X47.01 Y46.66
G1 F1800 X18.339 Y46.66 E32.26626
G0 F4320 X18.664 Y44.741
G1 F1800 X18.664 Y75.26 E33.43422
G0 F4320 X18.339 Y74.656
G1 F1800 X47.009 Y74.656 E34.53142
G0 F4320 X46.66 Y75.26
G1 F1800 X46.66 Y44.741 E35.69938
G0 F4320 X44.327 Y44.741
G1 F1800 X44.327 Y75.26 E36.86734
G0 F4320 X41.994 Y75.26
G1 F1800 X41.994 Y44.741 E38.03531
G0 F4320 X39.661 Y44.741
G1 F1800 X39.661 Y53.857 E38.38417
G0 F4320 X37.328 Y53.857
G1 F1800 X37.328 Y44.741 E38.73304
G0 F4320 X34.995 Y44.741
G1 F1800 X34.995 Y53.857 E39.08191
G0 F4320 X32.662 Y53.857
G1 F1800 X32.662 Y44.741 E39.43078
G0 F4320 X30.329 Y44.741
G1 F1800 X30.329 Y75.26 E40.59874
G0 F4320 X27.996 Y75.26
G1 F1800 X27.996 Y44.741 E41.7667
G0 F4320 X25.663 Y44.741
G1 F1800 X25.663 Y75.26 E42.93466
G0 F4320 X23.33 Y75.26
G1 F1800 X23.33 Y44.741 E44.10262
G0 F4320 X20.997 Y44.741
G1 F1800 X20.997 Y75.26 E45.27058
G0 F4320 X18.339 Y72.323
G1 F1800 X47.009 Y72.323 E46.36778
G0 F4320 X47.109 Y69.99
G1 F1800 X18.339 Y69.99 E47.46881
G0 F4320 X18.339 Y67.657
G1 F1800 X47.109 Y67.657 E48.56983
G0 F4320 X47.109 Y65.324
G1 F1800 X41.93 Y65.324 E48.76803
G0 F4320 X41.93 Y62.991
G1 F1800 X47.109 Y62.991 E48.96623
G0 F4320 X47.109 Y60.658
G1 F1800 X41.93 Y60.658 E49.16443
G0 F4320 X41.931 Y58.325
G1 F1800 X47.11 Y58.325 E49.36263
G0 F4320 X47.11 Y55.992
G1 F1800 X41.931 Y55.992 E49.56083
G0 F4320 X39.661 Y66.543
G1 F1800 X39.661 Y75.26 E49.89443
G0 F4320 X37.328 Y75.26
G1 F1800 X37.328 Y66.543 E50.22803
G0 F4320 X34.995 Y66.543
G1 F1800 X34.995 Y75.26 E50.56163
G0 F4320 X32.662 Y75.26
G1 F1800 X32.662 Y66.543 E50.89523
G1 F2400 E48.39523
;MESH:central_prototype1_bottom.stl
G0 F4320 X47.46 Y66.543
G0 X48.407 Y66.543
G0 X48.975 Y71.625
;TYPE:WALL-INNER
G1 F2400 E50.89523
G1 F1800 X48.975 Y48.375 E51.78501
G1 X101.125 Y48.375 E53.78078
G1 X101.125 Y71.625 E54.67056
G1 X49.669 Y71.625 E56.63978
G0 F1620 X48.975 Y71.625
G0 F4320 X101.315 Y72.185
G0 X101.315 Y72.915
G0 X48.932 Y72.927
G0 X48.875 Y74.725
G1 F1800 X48.875 Y73.475 E56.68762
G1 X101.125 Y73.475 E58.68722
G1 X101.125 Y74.725 E58.73506
G1 X49.569 Y74.725 E60.7081
G0 F1620 X48.875 Y74.725
G0 F4320 X48.875 Y72.927
G0 X101.315 Y72.915
G0 X101.315 Y47.085
G0 X48.875 Y46.525
G1 F1800 X48.875 Y45.275 E60.75594
G1 X101.125 Y45.275 E62.75555
G1 X101.125 Y46.525 E62.80338
G1 X49.569 Y46.525 E64.77643
G0 F1620 X48.875 Y46.525
G0 F4320 X48.525 Y46.875
G1 F1800 X48.525 Y44.925 E64.85105
G1 X101.475 Y44.925 E66.87745
G1 X101.475 Y46.875 E66.95207
G1 X49.219 Y46.875 E68.95191
G0 F1620 X48.525 Y46.875
G0 F4320 X101.315 Y47.085
G0 X101.315 Y47.815
G0 X48.527 Y47.826
G0 X48.625 Y71.975
G1 F1800 X48.625 Y48.025 E69.86847
G1 X101.475 Y48.025 E71.89104
G1 X101.475 Y71.975 E72.8076
G1 X49.319 Y71.975 E74.80361
G0 F1620 X48.625 Y71.975
G0 F4320 X101.315 Y72.185
G0 X101.315 Y72.915
G0 X48.593 Y72.927
G0 X48.525 Y75.075
G1 F1800 X48.525 Y73.125 E74.87824
G1 X101.475 Y73.125 E76.90463
G1 X101.475 Y75.075 E76.97926
G1 X49.219 Y75.075 E78.97909
G0 F1620 X48.525 Y75.075
G0 F4320 X49.032 Y73.632
G0 X101.315 Y72.915
G0 X101.2 Y72.8
;TYPE:WALL-OUTER
G1 F1800 X101.2 Y72.3 E78.99823
G1 X48.3 Y72.3 E81.02271
G1 X48.3 Y47.7 E81.96415
G1 X101.2 Y47.7 E83.98863
G1 X101.2 Y47.2 E84.00776
G1 X48.2 Y47.2 E86.03607
G1 X48.2 Y44.6 E86.13557
G1 X101.8 Y44.6 E88.18684
G1 X101.8 Y75.4 E89.36556
G1 X48.2 Y75.4 E91.41682
G1 X48.2 Y72.8 E91.51633
G1 X100.506 Y72.8 E93.51807
G0 F1620 X101.2 Y72.8
G0 F4320 X101.2 Y72.6
G0 X101.387 Y72.6
G0 X100.785 Y73.56
G0 X100.785 Y73.815
;TYPE:SKIN
G1 F1800 X100.785 Y74.385 E93.53989
G1 X49.215 Y74.385 E95.51347
G1 X49.215 Y73.815 E95.53528
G1 X100.091 Y73.815 E97.4823
G0 F1620 X100.785 Y73.815
G0 F4320 X100.46 Y74.227
G1 F1800 X100.205 Y73.971 E97.49613
G0 F4320 X99.965 Y74.227
G1 F1800 X99.71 Y73.971 E97.50996
G0 F4320 X99.47 Y74.227
G1 F1800 X99.215 Y73.971 E97.52379
G0 F4320 X98.975 Y74.227
G1 F1800 X98.72 Y73.971 E97.53762
G0 F4320 X98.48 Y74.227
G1 F1800 X98.225 Y73.971 E97.55144
G0 F4320 X97.985 Y74.227
G1 F1800 X97.73 Y73.971 E97.56527
G0 F4320 X97.49 Y74.227
G1 F1800 X97.235 Y73.971 E97.5791
G0 F4320 X96.995 Y74.227
G1 F1800 X96.74 Y73.971 E97.59293
G0 F4320 X96.5 Y74.227
G1 F1800 X96.245 Y73.971 E97.60676
G0 F4320 X96.006 Y74.227
G1 F1800 X95.75 Y73.971 E97.62061
G0 F4320 X95.511 Y74.227
G1 F1800 X95.255 Y73.971 E97.63447
G0 F4320 X95.016 Y74.227
G1 F1800 X94.76 Y73.971 E97.64832
G0 F4320 X94.521 Y74.227
G1 F1800 X94.265 Y73.971 E97.66218
G0 F4320 X94.026 Y74.227
G1 F1800 X93.77 Y73.971 E97.67603
G0 F4320 X93.531 Y74.227
G1 F1800 X93.275 Y73.971 E97.68989
G0 F4320 X93.036 Y74.227
G1 F1800 X92.78 Y73.971 E97.70374
G0 F4320 X92.541 Y74.227
G1 F1800 X92.285 Y73.971 E97.7176
G0 F4320 X92.046 Y74.227
G1 F1800 X91.79 Y73.971 E97.73145
G0 F4320 X91.551 Y74.227
G1 F1800 X91.295 Y73.971 E97.74531
G0 F4320 X91.056 Y74.227
G1 F1800 X90.8 Y73.971 E97.75916
G0 F4320 X90.561 Y74.227
G1 F1800 X90.306 Y73.971 E97.77299
G0 F4320 X90.066 Y74.227
G1 F1800 X89.811 Y73.971 E97.78682
G0 F4320 X89.571 Y74.227
G1 F1800 X89.316 Y73.971 E97.80065
G0 F4320 X89.076 Y74.227
G1 F1800 X88.821 Y73.971 E97.81448
G0 F4320 X88.581 Y74.227
G1 F1800 X88.326 Y73.971 E97.82831
G0 F4320 X88.086 Y74.227
G1 F1800 X87.831 Y73.971 E97.84213
G0 F4320 X87.591 Y74.227
G1 F1800 X87.336 Y73.971 E97.85596
G0 F4320 X87.096 Y74.227
G1 F1800 X86.841 Y73.971 E97.86979
G0 F4320 X86.601 Y74.227
G1 F1800 X86.346 Y73.971 E97.88362
G0 F4320 X86.106 Y74.227
G1 F1800 X85.851 Y73.971 E97.89745
G0 F4320 X85.611 Y74.227
G1 F1800 X85.356 Y73.971 E97.91127
G0 F4320 X85.116 Y74.227
G1 F1800 X84.861 Y73.971 E97.9251
G0 F4320 X84.621 Y74.227
G1 F1800 X84.366 Y73.971 E97.93893
G0 F4320 X84.126 Y74.227
G1 F1800 X83.871 Y73.971 E97.95276
G0 F4320 X83.631 Y74.227
G1 F1800 X83.376 Y73.971 E97.96659
G0 F4320 X83.136 Y74.227
G1 F1800 X82.881 Y73.971 E97.98042
G0 F4320 X82.641 Y74.227
G1 F1800 X82.386 Y73.971 E97.99424
G0 F4320 X82.146 Y74.227
G1 F1800 X81.891 Y73.971 E98.00807
G0 F4320 X81.651 Y74.227
G1 F1800 X81.396 Y73.971 E98.0219
G0 F4320 X81.156 Y74.227
G1 F1800 X80.901 Y73.971 E98.03573
G0 F4320 X80.661 Y74.227
G1 F1800 X80.406 Y73.971 E98.04956
G0 F4320 X80.166 Y74.227
G1 F1800 X79.911 Y73.971 E98.06338
G0 F4320 X79.671 Y74.227
G1 F1800 X79.416 Y73.971 E98.07721
G0 F4320 X79.176 Y74.227
G1 F1800 X78.921 Y73.971 E98.09104
G0 F4320 X78.681 Y74.227
G1 F1800 X78.426 Y73.971 E98.10487
G0 F4320 X78.186 Y74.227
G1 F1800 X77.931 Y73.971 E98.1187
G0 F4320 X77.691 Y74.227
G1 F1800 X77.436 Y73.971 E98.13252
G0 F4320 X77.196 Y74.227
G1 F1800 X76.941 Y73.971 E98.14635
G0 F4320 X76.701 Y74.227
G1 F1800 X76.446 Y73.971 E98.16018
G0 F4320 X76.207 Y74.227
G1 F1800 X75.951 Y73.971 E98.17404
G0 F4320 X75.712 Y74.227
G1 F1800 X75.456 Y73.971 E98.18789
G0 F4320 X75.217 Y74.227
G1 F1800 X74.961 Y73.971 E98.20175
G0 F4320 X74.722 Y74.227
G1 F1800 X74.466 Y73.971 E98.2156
G0 F4320 X74.227 Y74.227
G1 F1800 X73.971 Y73.971 E98.22946
G0 F4320 X73.732 Y74.227
G1 F1800 X73.476 Y73.971 E98.24331
G0 F4320 X73.237 Y74.227
G1 F1800 X72.981 Y73.971 E98.25717
G0 F4320 X72.742 Y74.227
G1 F1800 X72.486 Y73.971 E98.27102
G0 F4320 X72.247 Y74.227
G1 F1800 X71.991 Y73.971 E98.28488
G0 F4320 X71.752 Y74.227
G1 F1800 X71.496 Y73.971 E98.29873
G0 F4320 X71.257 Y74.227
G1 F1800 X71.002 Y73.971 E98.31256
G0 F4320 X70.762 Y74.227
G1 F1800 X70.507 Y73.971 E98.32639
G0 F4320 X70.267 Y74.227
G1 F1800 X70.012 Y73.971 E98.34022
G0 F4320 X69.772 Y74.227
G1 F1800 X69.517 Y73.971 E98.35405
G0 F4320 X69.277 Y74.227
G1 F1800 X69.022 Y73.971 E98.36787
G0 F4320 X68.782 Y74.227
G1 F1800 X68.527 Y73.971 E98.3817
G0 F4320 X68.287 Y74.227
G1 F1800 X68.032 Y73.971 E98.39553
G0 F4320 X67.792 Y74.227
G1 F1800 X67.537 Y73.971 E98.40936
G0 F4320 X67.297 Y74.227
G1 F1800 X67.042 Y73.971 E98.42319
G0 F4320 X66.802 Y74.227
G1 F1800 X66.547 Y73.971 E98.43701
G0 F4320 X66.307 Y74.227
G1 F1800 X66.052 Y73.971 E98.45084
G0 F4320 X65.812 Y74.227
G1 F1800 X65.557 Y73.971 E98.46467
G0 F4320 X65.317 Y74.227
G1 F1800 X65.062 Y73.971 E98.4785
G0 F4320 X64.822 Y74.227
G1 F1800 X64.567 Y73.971 E98.49233
G0 F4320 X64.327 Y74.227
G1 F1800 X64.072 Y73.971 E98.50616
G0 F4320 X63.832 Y74.227
G1 F1800 X63.577 Y73.971 E98.51998
G0 F4320 X63.337 Y74.227
G1 F1800 X63.082 Y73.971 E98.53381
G0 F4320 X62.842 Y74.227
G1 F1800 X62.587 Y73.971 E98.54764
G0 F4320 X62.347 Y74.227
G1 F1800 X62.092 Y73.971 E98.56147
G0 F4320 X61.852 Y74.227
G1 F1800 X61.597 Y73.971 E98.5753
G0 F4320 X61.357 Y74.227
G1 F1800 X61.102 Y73.971 E98.58912
G0 F4320 X60.862 Y74.227
G1 F1800 X60.607 Y73.971 E98.60295
G0 F4320 X60.367 Y74.227
G1 F1800 X60.112 Y73.971 E98.61678
G0 F4320 X59.872 Y74.227
G1 F1800 X59.617 Y73.971 E98.63061
G0 F4320 X59.377 Y74.227
G1 F1800 X59.122 Y73.971 E98.64444
G0 F4320 X58.882 Y74.227
G1 F1800 X58.627 Y73.971 E98.65827
G0 F4320 X58.387 Y74.227
G1 F1800 X58.132 Y73.971 E98.67209
G0 F4320 X57.892 Y74.227
G1 F1800 X57.637 Y73.971 E98.68592
G0 F4320 X57.397 Y74.227
G1 F1800 X57.142 Y73.971 E98.69975
G0 F4320 X56.903 Y74.227
G1 F1800 X56.647 Y73.971 E98.71361
G0 F4320 X56.408 Y74.227
G1 F1800 X56.152 Y73.971 E98.72746
G0 F4320 X55.913 Y74.227
G1 F1800 X55.657 Y73.971 E98.74132
G0 F4320 X55.418 Y74.227
G1 F1800 X55.162 Y73.971 E98.75517
G0 F4320 X54.923 Y74.227
G1 F1800 X54.667 Y73.971 E98.76903
G0 F4320 X54.428 Y74.227
G1 F1800 X54.172 Y73.971 E98.78288
G0 F4320 X53.933 Y74.227
G1 F1800 X53.677 Y73.971 E98.79674
G0 F4320 X53.438 Y74.227
G1 F1800 X53.182 Y73.971 E98.81059
G0 F4320 X52.943 Y74.227
G1 F1800 X52.687 Y73.971 E98.82445
G0 F4320 X52.448 Y74.227
G1 F1800 X52.192 Y73.971 E98.8383
G0 F4320 X51.953 Y74.227
G1 F1800 X51.697 Y73.971 E98.85216
G0 F4320 X51.458 Y74.227
G1 F1800 X51.203 Y73.971 E98.86599
G0 F4320 X50.963 Y74.227
G1 F1800 X50.708 Y73.971 E98.87981
G0 F4320 X50.468 Y74.227
G1 F1800 X50.213 Y73.971 E98.89364
G0 F4320 X49.973 Y74.227
G1 F1800 X49.718 Y73.971 E98.90747
G0 F4320 X49.478 Y74.227
G1 F1800 X49.372 Y74.121 E98.91321
G0 F4320 X48.96 Y74.121
G0 X49.001 Y72.927
G0 X101.315 Y72.915
G0 X101.315 Y72.185
G0 X49.028 Y72.172
G0 X49.06 Y71.285
G0 X49.315 Y71.285
G1 F1800 X49.315 Y48.715 E99.77696
G1 X100.785 Y48.715 E101.74671
G1 X100.785 Y71.285 E102.61047
G1 X50.009 Y71.285 E104.55366
G0 F1620 X49.315 Y71.285
G0 F4320 X49.843 Y71.127
G1 F1800 X49.471 Y70.755 E104.57379
G0 F4320 X49.471 Y70.26
G1 F1800 X50.338 Y71.127 E104.62072
G0 F4320 X50.833 Y71.127
G1 F1800 X49.471 Y69.765 E104.69443
G0 F4320 X49.471 Y69.27
G1 F1800 X51.328 Y71.127 E104.79494
G0 F4320 X51.823 Y71.127
G1 F1800 X49.471 Y68.775 E104.92223
G0 F4320 X49.471 Y68.28
G1 F1800 X52.318 Y71.127 E105.07632
G0 F4320 X52.813 Y71.127
G1 F1800 X49.471 Y67.785 E105.25719
G0 F4320 X49.471 Y67.29
G1 F1800 X53.308 Y71.127 E105.46486
G0 F4320 X53.803 Y71.127
G1 F1800 X49.471 Y66.795 E105.69931
G0 F4320 X49.471 Y66.3
G1 F1800 X54.298 Y71.127 E105.96056
G0 F4320 X54.793 Y71.127
G1 F1800 X49.471 Y65.805 E106.2486
G0 F4320 X49.471 Y65.31
