;FLAVOR:Marlin
;TIME:3090
;Filament used: 1.38927m
;Layer height: 0.13125
;MINX:14.975
;MINY:42.725
;MINZ:0.263
;MAXX:105.025
;MAXY:77.275
;MAXZ:1.442
;Generated with Cura_SteamEngine 4.6.1
M140 S65
M105
M190 S65
M104 S205
M105
M109 S205
M82 ;absolute extrusion mode
G21;(metric values)
G90;(absolute positioning)
M82;(set extruder to absolute mode)
M107;(start with the fan off)
G28;(Home the printer)
G92 E0;(Reset the extruder to 0)
G0 Z5 E5 F500;(Move up and prime the nozzle)
G0 X-1 Z0;(Move outside the printable area)
G1 Y60 E8 F500;(Draw a priming/wiping line to the rear)
G1 X-1;(Move a little closer to the print area)
G1 Y10 E16 F500;(draw more priming/wiping)
G1 E15 F250;(Small retract)
G92 E0;(Zero the extruder)
G92 E0
G92 E0
G1 F2400 E-2.5
;LAYER_COUNT:10
;LAYER:0
M107
G0 F4320 X102.038 Y43.132 Z0.263
;TYPE:SKIRT
G1 F2400 E0
G1 F1800 X102.525 Y43.258 E0.01925
G1 X102.987 Y43.46 E0.03855
G1 X103.411 Y43.731 E0.05781
G1 X103.787 Y44.067 E0.0771
G1 X104.105 Y44.457 E0.09636
G1 X104.357 Y44.893 E0.11563
G1 X104.537 Y45.363 E0.13489
G1 X104.64 Y45.856 E0.15417
G1 X104.674 Y46.491 E0.17851
G1 X104.675 Y73.053 E1.19503
G1 X104.666 Y73.78 E1.22286
G1 X104.62 Y74.282 E1.24215
G1 X104.495 Y74.77 E1.26143
G1 X104.294 Y75.232 E1.28071
G1 X104.023 Y75.656 E1.29997
G1 X103.689 Y76.032 E1.31921
G1 X103.299 Y76.351 E1.33849
G1 X102.863 Y76.604 E1.35779
G1 X102.393 Y76.785 E1.37706
G1 X101.901 Y76.889 E1.39631
G1 X101.259 Y76.924 E1.42091
G1 X19.166 Y76.925 E4.56261
G1 X18.468 Y76.916 E4.58932
G1 X17.967 Y76.869 E4.60858
G1 X17.479 Y76.744 E4.62786
G1 X17.017 Y76.544 E4.64712
G1 X16.593 Y76.272 E4.6664
G1 X16.216 Y75.938 E4.68568
G1 X15.898 Y75.547 E4.70496
G1 X15.645 Y75.112 E4.72422
G1 X15.464 Y74.642 E4.7435
G1 X15.36 Y74.149 E4.76278
G1 X15.326 Y73.494 E4.78788
G1 X15.325 Y46.881 E5.80636
G1 X15.334 Y46.216 E5.83181
G1 X15.381 Y45.715 E5.85107
G1 X15.506 Y45.227 E5.87035
G1 X15.707 Y44.765 E5.88963
G1 X15.979 Y44.341 E5.90891
G1 X16.314 Y43.965 E5.92818
G1 X16.704 Y43.647 E5.94744
G1 X17.14 Y43.394 E5.96673
G1 X17.61 Y43.214 E5.98599
G1 X18.103 Y43.11 E6.00527
G1 X18.741 Y43.076 E6.02972
G1 X100.838 Y43.075 E9.17157
G1 X101.346 Y43.083 E9.19101
G0 F1620 X101.536 Y43.085
G0 X102.038 Y43.132
G0 F4320 X102.07 Y42.783
G1 F1800 X102.585 Y42.909 E9.2113
G1 X103.076 Y43.111 E9.23162
G1 X103.531 Y43.385 E9.25195
G1 X103.939 Y43.724 E9.27225
G1 X104.292 Y44.12 E9.29255
G1 X104.582 Y44.565 E9.31288
G1 X104.801 Y45.048 E9.33317
G1 X104.946 Y45.559 E9.3535
G1 X105.015 Y46.161 E9.37669
G1 X105.025 Y73.058 E10.40604
G1 X105.016 Y73.785 E10.43386
G1 X104.969 Y74.313 E10.45415
G1 X104.844 Y74.829 E10.47447
G1 X104.643 Y75.32 E10.49477
G1 X104.37 Y75.775 E10.51508
G1 X104.032 Y76.184 E10.53538
G1 X103.636 Y76.538 E10.55571
G1 X103.192 Y76.828 E10.57601
G1 X102.709 Y77.049 E10.59633
G1 X102.199 Y77.194 E10.61662
G1 X101.59 Y77.265 E10.64009
G1 X19.162 Y77.275 E13.7946
G1 X18.464 Y77.266 E13.82132
G1 X17.935 Y77.219 E13.84164
G1 X17.419 Y77.093 E13.86197
G1 X16.928 Y76.892 E13.88227
G1 X16.473 Y76.619 E13.90258
G1 X16.064 Y76.281 E13.92289
G1 X15.711 Y75.885 E13.94319
G1 X15.421 Y75.441 E13.96348
G1 X15.201 Y74.958 E13.9838
G1 X15.055 Y74.447 E14.00413
G1 X14.985 Y73.836 E14.02767
G1 X14.975 Y46.876 E15.05943
G1 X14.984 Y46.211 E15.08488
G1 X15.031 Y45.683 E15.10517
G1 X15.157 Y45.167 E15.12549
G1 X15.359 Y44.676 E15.14581
G1 X15.632 Y44.222 E15.16609
G1 X15.971 Y43.813 E15.18642
G1 X16.367 Y43.46 E15.20672
G1 X16.811 Y43.17 E15.22701
G1 X17.294 Y42.95 E15.24732
G1 X17.805 Y42.805 E15.26765
G1 X18.41 Y42.735 E15.29096
G1 X100.843 Y42.725 E18.44567
G1 X101.378 Y42.733 E18.46614
G0 F1620 X101.541 Y42.735
G0 X102.07 Y42.783
G1 F2400 E15.96614
;MESH:central_prototype2_top.stl
G0 F4320 X100.44 Y45.61
G0 X100.44 Y47.31
G0 X100.468 Y72.718
G0 X19.375 Y72.875
;TYPE:WALL-INNER
G1 F2400 E18.46614
G1 F1800 X19.375 Y47.125 E19.45159
G1 X100.625 Y47.125 E22.56103
G1 X100.625 Y72.875 E23.54648
G1 X20.069 Y72.875 E26.62935
G0 F1620 X19.375 Y72.875
G0 F4320 X19.025 Y73.225
G1 F1800 X19.025 Y46.775 E27.64159
G1 X100.975 Y46.775 E30.77781
G1 X100.975 Y73.225 E31.79005
G1 X19.719 Y73.225 E34.89972
G0 F1620 X19.025 Y73.225
G0 F4320 X18.7 Y73.55
;TYPE:WALL-OUTER
G1 F1800 X18.7 Y46.45 E35.93683
G1 X101.3 Y46.45 E39.09793
G1 X101.3 Y73.55 E40.13504
G1 X19.394 Y73.55 E43.26958
G0 F1620 X18.7 Y73.55
G0 F4320 X18.7 Y73.35
G0 X18.975 Y73.35
G0 X19.46 Y72.535
G0 X19.715 Y72.535
;TYPE:SKIN
G1 F1800 X19.715 Y47.465 E44.22901
G1 X100.285 Y47.465 E47.31242
G1 X100.285 Y72.535 E48.27185
G1 X20.409 Y72.535 E51.3287
G0 F1620 X19.715 Y72.535
G0 F4320 X20.404 Y72.377
G1 F1800 X19.871 Y71.844 E51.35754
G0 F4320 X19.871 Y71.349
G1 F1800 X20.899 Y72.377 E51.41318
G0 F4320 X21.394 Y72.377
G1 F1800 X19.871 Y70.854 E51.49561
G0 F4320 X19.871 Y70.359
G1 F1800 X21.889 Y72.377 E51.60483
G0 F4320 X22.384 Y72.377
G1 F1800 X19.871 Y69.864 E51.74083
G0 F4320 X19.871 Y69.369
G1 F1800 X22.879 Y72.377 E51.90363
G0 F4320 X23.374 Y72.377
G1 F1800 X19.871 Y68.874 E52.09322
G0 F4320 X19.871 Y68.379
G1 F1800 X23.869 Y72.377 E52.3096
G0 F4320 X24.364 Y72.377
G1 F1800 X19.871 Y67.884 E52.55277
G0 F4320 X19.871 Y67.389
G1 F1800 X24.859 Y72.377 E52.82273
G0 F4320 X25.354 Y72.377
G1 F1800 X19.871 Y66.894 E53.11948
G0 F4320 X19.871 Y66.399
G1 F1800 X25.849 Y72.377 E53.44302
G0 F4320 X26.344 Y72.377
G1 F1800 X19.871 Y65.904 E53.79335
G0 F4320 X19.871 Y65.409
G1 F1800 X26.839 Y72.377 E54.17047
G0 F4320 X27.334 Y72.377
G1 F1800 X19.871 Y64.914 E54.57439
G0 F4320 X19.871 Y64.419
G1 F1800 X27.829 Y72.377 E55.00509
G0 F4320 X28.324 Y72.377
G1 F1800 X19.871 Y63.924 E55.46258
G0 F4320 X19.871 Y63.429
G1 F1800 X28.819 Y72.377 E55.94686
G0 F4320 X29.314 Y72.377
G1 F1800 X19.871 Y62.934 E56.45793
G0 F4320 X19.871 Y62.439
G1 F1800 X29.809 Y72.377 E56.9958
G0 F4320 X30.304 Y72.377
G1 F1800 X19.871 Y61.944 E57.56045
G0 F4320 X19.871 Y61.449
G1 F1800 X30.799 Y72.377 E58.15189
G0 F4320 X31.294 Y72.377
G1 F1800 X19.871 Y60.954 E58.77013
G0 F4320 X19.871 Y60.459
G1 F1800 X31.789 Y72.377 E59.41515
G0 F4320 X32.284 Y72.377
G1 F1800 X19.871 Y59.964 E60.08697
G0 F4320 X19.871 Y59.469
G1 F1800 X32.779 Y72.377 E60.78557
G0 F4320 X33.274 Y72.377
G1 F1800 X19.871 Y58.974 E61.51097
G0 F4320 X19.871 Y58.479
G1 F1800 X33.769 Y72.377 E62.26315
G0 F4320 X34.264 Y72.377
G1 F1800 X19.871 Y57.984 E63.04213
G0 F4320 X19.871 Y57.489
G1 F1800 X34.759 Y72.377 E63.8479
G0 F4320 X35.254 Y72.377
G1 F1800 X19.871 Y56.994 E64.68045
G0 F4320 X19.871 Y56.499
G1 F1800 X35.749 Y72.377 E65.5398
G0 F4320 X36.244 Y72.377
G1 F1800 X19.871 Y56.004 E66.42594
G0 F4320 X19.871 Y55.51
G1 F1800 X36.739 Y72.377 E67.33884
G0 F4320 X37.234 Y72.377
G1 F1800 X19.871 Y55.015 E68.27853
G0 F4320 X19.871 Y54.52
G1 F1800 X37.729 Y72.377 E69.24501
G0 F4320 X38.224 Y72.377
G1 F1800 X19.871 Y54.025 E70.23828
G0 F4320 X19.871 Y53.53
G1 F1800 X38.719 Y72.377 E71.25835
G0 F4320 X39.214 Y72.377
G1 F1800 X19.871 Y53.035 E72.3052
G0 F4320 X19.871 Y52.54
G1 F1800 X39.708 Y72.377 E73.37881
G0 F4320 X40.203 Y72.377
G1 F1800 X19.871 Y52.045 E74.47922
G0 F4320 X19.871 Y51.55
G1 F1800 X40.698 Y72.377 E75.60642
G0 F4320 X41.193 Y72.377
G1 F1800 X19.871 Y51.055 E76.7604
G0 F4320 X19.871 Y50.56
G1 F1800 X41.688 Y72.377 E77.94118
G0 F4320 X42.183 Y72.377
G1 F1800 X19.871 Y50.065 E79.14875
G0 F4320 X19.871 Y49.57
G1 F1800 X42.678 Y72.377 E80.3831
G0 F4320 X43.173 Y72.377
G1 F1800 X19.871 Y49.075 E81.64425
G0 F4320 X19.871 Y48.58
G1 F1800 X43.668 Y72.377 E82.93219
G0 F4320 X44.163 Y72.377
G1 F1800 X19.871 Y48.085 E84.24692
G0 F4320 X19.903 Y47.622
G1 F1800 X44.658 Y72.377 E85.5867
G0 F4320 X45.153 Y72.377
G1 F1800 X20.398 Y47.622 E86.92649
G0 F4320 X20.893 Y47.622
G1 F1800 X45.648 Y72.377 E88.26628
G0 F4320 X46.143 Y72.377
G1 F1800 X21.388 Y47.622 E89.60607
G0 F4320 X21.883 Y47.622
G1 F1800 X46.638 Y72.377 E90.94585
G0 F4320 X47.133 Y72.377
G1 F1800 X22.378 Y47.622 E92.28564
G0 F4320 X22.873 Y47.622
G1 F1800 X47.628 Y72.377 E93.62543
G0 F4320 X48.123 Y72.377
G1 F1800 X23.368 Y47.622 E94.96521
G0 F4320 X23.863 Y47.622
G1 F1800 X48.618 Y72.377 E96.305
G0 F4320 X49.113 Y72.377
G1 F1800 X24.358 Y47.622 E97.64479
G0 F4320 X24.853 Y47.622
G1 F1800 X49.608 Y72.377 E98.98457
G0 F4320 X50.103 Y72.377
G1 F1800 X25.348 Y47.622 E100.32436
G0 F4320 X25.843 Y47.622
G1 F1800 X50.598 Y72.377 E101.66415
G0 F4320 X51.093 Y72.377
G1 F1800 X26.338 Y47.622 E103.00394
G0 F4320 X26.833 Y47.622
G1 F1800 X51.588 Y72.377 E104.34372
G0 F4320 X52.083 Y72.377
G1 F1800 X27.328 Y47.622 E105.68351
G0 F4320 X27.823 Y47.622
G1 F1800 X52.578 Y72.377 E107.0233
G0 F4320 X53.073 Y72.377
G1 F1800 X28.318 Y47.622 E108.36308
G0 F4320 X28.813 Y47.622
G1 F1800 X53.568 Y72.377 E109.70287
G0 F4320 X54.063 Y72.377
G1 F1800 X29.308 Y47.622 E111.04266
G0 F4320 X29.803 Y47.622
G1 F1800 X54.558 Y72.377 E112.38244
G0 F4320 X55.053 Y72.377
G1 F1800 X30.298 Y47.622 E113.72223
G0 F4320 X30.793 Y47.622
G1 F1800 X55.548 Y72.377 E115.06202
G0 F4320 X56.043 Y72.377
G1 F1800 X31.288 Y47.622 E116.4018
G0 F4320 X31.783 Y47.622
G1 F1800 X56.538 Y72.377 E117.74159
G0 F4320 X57.033 Y72.377
G1 F1800 X32.278 Y47.622 E119.08138
G0 F4320 X32.772 Y47.622
G1 F1800 X57.528 Y72.377 E120.42119
G0 F4320 X58.023 Y72.377
G1 F1800 X33.267 Y47.622 E121.76101
G0 F4320 X33.762 Y47.622
G1 F1800 X58.518 Y72.377 E123.10082
G0 F4320 X59.013 Y72.377
G1 F1800 X34.257 Y47.622 E124.44063
G0 F4320 X34.752 Y47.622
G1 F1800 X59.507 Y72.377 E125.78042
G0 F4320 X60.002 Y72.377
G1 F1800 X35.247 Y47.622 E127.12021
G0 F4320 X35.742 Y47.622
G1 F1800 X60.497 Y72.377 E128.46
G0 F4320 X60.992 Y72.377
G1 F1800 X36.237 Y47.622 E129.79978
G0 F4320 X36.732 Y47.622
G1 F1800 X61.487 Y72.377 E131.13957
G0 F4320 X61.982 Y72.377
G1 F1800 X37.227 Y47.622 E132.47936
G0 F4320 X37.722 Y47.622
G1 F1800 X62.477 Y72.377 E133.81914
G0 F4320 X62.972 Y72.377
G1 F1800 X38.217 Y47.622 E135.15893
G0 F4320 X38.712 Y47.622
G1 F1800 X63.467 Y72.377 E136.49872
G0 F4320 X63.962 Y72.377
G1 F1800 X39.207 Y47.622 E137.8385
G0 F4320 X39.702 Y47.622
G1 F1800 X64.457 Y72.377 E139.17829
G0 F4320 X64.952 Y72.377
G1 F1800 X40.197 Y47.622 E140.51808
G0 F4320 X40.692 Y47.622
G1 F1800 X65.447 Y72.377 E141.85786
G0 F4320 X65.942 Y72.377
G1 F1800 X41.187 Y47.622 E143.19765
G0 F4320 X41.682 Y47.622
G1 F1800 X66.437 Y72.377 E144.53744
G0 F4320 X66.932 Y72.377
G1 F1800 X42.177 Y47.622 E145.87723
G0 F4320 X42.672 Y47.622
G1 F1800 X67.427 Y72.377 E147.21701
G0 F4320 X67.922 Y72.377
G1 F1800 X43.167 Y47.622 E148.5568
G0 F4320 X43.662 Y47.622
G1 F1800 X68.417 Y72.377 E149.89659
G0 F4320 X68.912 Y72.377
G1 F1800 X44.157 Y47.622 E151.23637
G0 F4320 X44.652 Y47.622
G1 F1800 X69.407 Y72.377 E152.57616
G0 F4320 X69.902 Y72.377
G1 F1800 X45.147 Y47.622 E153.91595
G0 F4320 X45.642 Y47.622
G1 F1800 X70.397 Y72.377 E155.25573
G0 F4320 X70.892 Y72.377
G1 F1800 X46.137 Y47.622 E156.59552
G0 F4320 X46.632 Y47.622
G1 F1800 X71.387 Y72.377 E157.93531
G0 F4320 X71.882 Y72.377
G1 F1800 X47.127 Y47.622 E159.2751
G0 F4320 X47.622 Y47.622
G1 F1800 X72.377 Y72.377 E160.61488
G0 F4320 X72.872 Y72.377
G1 F1800 X48.117 Y47.622 E161.95467
G0 F4320 X48.612 Y47.622
G1 F1800 X73.367 Y72.377 E163.29446
G0 F4320 X73.862 Y72.377
G1 F1800 X49.107 Y47.622 E164.63424
G0 F4320 X49.602 Y47.622
G1 F1800 X74.357 Y72.377 E165.97403
G0 F4320 X74.852 Y72.377
G1 F1800 X50.097 Y47.622 E167.31382
G0 F4320 X50.592 Y47.622
G1 F1800 X75.347 Y72.377 E168.6536
G0 F4320 X75.842 Y72.377
G1 F1800 X51.087 Y47.622 E169.99339
G0 F4320 X51.582 Y47.622
G1 F1800 X76.337 Y72.377 E171.33318
G0 F4320 X76.832 Y72.377
G1 F1800 X52.077 Y47.622 E172.67296
G0 F4320 X52.571 Y47.622
G1 F1800 X77.327 Y72.377 E174.01278
G0 F4320 X77.822 Y72.377
G1 F1800 X53.066 Y47.622 E175.35259
G0 F4320 X53.561 Y47.622
G1 F1800 X78.317 Y72.377 E176.69241
G0 F4320 X78.812 Y72.377
G1 F1800 X54.056 Y47.622 E178.03222
G0 F4320 X54.551 Y47.622
G1 F1800 X79.306 Y72.377 E179.37201
G0 F4320 X79.801 Y72.377
G1 F1800 X55.046 Y47.622 E180.71179
G0 F4320 X55.541 Y47.622
G1 F1800 X80.296 Y72.377 E182.05158
G0 F4320 X80.791 Y72.377
G1 F1800 X56.036 Y47.622 E183.39137
G0 F4320 X56.531 Y47.622
G1 F1800 X81.286 Y72.377 E184.73116
G0 F4320 X81.781 Y72.377
G1 F1800 X57.026 Y47.622 E186.07094
G0 F4320 X57.521 Y47.622
G1 F1800 X82.276 Y72.377 E187.41073
G0 F4320 X82.771 Y72.377
G1 F1800 X58.016 Y47.622 E188.75052
G0 F4320 X58.511 Y47.622
G1 F1800 X83.266 Y72.377 E190.0903
G0 F4320 X83.761 Y72.377
G1 F1800 X59.006 Y47.622 E191.43009
G0 F4320 X59.501 Y47.622
G1 F1800 X84.256 Y72.377 E192.76988
G0 F4320 X84.751 Y72.377
G1 F1800 X59.996 Y47.622 E194.10966
G0 F4320 X60.491 Y47.622
G1 F1800 X85.246 Y72.377 E195.44945
G0 F4320 X85.741 Y72.377
G1 F1800 X60.986 Y47.622 E196.78924
G0 F4320 X61.481 Y47.622
G1 F1800 X86.236 Y72.377 E198.12903
G0 F4320 X86.731 Y72.377
G1 F1800 X61.976 Y47.622 E199.46881
G0 F4320 X62.471 Y47.622
G1 F1800 X87.226 Y72.377 E200.8086
G0 F4320 X87.721 Y72.377
G1 F1800 X62.966 Y47.622 E202.14839
G0 F4320 X63.461 Y47.622
G1 F1800 X88.216 Y72.377 E203.48817
G0 F4320 X88.711 Y72.377
G1 F1800 X63.956 Y47.622 E204.82796
G0 F4320 X64.451 Y47.622
G1 F1800 X89.206 Y72.377 E206.16775
G0 F4320 X89.701 Y72.377
G1 F1800 X64.946 Y47.622 E207.50753
G0 F4320 X65.441 Y47.622
G1 F1800 X90.196 Y72.377 E208.84732
G0 F4320 X90.691 Y72.377
G1 F1800 X65.936 Y47.622 E210.18711
G0 F4320 X66.431 Y47.622
G1 F1800 X91.186 Y72.377 E211.52689
G0 F4320 X91.681 Y72.377
G1 F1800 X66.926 Y47.622 E212.86668
G0 F4320 X67.421 Y47.622
G1 F1800 X92.176 Y72.377 E214.20647
G0 F4320 X92.671 Y72.377
G1 F1800 X67.916 Y47.622 E215.54626
G0 F4320 X68.411 Y47.622
G1 F1800 X93.166 Y72.377 E216.88604
G0 F4320 X93.661 Y72.377
G1 F1800 X68.906 Y47.622 E218.22583
G0 F4320 X69.401 Y47.622
G1 F1800 X94.156 Y72.377 E219.56562
G0 F4320 X94.651 Y72.377
G1 F1800 X69.896 Y47.622 E220.9054
G0 F4320 X70.391 Y47.622
G1 F1800 X95.146 Y72.377 E222.24519
G0 F4320 X95.641 Y72.377
G1 F1800 X70.886 Y47.622 E223.58498
G0 F4320 X71.381 Y47.622
G1 F1800 X96.136 Y72.377 E224.92476
G0 F4320 X96.631 Y72.377
G1 F1800 X71.875 Y47.622 E226.26458
G0 F4320 X72.37 Y47.622
G1 F1800 X97.126 Y72.377 E227.60439
G0 F4320 X97.621 Y72.377
G1 F1800 X72.865 Y47.622 E228.94421
G0 F4320 X73.36 Y47.622
G1 F1800 X98.116 Y72.377 E230.28402
G0 F4320 X98.61 Y72.377
G1 F1800 X73.855 Y47.622 E231.62381
G0 F4320 X74.35 Y47.622
G1 F1800 X99.105 Y72.377 E232.96359
G0 F4320 X99.6 Y72.377
G1 F1800 X74.845 Y47.622 E234.30338
G0 F4320 X75.34 Y47.622
G1 F1800 X100.095 Y72.377 E235.64317
G0 F4320 X100.127 Y71.914
G1 F1800 X75.835 Y47.622 E236.9579
G0 F4320 X76.33 Y47.622
G1 F1800 X100.127 Y71.419 E238.24583
G0 F4320 X100.127 Y70.924
G1 F1800 X76.825 Y47.622 E239.50698
G0 F4320 X77.32 Y47.622
G1 F1800 X100.127 Y70.429 E240.74134
G0 F4320 X100.127 Y69.934
G1 F1800 X77.815 Y47.622 E241.94891
G0 F4320 X78.31 Y47.622
G1 F1800 X100.127 Y69.439 E243.12968
G0 F4320 X100.127 Y68.944
G1 F1800 X78.805 Y47.622 E244.28367
G0 F4320 X79.3 Y47.622
G1 F1800 X100.127 Y68.449 E245.41087
G0 F4320 X100.127 Y67.954
G1 F1800 X79.795 Y47.622 E246.51127
G0 F4320 X80.29 Y47.622
G1 F1800 X100.127 Y67.459 E247.58489
G0 F4320 X100.127 Y66.964
G1 F1800 X80.785 Y47.622 E248.63171
G0 F4320 X81.28 Y47.622
G1 F1800 X100.127 Y66.469 E249.65175
G0 F4320 X100.127 Y65.974
G1 F1800 X81.775 Y47.622 E250.64499
G0 F4320 X82.27 Y47.622
G1 F1800 X100.127 Y65.479 E251.61145
G0 F4320 X100.127 Y64.984
G1 F1800 X82.765 Y47.622 E252.55111
G0 F4320 X83.26 Y47.622
G1 F1800 X100.127 Y64.489 E253.46398
G0 F4320 X100.127 Y63.994
G1 F1800 X83.755 Y47.622 E254.35007
G0 F4320 X84.25 Y47.622
G1 F1800 X100.127 Y63.499 E255.20936
G0 F4320 X100.127 Y63.004
G1 F1800 X84.745 Y47.622 E256.04186
G0 F4320 X85.24 Y47.622
G1 F1800 X100.127 Y62.509 E256.84758
G0 F4320 X100.127 Y62.014
G1 F1800 X85.735 Y47.622 E257.6265
G0 F4320 X86.23 Y47.622
G1 F1800 X100.127 Y61.519 E258.37863
G0 F4320 X100.127 Y61.024
G1 F1800 X86.725 Y47.622 E259.10397
G0 F4320 X87.22 Y47.622
G1 F1800 X100.127 Y60.529 E259.80252
G0 F4320 X100.127 Y60.034
G1 F1800 X87.715 Y47.622 E260.47428
G0 F4320 X88.21 Y47.622
G1 F1800 X100.127 Y59.539 E261.11925
G0 F4320 X100.127 Y59.044
