;FLAVOR:Marlin
;TIME:3202
;Filament used: 1.43921m
;Layer height: 0.13125
;MINX:14.975
;MINY:42.225
;MINZ:0.263
;MAXX:105.025
;MAXY:77.775
;MAXZ:1.442
;Generated with Cura_SteamEngine 4.6.1
M140 S65
M105
M190 S65
M104 S205
M105
M109 S205
M82 ;absolute extrusion mode
G21;(metric values)
G90;(absolute positioning)
M82;(set extruder to absolute mode)
M107;(start with the fan off)
G28;(Home the printer)
G92 E0;(Reset the extruder to 0)
G0 Z5 E5 F500;(Move up and prime the nozzle)
G0 X-1 Z0;(Move outside the printable area)
G1 Y60 E8 F500;(Draw a priming/wiping line to the rear)
G1 X-1;(Move a little closer to the print area)
G1 Y10 E16 F500;(draw more priming/wiping)
G1 E15 F250;(Small retract)
G92 E0;(Zero the extruder)
G92 E0
G92 E0
G1 F2400 E-2.5
;LAYER_COUNT:10
;LAYER:0
M107
G0 F4320 X102.038 Y42.632 Z0.263
;TYPE:SKIRT
G1 F2400 E0
G1 F1800 X102.525 Y42.758 E0.01925
G1 X102.987 Y42.96 E0.03855
G1 X103.411 Y43.231 E0.05781
G1 X103.787 Y43.567 E0.0771
G1 X104.105 Y43.957 E0.09636
G1 X104.357 Y44.393 E0.11563
G1 X104.537 Y44.863 E0.13489
G1 X104.64 Y45.356 E0.15417
G1 X104.674 Y45.991 E0.17851
G1 X104.675 Y73.553 E1.2333
G1 X104.666 Y74.28 E1.26113
G1 X104.62 Y74.782 E1.28042
G1 X104.495 Y75.27 E1.2997
G1 X104.294 Y75.732 E1.31898
G1 X104.023 Y76.156 E1.33824
G1 X103.689 Y76.532 E1.35748
G1 X103.299 Y76.851 E1.37676
G1 X102.863 Y77.104 E1.39606
G1 X102.393 Y77.285 E1.41533
G1 X101.901 Y77.389 E1.43458
G1 X101.259 Y77.424 E1.45918
G1 X19.166 Y77.425 E4.60088
G1 X18.468 Y77.416 E4.62759
G1 X17.967 Y77.369 E4.64685
G1 X17.479 Y77.244 E4.66613
G1 X17.017 Y77.044 E4.68539
G1 X16.593 Y76.772 E4.70467
G1 X16.216 Y76.438 E4.72395
G1 X15.898 Y76.047 E4.74323
G1 X15.645 Y75.612 E4.76249
G1 X15.464 Y75.142 E4.78177
G1 X15.36 Y74.649 E4.80105
G1 X15.326 Y73.994 E4.82615
G1 X15.325 Y46.381 E5.8829
G1 X15.334 Y45.716 E5.90835
G1 X15.381 Y45.215 E5.92761
G1 X15.506 Y44.727 E5.94689
G1 X15.707 Y44.265 E5.96617
G1 X15.979 Y43.841 E5.98545
G1 X16.314 Y43.465 E6.00472
G1 X16.704 Y43.147 E6.02398
G1 X17.14 Y42.894 E6.04327
G1 X17.61 Y42.714 E6.06253
G1 X18.103 Y42.61 E6.08181
G1 X18.741 Y42.576 E6.10626
G1 X100.838 Y42.575 E9.24811
G1 X101.346 Y42.583 E9.26755
G0 F1620 X101.536 Y42.585
G0 X102.038 Y42.632
G0 F4320 X102.07 Y42.283
G1 F1800 X102.585 Y42.409 E9.28784
G1 X103.076 Y42.611 E9.30816
G1 X103.531 Y42.885 E9.32849
G1 X103.939 Y43.224 E9.34879
G1 X104.292 Y43.62 E9.36909
G1 X104.582 Y44.065 E9.38942
G1 X104.801 Y44.548 E9.40971
G1 X104.946 Y45.059 E9.43004
G1 X105.015 Y45.661 E9.45323
G1 X105.025 Y73.558 E10.52085
G1 X105.016 Y74.285 E10.54867
G1 X104.969 Y74.813 E10.56896
G1 X104.844 Y75.329 E10.58928
G1 X104.643 Y75.82 E10.60958
G1 X104.37 Y76.275 E10.62989
G1 X104.032 Y76.684 E10.65019
G1 X103.636 Y77.038 E10.67052
G1 X103.192 Y77.328 E10.69082
G1 X102.709 Y77.549 E10.71114
G1 X102.199 Y77.694 E10.73143
G1 X101.59 Y77.765 E10.7549
G1 X19.162 Y77.775 E13.90941
G1 X18.464 Y77.766 E13.93613
G1 X17.935 Y77.719 E13.95645
G1 X17.419 Y77.593 E13.97678
G1 X16.928 Y77.392 E13.99708
G1 X16.473 Y77.119 E14.01739
G1 X16.064 Y76.781 E14.0377
G1 X15.711 Y76.385 E14.058
G1 X15.421 Y75.941 E14.07829
G1 X15.201 Y75.458 E14.09861
G1 X15.055 Y74.947 E14.11894
G1 X14.985 Y74.336 E14.14248
G1 X14.975 Y46.376 E15.21251
G1 X14.984 Y45.711 E15.23796
G1 X15.031 Y45.183 E15.25825
G1 X15.157 Y44.667 E15.27857
G1 X15.359 Y44.176 E15.29889
G1 X15.632 Y43.722 E15.31917
G1 X15.971 Y43.313 E15.3395
G1 X16.367 Y42.96 E15.3598
G1 X16.811 Y42.67 E15.38009
G1 X17.294 Y42.45 E15.4004
G1 X17.805 Y42.305 E15.42073
G1 X18.41 Y42.235 E15.44404
G1 X100.843 Y42.225 E18.59875
G1 X101.378 Y42.233 E18.61922
G0 F1620 X101.541 Y42.235
G0 X102.07 Y42.283
G1 F2400 E16.11922
;MESH:central_prototype1_top.stl
G0 F4320 X100.44 Y45.11
G0 X100.44 Y46.81
G0 X100.468 Y73.218
G0 X19.375 Y73.375
;TYPE:WALL-INNER
G1 F2400 E18.61922
G1 F1800 X19.375 Y46.625 E19.64294
G1 X100.625 Y46.625 E22.75238
G1 X100.625 Y73.375 E23.7761
G1 X20.069 Y73.375 E26.85897
G0 F1620 X19.375 Y73.375
G0 F4320 X19.025 Y73.725
G1 F1800 X19.025 Y46.275 E27.90948
G1 X100.975 Y46.275 E31.0457
G1 X100.975 Y73.725 E32.09621
G1 X19.719 Y73.725 E35.20588
G0 F1620 X19.025 Y73.725
G0 F4320 X18.7 Y74.05
;TYPE:WALL-OUTER
G1 F1800 X18.7 Y45.95 E36.28126
G1 X101.3 Y45.95 E39.44236
G1 X101.3 Y74.05 E40.51774
G1 X19.394 Y74.05 E43.65228
G0 F1620 X18.7 Y74.05
G0 F4320 X18.7 Y73.85
G0 X18.975 Y73.85
G0 X19.46 Y73.035
G0 X19.715 Y73.035
;TYPE:SKIN
G1 F1800 X19.715 Y46.965 E44.64998
G1 X100.285 Y46.965 E47.73339
G1 X100.285 Y73.035 E48.73109
G1 X20.409 Y73.035 E51.78794
G0 F1620 X19.715 Y73.035
G0 F4320 X20.409 Y72.877
G1 F1800 X19.871 Y72.339 E51.81705
G0 F4320 X19.871 Y71.844
G1 F1800 X20.904 Y72.877 E51.87296
G0 F4320 X21.399 Y72.877
G1 F1800 X19.871 Y71.349 E51.95566
G0 F4320 X19.871 Y70.854
G1 F1800 X21.894 Y72.877 E52.06515
G0 F4320 X22.389 Y72.877
G1 F1800 X19.871 Y70.359 E52.20143
G0 F4320 X19.871 Y69.864
G1 F1800 X22.884 Y72.877 E52.3645
G0 F4320 X23.379 Y72.877
G1 F1800 X19.871 Y69.369 E52.55436
G0 F4320 X19.871 Y68.874
G1 F1800 X23.874 Y72.877 E52.77101
G0 F4320 X24.369 Y72.877
G1 F1800 X19.871 Y68.379 E53.01445
G0 F4320 X19.871 Y67.884
G1 F1800 X24.864 Y72.877 E53.28468
G0 F4320 X25.359 Y72.877
G1 F1800 X19.871 Y67.389 E53.5817
G0 F4320 X19.871 Y66.894
G1 F1800 X25.854 Y72.877 E53.90551
G0 F4320 X26.349 Y72.877
G1 F1800 X19.871 Y66.399 E54.25611
G0 F4320 X19.871 Y65.904
G1 F1800 X26.844 Y72.877 E54.6335
G0 F4320 X27.339 Y72.877
G1 F1800 X19.871 Y65.409 E55.03768
G0 F4320 X19.871 Y64.914
G1 F1800 X27.834 Y72.877 E55.46866
G0 F4320 X28.329 Y72.877
G1 F1800 X19.871 Y64.419 E55.92642
G0 F4320 X19.871 Y63.924
G1 F1800 X28.824 Y72.877 E56.41097
G0 F4320 X29.319 Y72.877
G1 F1800 X19.871 Y63.429 E56.92232
G0 F4320 X19.871 Y62.934
G1 F1800 X29.814 Y72.877 E57.46045
G0 F4320 X30.309 Y72.877
G1 F1800 X19.871 Y62.439 E58.02537
G0 F4320 X19.871 Y61.944
G1 F1800 X30.804 Y72.877 E58.61709
G0 F4320 X31.299 Y72.877
G1 F1800 X19.871 Y61.449 E59.23559
G0 F4320 X19.871 Y60.954
G1 F1800 X31.794 Y72.877 E59.88089
G0 F4320 X32.289 Y72.877
G1 F1800 X19.871 Y60.459 E60.55297
G0 F4320 X19.871 Y59.964
G1 F1800 X32.784 Y72.877 E61.25185
G0 F4320 X33.279 Y72.877
G1 F1800 X19.871 Y59.469 E61.97751
G0 F4320 X19.871 Y58.974
G1 F1800 X33.774 Y72.877 E62.72997
G0 F4320 X34.269 Y72.877
G1 F1800 X19.871 Y58.479 E63.50922
G0 F4320 X19.871 Y57.984
G1 F1800 X34.764 Y72.877 E64.31525
G0 F4320 X35.259 Y72.877
G1 F1800 X19.871 Y57.489 E65.14808
G0 F4320 X19.871 Y56.994
G1 F1800 X35.754 Y72.877 E66.0077
G0 F4320 X36.249 Y72.877
G1 F1800 X19.871 Y56.499 E66.89411
G0 F4320 X19.871 Y56.004
G1 F1800 X36.744 Y72.877 E67.80731
G0 F4320 X37.239 Y72.877
G1 F1800 X19.871 Y55.51 E68.74727
G0 F4320 X19.871 Y55.015
G1 F1800 X37.734 Y72.877 E69.71402
G0 F4320 X38.229 Y72.877
G1 F1800 X19.871 Y54.52 E70.70756
G0 F4320 X19.871 Y54.025
G1 F1800 X38.723 Y72.877 E71.72787
G0 F4320 X39.218 Y72.877
G1 F1800 X19.871 Y53.53 E72.77496
G0 F4320 X19.871 Y53.035
G1 F1800 X39.713 Y72.877 E73.84885
G0 F4320 X40.208 Y72.877
G1 F1800 X19.871 Y52.54 E74.94953
G0 F4320 X19.871 Y52.045
G1 F1800 X40.703 Y72.877 E76.07699
G0 F4320 X41.198 Y72.877
G1 F1800 X19.871 Y51.55 E77.23125
G0 F4320 X19.871 Y51.055
G1 F1800 X41.693 Y72.877 E78.4123
G0 F4320 X42.188 Y72.877
G1 F1800 X19.871 Y50.56 E79.62014
G0 F4320 X19.871 Y50.065
G1 F1800 X42.683 Y72.877 E80.85476
G0 F4320 X43.178 Y72.877
G1 F1800 X19.871 Y49.57 E82.11618
G0 F4320 X19.871 Y49.075
G1 F1800 X43.673 Y72.877 E83.40439
G0 F4320 X44.168 Y72.877
G1 F1800 X19.871 Y48.58 E84.71939
G0 F4320 X19.871 Y48.085
G1 F1800 X44.663 Y72.877 E86.06118
G0 F4320 X45.158 Y72.877
G1 F1800 X19.871 Y47.59 E87.42976
G0 F4320 X19.897 Y47.121
G1 F1800 X45.653 Y72.877 E88.82372
G0 F4320 X46.148 Y72.877
G1 F1800 X20.392 Y47.121 E90.21769
G0 F4320 X20.887 Y47.121
G1 F1800 X46.643 Y72.877 E91.61165
G0 F4320 X47.138 Y72.877
G1 F1800 X21.382 Y47.121 E93.00561
G0 F4320 X21.877 Y47.121
G1 F1800 X47.633 Y72.877 E94.39957
G0 F4320 X48.128 Y72.877
G1 F1800 X22.372 Y47.121 E95.79354
G0 F4320 X22.867 Y47.121
G1 F1800 X48.623 Y72.877 E97.1875
G0 F4320 X49.118 Y72.877
G1 F1800 X23.362 Y47.121 E98.58146
G0 F4320 X23.857 Y47.121
G1 F1800 X49.613 Y72.877 E99.97543
G0 F4320 X50.108 Y72.877
G1 F1800 X24.352 Y47.121 E101.36939
G0 F4320 X24.847 Y47.121
G1 F1800 X50.603 Y72.877 E102.76335
G0 F4320 X51.098 Y72.877
G1 F1800 X25.342 Y47.121 E104.15731
G0 F4320 X25.837 Y47.121
G1 F1800 X51.593 Y72.877 E105.55128
G0 F4320 X52.088 Y72.877
G1 F1800 X26.332 Y47.121 E106.94524
G0 F4320 X26.827 Y47.121
G1 F1800 X52.583 Y72.877 E108.3392
G0 F4320 X53.078 Y72.877
G1 F1800 X27.322 Y47.121 E109.73317
G0 F4320 X27.817 Y47.121
G1 F1800 X53.573 Y72.877 E111.12713
G0 F4320 X54.068 Y72.877
G1 F1800 X28.312 Y47.121 E112.52109
G0 F4320 X28.807 Y47.121
G1 F1800 X54.563 Y72.877 E113.91506
G0 F4320 X55.058 Y72.877
G1 F1800 X29.302 Y47.121 E115.30902
G0 F4320 X29.797 Y47.121
G1 F1800 X55.553 Y72.877 E116.70298
G0 F4320 X56.048 Y72.877
G1 F1800 X30.292 Y47.121 E118.09694
G0 F4320 X30.787 Y47.121
G1 F1800 X56.543 Y72.877 E119.49091
G0 F4320 X57.038 Y72.877
G1 F1800 X31.282 Y47.121 E120.88487
G0 F4320 X31.777 Y47.121
G1 F1800 X57.533 Y72.877 E122.27883
G0 F4320 X58.028 Y72.877
G1 F1800 X32.272 Y47.121 E123.6728
G0 F4320 X32.767 Y47.121
G1 F1800 X58.522 Y72.877 E125.06673
G0 F4320 X59.017 Y72.877
G1 F1800 X33.262 Y47.121 E126.46067
G0 F4320 X33.757 Y47.121
G1 F1800 X59.512 Y72.877 E127.8546
G0 F4320 X60.007 Y72.877
G1 F1800 X34.252 Y47.121 E129.24854
G0 F4320 X34.747 Y47.121
G1 F1800 X60.502 Y72.877 E130.64248
G0 F4320 X60.997 Y72.877
G1 F1800 X35.242 Y47.121 E132.03641
G0 F4320 X35.737 Y47.121
G1 F1800 X61.492 Y72.877 E133.43035
G0 F4320 X61.987 Y72.877
G1 F1800 X36.232 Y47.121 E134.82428
G0 F4320 X36.727 Y47.121
G1 F1800 X62.482 Y72.877 E136.21822
G0 F4320 X62.977 Y72.877
G1 F1800 X37.222 Y47.121 E137.61215
G0 F4320 X37.717 Y47.121
G1 F1800 X63.472 Y72.877 E139.00609
G0 F4320 X63.967 Y72.877
G1 F1800 X38.212 Y47.121 E140.40003
G0 F4320 X38.707 Y47.121
G1 F1800 X64.462 Y72.877 E141.79396
G0 F4320 X64.957 Y72.877
G1 F1800 X39.201 Y47.121 E143.18793
G0 F4320 X39.696 Y47.121
G1 F1800 X65.452 Y72.877 E144.58189
G0 F4320 X65.947 Y72.877
G1 F1800 X40.191 Y47.121 E145.97585
G0 F4320 X40.686 Y47.121
G1 F1800 X66.442 Y72.877 E147.36981
G0 F4320 X66.937 Y72.877
G1 F1800 X41.181 Y47.121 E148.76378
G0 F4320 X41.676 Y47.121
G1 F1800 X67.432 Y72.877 E150.15774
G0 F4320 X67.927 Y72.877
G1 F1800 X42.171 Y47.121 E151.5517
G0 F4320 X42.666 Y47.121
G1 F1800 X68.422 Y72.877 E152.94567
G0 F4320 X68.917 Y72.877
G1 F1800 X43.161 Y47.121 E154.33963
G0 F4320 X43.656 Y47.121
G1 F1800 X69.412 Y72.877 E155.73359
G0 F4320 X69.907 Y72.877
G1 F1800 X44.151 Y47.121 E157.12755
G0 F4320 X44.646 Y47.121
G1 F1800 X70.402 Y72.877 E158.52152
G0 F4320 X70.897 Y72.877
G1 F1800 X45.141 Y47.121 E159.91548
G0 F4320 X45.636 Y47.121
G1 F1800 X71.392 Y72.877 E161.30944
G0 F4320 X71.887 Y72.877
G1 F1800 X46.131 Y47.121 E162.70341
G0 F4320 X46.626 Y47.121
G1 F1800 X72.382 Y72.877 E164.09737
G0 F4320 X72.877 Y72.877
G1 F1800 X47.121 Y47.121 E165.49133
G0 F4320 X47.616 Y47.121
G1 F1800 X73.372 Y72.877 E166.8853
G0 F4320 X73.867 Y72.877
G1 F1800 X48.111 Y47.121 E168.27926
G0 F4320 X48.606 Y47.121
G1 F1800 X74.362 Y72.877 E169.67322
G0 F4320 X74.857 Y72.877
G1 F1800 X49.101 Y47.121 E171.06718
G0 F4320 X49.596 Y47.121
G1 F1800 X75.352 Y72.877 E172.46115
G0 F4320 X75.847 Y72.877
G1 F1800 X50.091 Y47.121 E173.85511
G0 F4320 X50.586 Y47.121
G1 F1800 X76.342 Y72.877 E175.24907
G0 F4320 X76.837 Y72.877
G1 F1800 X51.081 Y47.121 E176.64304
G0 F4320 X51.576 Y47.121
G1 F1800 X77.332 Y72.877 E178.037
G0 F4320 X77.827 Y72.877
G1 F1800 X52.071 Y47.121 E179.43096
G0 F4320 X52.566 Y47.121
G1 F1800 X78.321 Y72.877 E180.8249
G0 F4320 X78.816 Y72.877
G1 F1800 X53.061 Y47.121 E182.21883
G0 F4320 X53.556 Y47.121
G1 F1800 X79.311 Y72.877 E183.61277
G0 F4320 X79.806 Y72.877
G1 F1800 X54.051 Y47.121 E185.00671
G0 F4320 X54.546 Y47.121
G1 F1800 X80.301 Y72.877 E186.40064
G0 F4320 X80.796 Y72.877
G1 F1800 X55.041 Y47.121 E187.79458
G0 F4320 X55.536 Y47.121
G1 F1800 X81.291 Y72.877 E189.18851
G0 F4320 X81.786 Y72.877
G1 F1800 X56.031 Y47.121 E190.58245
G0 F4320 X56.526 Y47.121
G1 F1800 X82.281 Y72.877 E191.97638
G0 F4320 X82.776 Y72.877
G1 F1800 X57.021 Y47.121 E193.37032
G0 F4320 X57.516 Y47.121
G1 F1800 X83.271 Y72.877 E194.76426
G0 F4320 X83.766 Y72.877
G1 F1800 X58.011 Y47.121 E196.15819
G0 F4320 X58.506 Y47.121
G1 F1800 X84.261 Y72.877 E197.55213
G0 F4320 X84.756 Y72.877
G1 F1800 X59 Y47.121 E198.94609
G0 F4320 X59.495 Y47.121
G1 F1800 X85.251 Y72.877 E200.34005
G0 F4320 X85.746 Y72.877
G1 F1800 X59.99 Y47.121 E201.73402
G0 F4320 X60.486 Y47.122
G1 F1800 X86.241 Y72.877 E203.12793
G0 F4320 X86.736 Y72.877
G1 F1800 X60.981 Y47.122 E204.52183
G0 F4320 X61.476 Y47.122
G1 F1800 X87.231 Y72.877 E205.91574
G0 F4320 X87.726 Y72.877
G1 F1800 X61.971 Y47.122 E207.30965
G0 F4320 X62.466 Y47.122
G1 F1800 X88.221 Y72.877 E208.70356
G0 F4320 X88.716 Y72.877
G1 F1800 X62.961 Y47.122 E210.09747
G0 F4320 X63.456 Y47.122
G1 F1800 X89.211 Y72.877 E211.49138
G0 F4320 X89.706 Y72.877
G1 F1800 X63.951 Y47.122 E212.88529
G0 F4320 X64.446 Y47.122
G1 F1800 X90.201 Y72.877 E214.2792
G0 F4320 X90.696 Y72.877
G1 F1800 X64.941 Y47.122 E215.67311
G0 F4320 X65.436 Y47.122
G1 F1800 X91.191 Y72.877 E217.06701
G0 F4320 X91.686 Y72.877
G1 F1800 X65.931 Y47.122 E218.46092
G0 F4320 X66.426 Y47.122
G1 F1800 X92.181 Y72.877 E219.85483
G0 F4320 X92.676 Y72.877
G1 F1800 X66.921 Y47.122 E221.24874
G0 F4320 X67.416 Y47.122
G1 F1800 X93.171 Y72.877 E222.64265
G0 F4320 X93.666 Y72.877
G1 F1800 X67.911 Y47.122 E224.03656
G0 F4320 X68.406 Y47.122
G1 F1800 X94.161 Y72.877 E225.43047
G0 F4320 X94.656 Y72.877
G1 F1800 X68.901 Y47.122 E226.82438
G0 F4320 X69.396 Y47.122
G1 F1800 X95.151 Y72.877 E228.21828
G0 F4320 X95.646 Y72.877
G1 F1800 X69.891 Y47.122 E229.61219
G0 F4320 X70.386 Y47.122
G1 F1800 X96.141 Y72.877 E231.0061
G0 F4320 X96.636 Y72.877
G1 F1800 X70.881 Y47.122 E232.40001
G0 F4320 X71.376 Y47.122
G1 F1800 X97.131 Y72.877 E233.79392
G0 F4320 X97.625 Y72.877
G1 F1800 X71.871 Y47.122 E235.1878
G0 F4320 X72.366 Y47.122
G1 F1800 X98.12 Y72.877 E236.58168
G0 F4320 X98.615 Y72.877
G1 F1800 X72.86 Y47.122 E237.97559
G0 F4320 X73.355 Y47.122
G1 F1800 X99.11 Y72.877 E239.3695
G0 F4320 X99.605 Y72.877
G1 F1800 X73.85 Y47.122 E240.76341
G0 F4320 X74.345 Y47.122
G1 F1800 X100.1 Y72.877 E242.15732
G0 F4320 X100.127 Y72.408
G1 F1800 X74.84 Y47.122 E243.52587
G0 F4320 X75.335 Y47.122
G1 F1800 X100.127 Y71.913 E244.86763
G0 F4320 X100.127 Y71.418
G1 F1800 X75.83 Y47.122 E246.18261
G0 F4320 X76.325 Y47.122
G1 F1800 X100.127 Y70.923 E247.47079
G0 F4320 X100.127 Y70.428
G1 F1800 X76.82 Y47.122 E248.73218
G0 F4320 X77.315 Y47.122
G1 F1800 X100.127 Y69.933 E249.96678
G0 F4320 X100.127 Y69.438
G1 F1800 X77.81 Y47.122 E251.17459
G0 F4320 X78.305 Y47.122
G1 F1800 X100.127 Y68.943 E252.35561
G0 F4320 X100.127 Y68.448
G1 F1800 X78.8 Y47.122 E253.50984
G0 F4320 X79.295 Y47.122
G1 F1800 X100.127 Y67.953 E254.63728
G0 F4320 X100.127 Y67.458
G1 F1800 X79.79 Y47.122 E255.73793
G0 F4320 X80.285 Y47.122
G1 F1800 X100.127 Y66.963 E256.81179
G0 F4320 X100.127 Y66.468
G1 F1800 X80.78 Y47.122 E257.85886
G0 F4320 X81.275 Y47.122
G1 F1800 X100.127 Y65.973 E258.87914
G0 F4320 X100.127 Y65.478
G1 F1800 X81.77 Y47.122 E259.87263
G0 F4320 X82.265 Y47.122
G1 F1800 X100.127 Y64.983 E260.83932
G0 F4320 X100.127 Y64.488
G1 F1800 X82.76 Y47.122 E261.77923
G0 F4320 X83.255 Y47.122
G1 F1800 X100.127 Y63.993 E262.69235
G0 F4320 X100.127 Y63.498
G1 F1800 X83.75 Y47.122 E263.57867
G0 F4320 X84.245 Y47.122
G1 F1800 X100.127 Y63.003 E264.43821
G0 F4320 X100.127 Y62.508
G1 F1800 X84.74 Y47.122 E265.27096
G0 F4320 X85.235 Y47.122
G1 F1800 X100.127 Y62.013 E266.07691
G0 F4320 X100.127 Y61.518
G1 F1800 X85.73 Y47.122 E266.85608
G0 F4320 X86.225 Y47.122
G1 F1800 X100.127 Y61.024 E267.60848
G0 F4320 X100.127 Y60.529
G1 F1800 X86.72 Y47.122 E268.33409
G0 F4320 X87.215 Y47.122
G1 F1800 X100.127 Y60.034 E269.03291
G0 F4320 X100.127 Y59.539
