;FLAVOR:Marlin
;TIME:10321
;Filament used: 5.44335m
;Layer height: 0.13125
;MINX:13.95
;MINY:40.875
;MINZ:0.263
;MAXX:106.075
;MAXY:79.125
;MAXZ:23.057
;Generated with Cura_SteamEngine 4.6.1
M140 S65
M105
M190 S65
M104 S205
M105
M109 S205
M82 ;absolute extrusion mode
G21;(metric values)
G90;(absolute positioning)
M82;(set extruder to absolute mode)
M107;(start with the fan off)
G28;(Home the printer)
G92 E0;(Reset the extruder to 0)
G0 Z5 E5 F500;(Move up and prime the nozzle)
G0 X-1 Z0;(Move outside the printable area)
G1 Y60 E8 F500;(Draw a priming/wiping line to the rear)
G1 X-1;(Move a little closer to the print area)
G1 Y10 E16 F500;(draw more priming/wiping)
G1 E15 F250;(Small retract)
G92 E0;(Zero the extruder)
G92 E0
G92 E0
G1 F2400 E-2.5
;LAYER_COUNT:175
;LAYER:0
M107
G0 F4320 X17.04 Y78.693 Z0.263
;TYPE:SKIRT
G1 F2400 E0
G1 F1800 X16.553 Y78.567 E0.01925
G1 X16.091 Y78.365 E0.03855
G1 X15.667 Y78.094 E0.05781
G1 X15.309 Y77.781 E0.076
G1 X14.971 Y77.408 E0.09527
G1 X14.696 Y76.986 E0.11454
G1 X14.491 Y76.526 E0.13382
G1 X14.362 Y76.039 E0.1531
G1 X14.31 Y75.525 E0.17287
G1 X14.3 Y74.957 E0.19461
G1 X14.3 Y45.164 E1.33479
G1 X14.31 Y44.49 E1.36058
G1 X14.358 Y43.989 E1.37984
G1 X14.484 Y43.501 E1.39913
G1 X14.685 Y43.039 E1.41841
G1 X14.957 Y42.616 E1.43766
G1 X15.293 Y42.235 E1.4571
G1 X15.67 Y41.901 E1.47638
G1 X16.095 Y41.63 E1.49567
G1 X16.557 Y41.43 E1.51493
G1 X17.045 Y41.306 E1.5342
G1 X17.526 Y41.261 E1.55269
G1 X18.083 Y41.251 E1.57401
G1 X45.376 Y41.251 E2.61851
G1 X46.615 Y41.233 E2.66593
G1 X47.74 Y41.225 E2.70899
G1 X101.882 Y41.225 E4.781
G1 X102.572 Y41.235 E4.80741
G1 X103.073 Y41.283 E4.82667
G1 X103.561 Y41.408 E4.84595
G1 X104.023 Y41.61 E4.86524
G1 X104.446 Y41.882 E4.88449
G1 X104.822 Y42.217 E4.90376
G1 X105.14 Y42.608 E4.92305
G1 X105.392 Y43.044 E4.94232
G1 X105.572 Y43.514 E4.96158
G1 X105.675 Y44.007 E4.98086
G1 X105.722 Y45.204 E5.0267
G1 X105.725 Y45.776 E5.04859
G1 X105.725 Y74.907 E6.16343
G1 X105.715 Y75.635 E6.1913
G1 X105.668 Y76.136 E6.21056
G1 X105.542 Y76.624 E6.22984
G1 X105.341 Y77.085 E6.24909
G1 X105.07 Y77.51 E6.26838
G1 X104.735 Y77.885 E6.28762
G1 X104.344 Y78.204 E6.30694
G1 X103.908 Y78.456 E6.32621
G1 X103.438 Y78.636 E6.34547
G1 X102.946 Y78.74 E6.36471
G1 X102.309 Y78.774 E6.38913
G1 X100.913 Y78.768 E6.44255
G1 X94.344 Y78.775 E6.69395
G1 X48.112 Y78.775 E8.46324
G1 X47.051 Y78.76 E8.50385
G1 X45.66 Y78.75 E8.55709
G1 X18.24 Y78.75 E9.60645
G1 X17.732 Y78.742 E9.62589
G0 F1620 X17.542 Y78.74
G0 X17.04 Y78.693
G0 F4320 X17.008 Y79.042
G1 F1800 X16.493 Y78.916 E9.64618
G1 X16.002 Y78.714 E9.6665
G1 X15.547 Y78.44 E9.68683
G1 X15.069 Y78.036 E9.71078
G1 X14.711 Y77.644 E9.73109
G1 X14.416 Y77.203 E9.7514
G1 X14.191 Y76.723 E9.77169
G1 X14.04 Y76.214 E9.79201
G1 X13.961 Y75.531 E9.81832
G1 X13.951 Y74.963 E9.84006
G1 X13.95 Y45.159 E10.98066
G1 X13.96 Y44.485 E11.00645
G1 X14.008 Y43.956 E11.02678
G1 X14.135 Y43.441 E11.04708
G1 X14.337 Y42.95 E11.0674
G1 X14.611 Y42.496 E11.08769
G1 X14.943 Y42.095 E11.10762
G1 X15.437 Y41.639 E11.13334
G1 X15.881 Y41.348 E11.15366
G1 X16.363 Y41.128 E11.17394
G1 X16.874 Y40.982 E11.19428
G1 X17.52 Y40.911 E11.21915
G1 X18.077 Y40.901 E11.24047
G1 X45.371 Y40.901 E12.28501
G1 X46.61 Y40.883 E12.33243
G1 X47.737 Y40.875 E12.37556
G1 X101.887 Y40.875 E14.44788
G1 X102.577 Y40.885 E14.47429
G1 X103.106 Y40.933 E14.49461
G1 X103.621 Y41.059 E14.5149
G1 X104.112 Y41.262 E14.53524
G1 X104.566 Y41.535 E14.55551
G1 X104.975 Y41.874 E14.57584
G1 X105.327 Y42.271 E14.59615
G1 X105.617 Y42.715 E14.61644
G1 X105.836 Y43.199 E14.63677
G1 X105.981 Y43.709 E14.65706
G1 X106.05 Y44.321 E14.68063
G1 X106.072 Y45.195 E14.71409
G1 X106.075 Y45.775 E14.73629
G1 X106.075 Y74.911 E15.85132
G1 X106.065 Y75.639 E15.87919
G1 X106.017 Y76.168 E15.89951
G1 X105.891 Y76.683 E15.9198
G1 X105.689 Y77.174 E15.94012
G1 X105.416 Y77.629 E15.96043
G1 X105.078 Y78.038 E15.98073
G1 X104.682 Y78.391 E16.00104
G1 X104.237 Y78.681 E16.02136
G1 X103.754 Y78.9 E16.04166
G1 X103.243 Y79.045 E16.06199
G1 X102.639 Y79.115 E16.08526
G1 X94.345 Y79.125 E16.40267
G1 X48.107 Y79.125 E18.17219
G1 X47.046 Y79.11 E18.2128
G1 X45.657 Y79.1 E18.26596
G1 X18.235 Y79.1 E19.3154
G1 X17.7 Y79.092 E19.33588
G0 F1620 X17.537 Y79.09
G0 X17.008 Y79.042
G0 F4320 X17.651 Y75.4
;TYPE:SUPPORT
G1 F1800 X17.65 Y44.601 E20.51455
G1 X46.6 Y44.601 E21.62247
G1 X46.6 Y47.638 E21.73869
G1 X46.7 Y47.737 E21.74408
G1 X46.7 Y72.265 E22.68276
G1 X46.6 Y72.366 E22.6882
G1 X46.6 Y75.4 E22.80431
G1 X18.345 Y75.4 E23.88563
G0 F1620 X17.651 Y75.4
G0 F4320 X30.747 Y66.053
G1 F1800 X31.097 Y66.403 E23.90457
G1 X40.891 Y66.403 E24.27939
G1 X41.241 Y66.053 E24.29833
G1 X41.241 Y54.347 E24.74632
G1 X40.891 Y53.997 E24.76526
G1 X31.097 Y53.997 E25.14008
G1 X30.747 Y54.347 E25.15902
G1 X30.747 Y65.359 E25.58045
G0 F1620 X30.747 Y66.053
G0 F4320 X30.606 Y65.324
G1 F1800 X17.789 Y65.324 E26.07095
G0 F4320 X17.789 Y62.991
G1 F1800 X30.606 Y62.991 E26.56146
G0 F4320 X30.606 Y60.658
G1 F1800 X17.789 Y60.658 E27.05197
G0 F4320 X17.789 Y58.325
G1 F1800 X30.606 Y58.325 E27.54247
G0 F4320 X30.606 Y55.992
G1 F1800 X17.789 Y55.992 E28.03298
G0 F4320 X17.789 Y53.659
G1 F1800 X46.56 Y53.659 E29.13404
G0 F4320 X46.56 Y51.326
G1 F1800 X17.789 Y51.326 E30.23511
G0 F4320 X17.789 Y48.993
G1 F1800 X46.56 Y48.993 E31.33617
G0 F4320 X46.46 Y46.66
G1 F1800 X17.789 Y46.66 E32.43341
G0 F4320 X18.664 Y44.741
G1 F1800 X18.664 Y75.26 E33.60137
G0 F4320 X17.789 Y74.656
G1 F1800 X46.459 Y74.656 E34.69857
G0 F4320 X44.327 Y75.26
G1 F1800 X44.327 Y44.741 E35.86653
G0 F4320 X41.994 Y44.741
G1 F1800 X41.994 Y75.26 E37.03449
G0 F4320 X39.661 Y75.26
G1 F1800 X39.661 Y66.543 E37.36809
G0 F4320 X41.38 Y65.324
G1 F1800 X46.559 Y65.324 E37.56629
G0 F4320 X46.559 Y62.991
G1 F1800 X41.38 Y62.991 E37.76449
G0 F4320 X41.38 Y60.658
G1 F1800 X46.559 Y60.658 E37.96269
G0 F4320 X46.56 Y58.325
G1 F1800 X41.381 Y58.325 E38.16089
G0 F4320 X41.381 Y55.992
G1 F1800 X46.56 Y55.992 E38.35909
G0 F4320 X39.661 Y53.857
G1 F1800 X39.661 Y44.741 E38.70796
G0 F4320 X37.328 Y44.741
G1 F1800 X37.328 Y53.857 E39.05683
G0 F4320 X34.995 Y53.857
G1 F1800 X34.995 Y44.741 E39.4057
G0 F4320 X32.662 Y44.741
G1 F1800 X32.662 Y53.857 E39.75456
G0 F4320 X30.329 Y44.741
G1 F1800 X30.329 Y75.26 E40.92252
G0 F4320 X27.996 Y75.26
G1 F1800 X27.996 Y44.741 E42.09049
G0 F4320 X25.663 Y44.741
G1 F1800 X25.663 Y75.26 E43.25845
G0 F4320 X23.33 Y75.26
G1 F1800 X23.33 Y44.741 E44.42641
G0 F4320 X20.997 Y44.741
G1 F1800 X20.997 Y75.26 E45.59437
G0 F4320 X17.789 Y72.323
G1 F1800 X46.459 Y72.323 E46.69157
G0 F4320 X46.559 Y69.99
G1 F1800 X17.789 Y69.99 E47.79259
G0 F4320 X17.789 Y67.657
G1 F1800 X46.559 Y67.657 E48.89362
G0 F4320 X37.328 Y66.543
G1 F1800 X37.328 Y75.26 E49.22722
G0 F4320 X34.995 Y75.26
G1 F1800 X34.995 Y66.543 E49.56082
G0 F4320 X32.662 Y66.543
G1 F1800 X32.662 Y75.26 E49.89442
G1 F2400 E47.39442
;MESH:central_prototype2_bottom.stl
G0 F4320 X46.91 Y72.111
G0 X47.939 Y72.111
G0 X48.425 Y71.625
;TYPE:WALL-INNER
G1 F2400 E49.89442
G1 F1800 X48.425 Y48.375 E50.78419
G1 X99.675 Y48.375 E52.74553
G1 X99.675 Y71.625 E53.6353
G1 X49.119 Y71.625 E55.57008
G0 F1620 X48.425 Y71.625
G0 F4320 X48.075 Y71.975
G1 F1800 X48.075 Y48.025 E56.48664
G1 X100.025 Y48.025 E58.47477
G1 X100.025 Y71.975 E59.39133
G1 X48.769 Y71.975 E61.3529
G0 F1620 X48.075 Y71.975
G0 F4320 X47.75 Y72.3
;TYPE:WALL-OUTER
G1 F1800 X47.75 Y47.7 E62.29434
G1 X100.35 Y47.7 E64.30733
G1 X100.35 Y72.3 E65.24878
G1 X48.444 Y72.3 E67.23522
G0 F1620 X47.75 Y72.3
G0 F4320 X47.75 Y72.1
G0 X48.025 Y72.1
G0 X48.51 Y71.285
G0 X48.765 Y71.285
;TYPE:SKIN
G1 F1800 X48.765 Y48.715 E68.09897
G1 X99.335 Y48.715 E70.03428
G1 X99.335 Y71.285 E70.89803
G1 X49.459 Y71.285 E72.80678
G0 F1620 X48.765 Y71.285
G0 F4320 X49.348 Y71.127
G1 F1800 X48.921 Y70.7 E72.82989
G0 F4320 X48.921 Y70.205
G1 F1800 X49.843 Y71.127 E72.87979
G0 F4320 X50.338 Y71.127
G1 F1800 X48.921 Y69.71 E72.95648
G0 F4320 X48.921 Y69.215
G1 F1800 X50.833 Y71.127 E73.05997
G0 F4320 X51.328 Y71.127
G1 F1800 X48.921 Y68.72 E73.19024
G0 F4320 X48.921 Y68.225
G1 F1800 X51.823 Y71.127 E73.3473
G0 F4320 X52.318 Y71.127
G1 F1800 X48.921 Y67.73 E73.53115
G0 F4320 X48.921 Y67.235
G1 F1800 X52.813 Y71.127 E73.74179
G0 F4320 X53.308 Y71.127
G1 F1800 X48.921 Y66.74 E73.97923
G0 F4320 X48.921 Y66.245
G1 F1800 X53.803 Y71.127 E74.24345
G0 F4320 X54.298 Y71.127
G1 F1800 X48.921 Y65.75 E74.53446
G0 F4320 X48.921 Y65.255
G1 F1800 X54.793 Y71.127 E74.85227
G0 F4320 X55.288 Y71.127
G1 F1800 X48.921 Y64.76 E75.19686
G0 F4320 X48.921 Y64.265
G1 F1800 X55.783 Y71.127 E75.56824
G0 F4320 X56.278 Y71.127
G1 F1800 X48.921 Y63.77 E75.96642
G0 F4320 X48.921 Y63.275
G1 F1800 X56.773 Y71.127 E76.39138
G0 F4320 X57.268 Y71.127
G1 F1800 X48.921 Y62.78 E76.84314
G0 F4320 X48.921 Y62.285
G1 F1800 X57.763 Y71.127 E77.32168
G0 F4320 X58.258 Y71.127
G1 F1800 X48.921 Y61.79 E77.82702
G0 F4320 X48.921 Y61.295
G1 F1800 X58.753 Y71.127 E78.35915
G0 F4320 X59.248 Y71.127
G1 F1800 X48.921 Y60.8 E78.91806
G0 F4320 X48.921 Y60.305
G1 F1800 X59.743 Y71.127 E79.50377
G0 F4320 X60.238 Y71.127
G1 F1800 X48.921 Y59.81 E80.11627
G0 F4320 X48.921 Y59.315
G1 F1800 X60.733 Y71.127 E80.75555
G0 F4320 X61.228 Y71.127
G1 F1800 X48.921 Y58.82 E81.42163
G0 F4320 X48.921 Y58.325
G1 F1800 X61.723 Y71.127 E82.1145
G0 F4320 X62.218 Y71.127
G1 F1800 X48.921 Y57.83 E82.83416
G0 F4320 X48.921 Y57.335
G1 F1800 X62.713 Y71.127 E83.58061
G0 F4320 X63.208 Y71.127
G1 F1800 X48.921 Y56.84 E84.35385
G0 F4320 X48.921 Y56.345
G1 F1800 X63.703 Y71.127 E85.15388
G0 F4320 X64.198 Y71.127
G1 F1800 X48.921 Y55.85 E85.9807
G0 F4320 X48.921 Y55.355
G1 F1800 X64.693 Y71.127 E86.83431
G0 F4320 X65.188 Y71.127
G1 F1800 X48.921 Y54.86 E87.71471
G0 F4320 X48.921 Y54.365
G1 F1800 X65.683 Y71.127 E88.6219
G0 F4320 X66.178 Y71.127
G1 F1800 X48.921 Y53.87 E89.55588
G0 F4320 X48.921 Y53.375
G1 F1800 X66.673 Y71.127 E90.51665
G0 F4320 X67.168 Y71.127
G1 F1800 X48.921 Y52.88 E91.50421
G0 F4320 X48.921 Y52.386
G1 F1800 X67.663 Y71.127 E92.51854
G0 F4320 X68.158 Y71.127
G1 F1800 X48.921 Y51.891 E93.55965
G0 F4320 X48.921 Y51.396
G1 F1800 X68.652 Y71.127 E94.62753
G0 F4320 X69.147 Y71.127
G1 F1800 X48.921 Y50.901 E95.7222
G0 F4320 X48.921 Y50.406
G1 F1800 X69.642 Y71.127 E96.84366
G0 F4320 X70.137 Y71.127
G1 F1800 X48.921 Y49.911 E97.99191
G0 F4320 X48.921 Y49.416
G1 F1800 X70.632 Y71.127 E99.16695
G0 F4320 X71.127 Y71.127
G1 F1800 X48.921 Y48.921 E100.36878
G0 F4320 X49.367 Y48.872
G1 F1800 X71.622 Y71.127 E101.57326
G0 F4320 X72.117 Y71.127
G1 F1800 X49.862 Y48.872 E102.77774
G0 F4320 X50.357 Y48.872
G1 F1800 X72.612 Y71.127 E103.98223
G0 F4320 X73.107 Y71.127
G1 F1800 X50.852 Y48.872 E105.18671
G0 F4320 X51.347 Y48.872
G1 F1800 X73.602 Y71.127 E106.39119
G0 F4320 X74.097 Y71.127
G1 F1800 X51.842 Y48.872 E107.59567
G0 F4320 X52.337 Y48.872
G1 F1800 X74.592 Y71.127 E108.80016
G0 F4320 X75.087 Y71.127
G1 F1800 X52.832 Y48.872 E110.00464
G0 F4320 X53.327 Y48.872
G1 F1800 X75.582 Y71.127 E111.20912
G0 F4320 X76.077 Y71.127
G1 F1800 X53.822 Y48.872 E112.4136
G0 F4320 X54.317 Y48.872
G1 F1800 X76.572 Y71.127 E113.61808
G0 F4320 X77.067 Y71.127
G1 F1800 X54.812 Y48.872 E114.82257
G0 F4320 X55.307 Y48.872
G1 F1800 X77.562 Y71.127 E116.02705
G0 F4320 X78.057 Y71.127
G1 F1800 X55.802 Y48.872 E117.23153
G0 F4320 X56.297 Y48.872
G1 F1800 X78.552 Y71.127 E118.43601
G0 F4320 X79.047 Y71.127
G1 F1800 X56.791 Y48.872 E119.64052
G0 F4320 X57.286 Y48.872
G1 F1800 X79.542 Y71.127 E120.84503
G0 F4320 X80.037 Y71.127
G1 F1800 X57.781 Y48.872 E122.04954
G0 F4320 X58.276 Y48.872
G1 F1800 X80.532 Y71.127 E123.25405
G0 F4320 X81.027 Y71.127
G1 F1800 X58.771 Y48.872 E124.45856
G0 F4320 X59.266 Y48.872
G1 F1800 X81.522 Y71.127 E125.66307
G0 F4320 X82.017 Y71.127
G1 F1800 X59.761 Y48.872 E126.86758
G0 F4320 X60.256 Y48.872
G1 F1800 X82.512 Y71.127 E128.07209
G0 F4320 X83.007 Y71.127
G1 F1800 X60.751 Y48.872 E129.2766
G0 F4320 X61.246 Y48.872
G1 F1800 X83.502 Y71.127 E130.48111
G0 F4320 X83.997 Y71.127
G1 F1800 X61.741 Y48.872 E131.68562
G0 F4320 X62.236 Y48.872
G1 F1800 X84.492 Y71.127 E132.89013
G0 F4320 X84.987 Y71.127
G1 F1800 X62.731 Y48.872 E134.09463
G0 F4320 X63.226 Y48.872
G1 F1800 X85.482 Y71.127 E135.29914
G0 F4320 X85.977 Y71.127
G1 F1800 X63.721 Y48.872 E136.50365
G0 F4320 X64.216 Y48.872
G1 F1800 X86.472 Y71.127 E137.70816
G0 F4320 X86.967 Y71.127
G1 F1800 X64.711 Y48.872 E138.91267
G0 F4320 X65.206 Y48.872
G1 F1800 X87.462 Y71.127 E140.11718
G0 F4320 X87.957 Y71.127
G1 F1800 X65.701 Y48.872 E141.32169
G0 F4320 X66.196 Y48.872
G1 F1800 X88.451 Y71.127 E142.52617
G0 F4320 X88.946 Y71.127
G1 F1800 X66.691 Y48.872 E143.73066
G0 F4320 X67.186 Y48.872
G1 F1800 X89.441 Y71.127 E144.93514
G0 F4320 X89.936 Y71.127
G1 F1800 X67.681 Y48.872 E146.13962
G0 F4320 X68.176 Y48.872
G1 F1800 X90.431 Y71.127 E147.3441
G0 F4320 X90.926 Y71.127
G1 F1800 X68.671 Y48.872 E148.54858
G0 F4320 X69.166 Y48.872
G1 F1800 X91.421 Y71.127 E149.75307
G0 F4320 X91.916 Y71.127
G1 F1800 X69.661 Y48.872 E150.95755
G0 F4320 X70.156 Y48.872
G1 F1800 X92.411 Y71.127 E152.16203
G0 F4320 X92.906 Y71.127
G1 F1800 X70.651 Y48.872 E153.36651
G0 F4320 X71.146 Y48.872
G1 F1800 X93.401 Y71.127 E154.571
G0 F4320 X93.896 Y71.127
G1 F1800 X71.641 Y48.872 E155.77548
G0 F4320 X72.136 Y48.872
G1 F1800 X94.391 Y71.127 E156.97996
G0 F4320 X94.886 Y71.127
G1 F1800 X72.631 Y48.872 E158.18444
G0 F4320 X73.126 Y48.872
G1 F1800 X95.381 Y71.127 E159.38892
G0 F4320 X95.876 Y71.127
G1 F1800 X73.621 Y48.872 E160.59341
G0 F4320 X74.116 Y48.872
G1 F1800 X96.371 Y71.127 E161.79789
G0 F4320 X96.866 Y71.127
G1 F1800 X74.611 Y48.872 E163.00237
G0 F4320 X75.106 Y48.872
G1 F1800 X97.361 Y71.127 E164.20685
G0 F4320 X97.856 Y71.127
G1 F1800 X75.601 Y48.872 E165.41134
G0 F4320 X76.096 Y48.872
G1 F1800 X98.351 Y71.127 E166.61582
G0 F4320 X98.846 Y71.127
G1 F1800 X76.59 Y48.872 E167.82033
G0 F4320 X77.085 Y48.872
G1 F1800 X99.177 Y70.963 E169.01596
G0 F4320 X99.177 Y70.468
G1 F1800 X77.58 Y48.872 E170.1848
G0 F4320 X78.075 Y48.872
G1 F1800 X99.177 Y69.973 E171.32686
G0 F4320 X99.177 Y69.478
G1 F1800 X78.57 Y48.872 E172.44212
G0 F4320 X79.065 Y48.872
G1 F1800 X99.177 Y68.983 E173.53059
G0 F4320 X99.177 Y68.488
G1 F1800 X79.56 Y48.872 E174.59227
G0 F4320 X80.055 Y48.872
G1 F1800 X99.177 Y67.993 E175.62716
G0 F4320 X99.177 Y67.498
G1 F1800 X80.55 Y48.872 E176.63527
G0 F4320 X81.045 Y48.872
G1 F1800 X99.177 Y67.004 E177.6166
G0 F4320 X99.177 Y66.509
G1 F1800 X81.54 Y48.872 E178.57115
G0 F4320 X82.035 Y48.872
G1 F1800 X99.177 Y66.014 E179.49891
G0 F4320 X99.177 Y65.519
G1 F1800 X82.53 Y48.872 E180.39987
G0 F4320 X83.025 Y48.872
G1 F1800 X99.177 Y65.024 E181.27405
G0 F4320 X99.177 Y64.529
G1 F1800 X83.52 Y48.872 E182.12144
G0 F4320 X84.015 Y48.872
G1 F1800 X99.177 Y64.034 E182.94203
G0 F4320 X99.177 Y63.539
G1 F1800 X84.51 Y48.872 E183.73584
G0 F4320 X85.005 Y48.872
G1 F1800 X99.177 Y63.044 E184.50285
G0 F4320 X99.177 Y62.549
G1 F1800 X85.5 Y48.872 E185.24308
G0 F4320 X85.995 Y48.872
G1 F1800 X99.177 Y62.054 E185.95651
G0 F4320 X99.177 Y61.559
G1 F1800 X86.49 Y48.872 E186.64316
G0 F4320 X86.985 Y48.872
G1 F1800 X99.177 Y61.064 E187.30301
G0 F4320 X99.177 Y60.569
G1 F1800 X87.48 Y48.872 E187.93607
G0 F4320 X87.975 Y48.872
G1 F1800 X99.177 Y60.074 E188.54235
G0 F4320 X99.177 Y59.579
G1 F1800 X88.47 Y48.872 E189.12183
G0 F4320 X88.965 Y48.872
G1 F1800 X99.177 Y59.084 E189.67452
G0 F4320 X99.177 Y58.589
G1 F1800 X89.46 Y48.872 E190.20043
G0 F4320 X89.955 Y48.872
G1 F1800 X99.177 Y58.094 E190.69954
G0 F4320 X99.177 Y57.599
G1 F1800 X90.45 Y48.872 E191.17186
G0 F4320 X90.945 Y48.872
G1 F1800 X99.177 Y57.104 E191.61739
G0 F4320 X99.177 Y56.609
G1 F1800 X91.44 Y48.872 E192.03613
G0 F4320 X91.935 Y48.872
G1 F1800 X99.177 Y56.114 E192.42808
G0 F4320 X99.177 Y55.619
G1 F1800 X92.43 Y48.872 E192.79324
G0 F4320 X92.925 Y48.872
G1 F1800 X99.177 Y55.124 E193.13161
G0 F4320 X99.177 Y54.629
G1 F1800 X93.42 Y48.872 E193.44319
G0 F4320 X93.915 Y48.872
G1 F1800 X99.177 Y54.134 E193.72798
G0 F4320 X99.177 Y53.639
G1 F1800 X94.41 Y48.872 E193.98598
