;FLAVOR:Marlin
;TIME:3976
;Filament used: 1.78943m
;Layer height: 0.13125
;MINX:2.975
;MINY:42.725
;MINZ:0.263
;MAXX:117.025
;MAXY:77.275
;MAXZ:1.442
;Generated with Cura_SteamEngine 4.7.1
M140 S65
M105
M190 S65
M104 S215
M105
M109 S215
M82 ;absolute extrusion mode
G21;(metric values)
G90;(absolute positioning)
M82;(set extruder to absolute mode)
M107;(start with the fan off)
G28;(Home the printer)
G92 E0;(Reset the extruder to 0)
G0 Z5 E5 F500;(Move up and prime the nozzle)
G0 X-1 Z0;(Move outside the printable area)
G1 Y60 E8 F500;(Draw a priming/wiping line to the rear)
G1 X-1;(Move a little closer to the print area)
G1 Y10 E16 F500;(draw more priming/wiping)
G1 E15 F250;(Small retract)
G92 E0;(Zero the extruder)
G92 E0
G92 E0
G1 F2400 E-3
;LAYER_COUNT:10
;LAYER:0
M107
G0 F4320 X5.805 Y42.805 Z0.263
;TYPE:SKIRT
G1 F2400 E0
G1 F1800 X6.41 Y42.735 E0.02331
G1 X6.83 Y42.725 E0.03939
G1 X112.843 Y42.725 E4.0965
G1 X113.541 Y42.735 E4.12321
G1 X114.07 Y42.783 E4.14354
G1 X114.585 Y42.909 E4.16383
G1 X115.076 Y43.111 E4.18415
G1 X115.531 Y43.385 E4.20448
G1 X115.939 Y43.724 E4.22478
G1 X116.292 Y44.12 E4.24508
G1 X116.582 Y44.565 E4.26541
G1 X116.801 Y45.048 E4.2857
G1 X116.946 Y45.559 E4.30603
G1 X117.015 Y46.161 E4.32922
G1 X117.025 Y46.58 E4.34526
G1 X117.025 Y73.058 E5.35857
G1 X117.016 Y73.785 E5.38639
G1 X116.969 Y74.313 E5.40668
G1 X116.844 Y74.829 E5.427
G1 X116.643 Y75.32 E5.4473
G1 X116.37 Y75.775 E5.46761
G1 X116.032 Y76.184 E5.48792
G1 X115.636 Y76.538 E5.50824
G1 X115.192 Y76.828 E5.52854
G1 X114.709 Y77.049 E5.54887
G1 X114.199 Y77.194 E5.56916
G1 X113.59 Y77.265 E5.59262
G1 X113.17 Y77.275 E5.6087
G1 X7.162 Y77.275 E9.66562
G1 X6.464 Y77.266 E9.69233
G1 X5.935 Y77.219 E9.71266
G1 X5.419 Y77.093 E9.73299
G1 X4.928 Y76.892 E9.75329
G1 X4.473 Y76.619 E9.7736
G1 X4.064 Y76.281 E9.7939
G1 X3.711 Y75.885 E9.8142
G1 X3.421 Y75.441 E9.8345
G1 X3.201 Y74.958 E9.85481
G1 X3.055 Y74.447 E9.87515
G1 X2.985 Y73.836 E9.89869
G1 X2.975 Y73.408 E9.91507
G1 X2.975 Y46.876 E10.93045
G1 X2.984 Y46.211 E10.9559
G1 X3.031 Y45.683 E10.97619
G1 X3.157 Y45.167 E10.99651
G1 X3.359 Y44.676 E11.01683
G1 X3.632 Y44.222 E11.03711
G1 X3.971 Y43.813 E11.05744
G1 X4.367 Y43.46 E11.07774
G1 X4.811 Y43.17 E11.09803
G1 X5.146 Y43.017 E11.11213
G0 F1620 X5.294 Y42.95
G0 X5.805 Y42.805
G0 F4320 X6.103 Y43.11
G1 F1800 X6.741 Y43.076 E11.13658
G1 X112.838 Y43.075 E15.1969
G1 X113.536 Y43.085 E15.22362
G1 X114.038 Y43.132 E15.24291
G1 X114.525 Y43.258 E15.26217
G1 X114.987 Y43.46 E15.28146
G1 X115.411 Y43.731 E15.30072
G1 X115.787 Y44.067 E15.32002
G1 X116.105 Y44.457 E15.33928
G1 X116.357 Y44.893 E15.35855
G1 X116.537 Y45.363 E15.37781
G1 X116.64 Y45.856 E15.39708
G1 X116.674 Y46.491 E15.42142
G1 X116.675 Y73.053 E16.43795
G1 X116.666 Y73.78 E16.46577
G1 X116.62 Y74.282 E16.48506
G1 X116.495 Y74.77 E16.50434
G1 X116.294 Y75.232 E16.52362
G1 X116.023 Y75.656 E16.54288
G1 X115.689 Y76.032 E16.56213
G1 X115.299 Y76.351 E16.58141
G1 X114.863 Y76.604 E16.6007
G1 X114.393 Y76.785 E16.61998
G1 X113.901 Y76.889 E16.63922
G1 X113.259 Y76.924 E16.66383
G1 X7.166 Y76.925 E20.724
G1 X6.468 Y76.916 E20.75071
G1 X5.967 Y76.869 E20.76997
G1 X5.479 Y76.744 E20.78925
G1 X5.017 Y76.544 E20.80852
G1 X4.593 Y76.272 E20.82779
G1 X4.216 Y75.938 E20.84707
G1 X3.898 Y75.547 E20.86636
G1 X3.645 Y75.112 E20.88562
G1 X3.464 Y74.642 E20.90489
G1 X3.36 Y74.149 E20.92417
G1 X3.326 Y73.494 E20.94927
G1 X3.325 Y46.881 E21.96775
G1 X3.334 Y46.216 E21.9932
G1 X3.381 Y45.715 E22.01246
G1 X3.506 Y45.227 E22.03174
G1 X3.707 Y44.765 E22.05102
G1 X3.979 Y44.341 E22.0703
G1 X4.314 Y43.965 E22.08957
G1 X4.704 Y43.647 E22.10883
G1 X5.14 Y43.394 E22.12812
G1 X5.432 Y43.282 E22.14009
G0 F1620 X5.61 Y43.214
G0 X6.103 Y43.11
G1 F2400 E19.14009
;MESH:powermeterSensor_prototype4_top.stl
G0 F4320 X7.56 Y45.61
G0 X7.56 Y47.31
G0 X7.532 Y72.718
G0 X112.625 Y72.875
;TYPE:WALL-INNER
G1 F2400 E22.14009
G1 F1800 X7.375 Y72.875 E26.168
G1 X7.375 Y47.125 E27.15345
G1 X112.625 Y47.125 E31.18136
G1 X112.625 Y72.181 E32.14026
G0 F1620 X112.625 Y72.875
G0 F4320 X112.975 Y73.225
G1 F1800 X7.025 Y73.225 E36.19496
G1 X7.025 Y46.775 E37.2072
G1 X112.975 Y46.775 E41.2619
G1 X112.975 Y72.531 E42.24758
G0 F1620 X112.975 Y73.225
G0 F4320 X113.3 Y73.55
;TYPE:WALL-OUTER
G1 F1800 X6.7 Y73.55 E46.32715
G1 X6.7 Y46.45 E47.36427
G1 X113.3 Y46.45 E51.44384
G1 X113.3 Y72.856 E52.4544
G0 F1620 X113.3 Y73.55
G0 F4320 X113.1 Y73.55
G0 X113.1 Y73.275
G0 X112.54 Y72.535
G0 X112.285 Y72.535
;TYPE:SKIN
G1 F1800 X7.715 Y72.535 E56.45629
G1 X7.715 Y47.465 E57.41572
G1 X112.285 Y47.465 E61.4176
G1 X112.285 Y71.841 E62.35047
G0 F1620 X112.285 Y72.535
G0 F4320 X112.54 Y72.535
G0 X112.54 Y47.78
G0 X112.127 Y47.78
G1 F1800 X111.968 Y47.622 E62.35905
G0 F4320 X111.473 Y47.622
G1 F1800 X112.127 Y48.275 E62.39442
G0 F4320 X112.127 Y48.77
G1 F1800 X110.978 Y47.622 E62.45658
G0 F4320 X110.484 Y47.622
G1 F1800 X112.127 Y49.265 E62.5455
G0 F4320 X112.127 Y49.76
G1 F1800 X109.989 Y47.622 E62.66121
G0 F4320 X109.494 Y47.622
G1 F1800 X112.127 Y50.255 E62.80372
G0 F4320 X112.127 Y50.75
G1 F1800 X108.999 Y47.622 E62.97301
G0 F4320 X108.504 Y47.622
G1 F1800 X112.127 Y51.245 E63.16909
G0 F4320 X112.127 Y51.74
G1 F1800 X108.009 Y47.622 E63.39197
G0 F4320 X107.514 Y47.622
G1 F1800 X112.127 Y52.235 E63.64163
G0 F4320 X112.127 Y52.73
G1 F1800 X107.019 Y47.622 E63.91808
G0 F4320 X106.524 Y47.622
G1 F1800 X112.127 Y53.225 E64.22133
G0 F4320 X112.127 Y53.72
G1 F1800 X106.029 Y47.622 E64.55136
G0 F4320 X105.534 Y47.622
G1 F1800 X112.127 Y54.215 E64.90819
G0 F4320 X112.127 Y54.71
G1 F1800 X105.039 Y47.622 E65.29181
G0 F4320 X104.544 Y47.622
G1 F1800 X112.127 Y55.205 E65.70221
G0 F4320 X112.127 Y55.7
G1 F1800 X104.049 Y47.622 E66.13941
G0 F4320 X103.554 Y47.622
G1 F1800 X112.127 Y56.195 E66.6034
G0 F4320 X112.127 Y56.69
G1 F1800 X103.059 Y47.622 E67.09417
G0 F4320 X102.564 Y47.622
G1 F1800 X112.127 Y57.185 E67.61174
G0 F4320 X112.127 Y57.68
G1 F1800 X102.069 Y47.622 E68.1561
G0 F4320 X101.574 Y47.622
G1 F1800 X112.127 Y58.175 E68.72725
G0 F4320 X112.127 Y58.67
G1 F1800 X101.079 Y47.622 E69.32518
G0 F4320 X100.584 Y47.622
G1 F1800 X112.127 Y59.165 E69.94991
G0 F4320 X112.127 Y59.66
G1 F1800 X100.089 Y47.622 E70.60143
G0 F4320 X99.594 Y47.622
G1 F1800 X112.127 Y60.154 E71.27971
G0 F4320 X112.127 Y60.649
G1 F1800 X99.099 Y47.622 E71.98479
G0 F4320 X98.604 Y47.622
G1 F1800 X112.127 Y61.144 E72.71665
G0 F4320 X112.127 Y61.639
G1 F1800 X98.109 Y47.622 E73.4753
G0 F4320 X97.614 Y47.622
G1 F1800 X112.127 Y62.134 E74.26075
G0 F4320 X112.127 Y62.629
G1 F1800 X97.119 Y47.622 E75.07298
G0 F4320 X96.624 Y47.622
G1 F1800 X112.127 Y63.124 E75.91201
G0 F4320 X112.127 Y63.619
G1 F1800 X96.129 Y47.622 E76.77782
G0 F4320 X95.634 Y47.622
G1 F1800 X112.127 Y64.114 E77.67043
G0 F4320 X112.127 Y64.609
G1 F1800 X95.139 Y47.622 E78.58982
G0 F4320 X94.644 Y47.622
G1 F1800 X112.127 Y65.104 E79.53601
G0 F4320 X112.127 Y65.599
G1 F1800 X94.149 Y47.622 E80.50898
G0 F4320 X93.654 Y47.622
G1 F1800 X112.127 Y66.094 E81.50875
G0 F4320 X112.127 Y66.589
G1 F1800 X93.159 Y47.622 E82.53531
G0 F4320 X92.664 Y47.622
G1 F1800 X112.127 Y67.084 E83.58865
G0 F4320 X112.127 Y67.579
G1 F1800 X92.169 Y47.622 E84.66879
G0 F4320 X91.674 Y47.622
G1 F1800 X112.127 Y68.074 E85.77572
G0 F4320 X112.127 Y68.569
G1 F1800 X91.18 Y47.622 E86.90941
G0 F4320 X90.685 Y47.622
G1 F1800 X112.127 Y69.064 E88.06989
G0 F4320 X112.127 Y69.559
G1 F1800 X90.19 Y47.622 E89.25716
G0 F4320 X89.695 Y47.622
G1 F1800 X112.127 Y70.054 E90.47122
G0 F4320 X112.127 Y70.549
G1 F1800 X89.2 Y47.622 E91.71207
G0 F4320 X88.705 Y47.622
G1 F1800 X112.127 Y71.044 E92.97972
G0 F4320 X112.127 Y71.539
G1 F1800 X88.21 Y47.622 E94.27415
G0 F4320 X87.715 Y47.622
G1 F1800 X112.127 Y72.034 E95.59537
G0 F4320 X111.975 Y72.377
G1 F1800 X87.22 Y47.622 E96.93516
G0 F4320 X86.725 Y47.622
G1 F1800 X111.48 Y72.377 E98.27495
G0 F4320 X110.985 Y72.377
G1 F1800 X86.23 Y47.622 E99.61473
G0 F4320 X85.735 Y47.622
G1 F1800 X110.49 Y72.377 E100.95452
G0 F4320 X109.995 Y72.377
G1 F1800 X85.24 Y47.622 E102.29431
G0 F4320 X84.745 Y47.622
G1 F1800 X109.5 Y72.377 E103.63409
G0 F4320 X109.005 Y72.377
G1 F1800 X84.25 Y47.622 E104.97388
G0 F4320 X83.755 Y47.622
G1 F1800 X108.51 Y72.377 E106.31367
G0 F4320 X108.015 Y72.377
G1 F1800 X83.26 Y47.622 E107.65346
G0 F4320 X82.765 Y47.622
G1 F1800 X107.52 Y72.377 E108.99324
G0 F4320 X107.025 Y72.377
G1 F1800 X82.27 Y47.622 E110.33303
G0 F4320 X81.775 Y47.622
G1 F1800 X106.53 Y72.377 E111.67282
G0 F4320 X106.035 Y72.377
G1 F1800 X81.28 Y47.622 E113.0126
G0 F4320 X80.785 Y47.622
G1 F1800 X105.54 Y72.377 E114.35239
G0 F4320 X105.045 Y72.377
G1 F1800 X80.29 Y47.622 E115.69218
G0 F4320 X79.795 Y47.622
G1 F1800 X104.55 Y72.377 E117.03196
G0 F4320 X104.055 Y72.377
G1 F1800 X79.3 Y47.622 E118.37175
G0 F4320 X78.805 Y47.622
G1 F1800 X103.56 Y72.377 E119.71154
G0 F4320 X103.065 Y72.377
G1 F1800 X78.31 Y47.622 E121.05132
G0 F4320 X77.815 Y47.622
G1 F1800 X102.57 Y72.377 E122.39111
G0 F4320 X102.075 Y72.377
G1 F1800 X77.32 Y47.622 E123.7309
G0 F4320 X76.825 Y47.622
G1 F1800 X101.58 Y72.377 E125.07069
G0 F4320 X101.085 Y72.377
G1 F1800 X76.33 Y47.622 E126.41047
G0 F4320 X75.835 Y47.622
G1 F1800 X100.59 Y72.377 E127.75026
G0 F4320 X100.095 Y72.377
G1 F1800 X75.34 Y47.622 E129.09005
G0 F4320 X74.845 Y47.622
G1 F1800 X99.6 Y72.377 E130.42983
G0 F4320 X99.105 Y72.377
G1 F1800 X74.35 Y47.622 E131.76962
G0 F4320 X73.855 Y47.622
G1 F1800 X98.61 Y72.377 E133.10941
G0 F4320 X98.116 Y72.377
G1 F1800 X73.36 Y47.622 E134.44922
G0 F4320 X72.865 Y47.622
G1 F1800 X97.621 Y72.377 E135.78904
G0 F4320 X97.126 Y72.377
G1 F1800 X72.37 Y47.622 E137.12885
G0 F4320 X71.875 Y47.622
G1 F1800 X96.631 Y72.377 E138.46866
G0 F4320 X96.136 Y72.377
G1 F1800 X71.381 Y47.622 E139.80845
G0 F4320 X70.886 Y47.622
G1 F1800 X95.641 Y72.377 E141.14824
G0 F4320 X95.146 Y72.377
G1 F1800 X70.391 Y47.622 E142.48802
G0 F4320 X69.896 Y47.622
G1 F1800 X94.651 Y72.377 E143.82781
G0 F4320 X94.156 Y72.377
G1 F1800 X69.401 Y47.622 E145.1676
G0 F4320 X68.906 Y47.622
G1 F1800 X93.661 Y72.377 E146.50739
G0 F4320 X93.166 Y72.377
G1 F1800 X68.411 Y47.622 E147.84717
G0 F4320 X67.916 Y47.622
G1 F1800 X92.671 Y72.377 E149.18696
G0 F4320 X92.176 Y72.377
G1 F1800 X67.421 Y47.622 E150.52675
G0 F4320 X66.926 Y47.622
G1 F1800 X91.681 Y72.377 E151.86653
G0 F4320 X91.186 Y72.377
G1 F1800 X66.431 Y47.622 E153.20632
G0 F4320 X65.936 Y47.622
G1 F1800 X90.691 Y72.377 E154.54611
G0 F4320 X90.196 Y72.377
G1 F1800 X65.441 Y47.622 E155.88589
G0 F4320 X64.946 Y47.622
G1 F1800 X89.701 Y72.377 E157.22568
G0 F4320 X89.206 Y72.377
G1 F1800 X64.451 Y47.622 E158.56547
G0 F4320 X63.956 Y47.622
G1 F1800 X88.711 Y72.377 E159.90525
G0 F4320 X88.216 Y72.377
G1 F1800 X63.461 Y47.622 E161.24504
G0 F4320 X62.966 Y47.622
G1 F1800 X87.721 Y72.377 E162.58483
G0 F4320 X87.226 Y72.377
G1 F1800 X62.471 Y47.622 E163.92462
G0 F4320 X61.976 Y47.622
G1 F1800 X86.731 Y72.377 E165.2644
G0 F4320 X86.236 Y72.377
G1 F1800 X61.481 Y47.622 E166.60419
G0 F4320 X60.986 Y47.622
G1 F1800 X85.741 Y72.377 E167.94398
G0 F4320 X85.246 Y72.377
G1 F1800 X60.491 Y47.622 E169.28376
G0 F4320 X59.996 Y47.622
G1 F1800 X84.751 Y72.377 E170.62355
G0 F4320 X84.256 Y72.377
G1 F1800 X59.501 Y47.622 E171.96334
G0 F4320 X59.006 Y47.622
G1 F1800 X83.761 Y72.377 E173.30312
G0 F4320 X83.266 Y72.377
G1 F1800 X58.511 Y47.622 E174.64291
G0 F4320 X58.016 Y47.622
G1 F1800 X82.771 Y72.377 E175.9827
G0 F4320 X82.276 Y72.377
G1 F1800 X57.521 Y47.622 E177.32249
G0 F4320 X57.026 Y47.622
G1 F1800 X81.781 Y72.377 E178.66227
G0 F4320 X81.286 Y72.377
G1 F1800 X56.531 Y47.622 E180.00206
G0 F4320 X56.036 Y47.622
G1 F1800 X80.791 Y72.377 E181.34185
G0 F4320 X80.296 Y72.377
G1 F1800 X55.541 Y47.622 E182.68163
G0 F4320 X55.046 Y47.622
G1 F1800 X79.801 Y72.377 E184.02142
G0 F4320 X79.306 Y72.377
G1 F1800 X54.551 Y47.622 E185.36121
G0 F4320 X54.056 Y47.622
G1 F1800 X78.812 Y72.377 E186.70102
G0 F4320 X78.317 Y72.377
G1 F1800 X53.561 Y47.622 E188.04083
G0 F4320 X53.066 Y47.622
G1 F1800 X77.822 Y72.377 E189.38065
G0 F4320 X77.327 Y72.377
G1 F1800 X52.571 Y47.622 E190.72046
G0 F4320 X52.077 Y47.622
G1 F1800 X76.832 Y72.377 E192.06025
G0 F4320 X76.337 Y72.377
G1 F1800 X51.582 Y47.622 E193.40004
G0 F4320 X51.087 Y47.622
G1 F1800 X75.842 Y72.377 E194.73982
G0 F4320 X75.347 Y72.377
G1 F1800 X50.592 Y47.622 E196.07961
G0 F4320 X50.097 Y47.622
G1 F1800 X74.852 Y72.377 E197.4194
G0 F4320 X74.357 Y72.377
G1 F1800 X49.602 Y47.622 E198.75918
G0 F4320 X49.107 Y47.622
G1 F1800 X73.862 Y72.377 E200.09897
G0 F4320 X73.367 Y72.377
G1 F1800 X48.612 Y47.622 E201.43876
G0 F4320 X48.117 Y47.622
G1 F1800 X72.872 Y72.377 E202.77855
G0 F4320 X72.377 Y72.377
G1 F1800 X47.622 Y47.622 E204.11833
G0 F4320 X47.127 Y47.622
G1 F1800 X71.882 Y72.377 E205.45812
G0 F4320 X71.387 Y72.377
G1 F1800 X46.632 Y47.622 E206.79791
G0 F4320 X46.137 Y47.622
G1 F1800 X70.892 Y72.377 E208.13769
G0 F4320 X70.397 Y72.377
G1 F1800 X45.642 Y47.622 E209.47748
G0 F4320 X45.147 Y47.622
G1 F1800 X69.902 Y72.377 E210.81727
G0 F4320 X69.407 Y72.377
G1 F1800 X44.652 Y47.622 E212.15705
G0 F4320 X44.157 Y47.622
G1 F1800 X68.912 Y72.377 E213.49684
G0 F4320 X68.417 Y72.377
G1 F1800 X43.662 Y47.622 E214.83663
G0 F4320 X43.167 Y47.622
G1 F1800 X67.922 Y72.377 E216.17641
G0 F4320 X67.427 Y72.377
G1 F1800 X42.672 Y47.622 E217.5162
G0 F4320 X42.177 Y47.622
G1 F1800 X66.932 Y72.377 E218.85599
G0 F4320 X66.437 Y72.377
G1 F1800 X41.682 Y47.622 E220.19578
G0 F4320 X41.187 Y47.622
G1 F1800 X65.942 Y72.377 E221.53556
G0 F4320 X65.447 Y72.377
G1 F1800 X40.692 Y47.622 E222.87535
G0 F4320 X40.197 Y47.622
G1 F1800 X64.952 Y72.377 E224.21514
G0 F4320 X64.457 Y72.377
G1 F1800 X39.702 Y47.622 E225.55492
G0 F4320 X39.207 Y47.622
G1 F1800 X63.962 Y72.377 E226.89471
G0 F4320 X63.467 Y72.377
G1 F1800 X38.712 Y47.622 E228.2345
G0 F4320 X38.217 Y47.622
G1 F1800 X62.972 Y72.377 E229.57428
G0 F4320 X62.477 Y72.377
G1 F1800 X37.722 Y47.622 E230.91407
G0 F4320 X37.227 Y47.622
G1 F1800 X61.982 Y72.377 E232.25386
G0 F4320 X61.487 Y72.377
G1 F1800 X36.732 Y47.622 E233.59365
G0 F4320 X36.237 Y47.622
G1 F1800 X60.992 Y72.377 E234.93343
G0 F4320 X60.497 Y72.377
G1 F1800 X35.742 Y47.622 E236.27322
G0 F4320 X35.247 Y47.622
G1 F1800 X60.002 Y72.377 E237.61301
G0 F4320 X59.507 Y72.377
G1 F1800 X34.752 Y47.622 E238.95279
G0 F4320 X34.257 Y47.622
G1 F1800 X59.013 Y72.377 E240.29261
G0 F4320 X58.518 Y72.377
G1 F1800 X33.762 Y47.622 E241.63242
G0 F4320 X33.267 Y47.622
G1 F1800 X58.023 Y72.377 E242.97223
G0 F4320 X57.528 Y72.377
G1 F1800 X32.772 Y47.622 E244.31205
G0 F4320 X32.278 Y47.622
G1 F1800 X57.033 Y72.377 E245.65184
G0 F4320 X56.538 Y72.377
G1 F1800 X31.783 Y47.622 E246.99162
G0 F4320 X31.288 Y47.622
G1 F1800 X56.043 Y72.377 E248.33141
G0 F4320 X55.548 Y72.377
G1 F1800 X30.793 Y47.622 E249.6712
G0 F4320 X30.298 Y47.622
G1 F1800 X55.053 Y72.377 E251.01098
G0 F4320 X54.558 Y72.377
G1 F1800 X29.803 Y47.622 E252.35077
G0 F4320 X29.308 Y47.622
G1 F1800 X54.063 Y72.377 E253.69056
G0 F4320 X53.568 Y72.377
G1 F1800 X28.813 Y47.622 E255.03034
G0 F4320 X28.318 Y47.622
G1 F1800 X53.073 Y72.377 E256.37013
G0 F4320 X52.578 Y72.377
G1 F1800 X27.823 Y47.622 E257.70992
G0 F4320 X27.328 Y47.622
G1 F1800 X52.083 Y72.377 E259.04971
G0 F4320 X51.588 Y72.377
G1 F1800 X26.833 Y47.622 E260.38949
G0 F4320 X26.338 Y47.622
G1 F1800 X51.093 Y72.377 E261.72928
G0 F4320 X50.598 Y72.377
G1 F1800 X25.843 Y47.622 E263.06907
G0 F4320 X25.348 Y47.622
G1 F1800 X50.103 Y72.377 E264.40885
G0 F4320 X49.608 Y72.377
G1 F1800 X24.853 Y47.622 E265.74864
G0 F4320 X24.358 Y47.622
G1 F1800 X49.113 Y72.377 E267.08843
G0 F4320 X48.618 Y72.377
G1 F1800 X23.863 Y47.622 E268.42821
G0 F4320 X23.368 Y47.622
G1 F1800 X48.123 Y72.377 E269.768
G0 F4320 X47.628 Y72.377
G1 F1800 X22.873 Y47.622 E271.10779
G0 F4320 X22.378 Y47.622
G1 F1800 X47.133 Y72.377 E272.44757
G0 F4320 X46.638 Y72.377
G1 F1800 X21.883 Y47.622 E273.78736
G0 F4320 X21.388 Y47.622
G1 F1800 X46.143 Y72.377 E275.12715
G0 F4320 X45.648 Y72.377
G1 F1800 X20.893 Y47.622 E276.46694
G0 F4320 X20.398 Y47.622
G1 F1800 X45.153 Y72.377 E277.80672
