;FLAVOR:Marlin
;TIME:3902
;Filament used: 1.75608m
;Layer height: 0.13125
;MINX:3.975
;MINY:42.725
;MINZ:0.263
;MAXX:116.025
;MAXY:77.275
;MAXZ:1.442
;Generated with Cura_SteamEngine 4.7.1
M140 S65
M105
M190 S65
M104 S215
M105
M109 S215
M82 ;absolute extrusion mode
G21;(metric values)
G90;(absolute positioning)
M82;(set extruder to absolute mode)
M107;(start with the fan off)
G28;(Home the printer)
G92 E0;(Reset the extruder to 0)
G0 Z5 E5 F500;(Move up and prime the nozzle)
G0 X-1 Z0;(Move outside the printable area)
G1 Y60 E8 F500;(Draw a priming/wiping line to the rear)
G1 X-1;(Move a little closer to the print area)
G1 Y10 E16 F500;(draw more priming/wiping)
G1 E15 F250;(Small retract)
G92 E0;(Zero the extruder)
G92 E0
G92 E0
G1 F2400 E-3
;LAYER_COUNT:10
;LAYER:0
M107
G0 F4320 X6.805 Y42.805 Z0.263
;TYPE:SKIRT
G1 F2400 E0
G1 F1800 X7.41 Y42.735 E0.02331
G1 X7.83 Y42.725 E0.03939
G1 X111.843 Y42.725 E4.01996
G1 X112.541 Y42.735 E4.04667
G1 X113.07 Y42.783 E4.067
G1 X113.585 Y42.909 E4.08729
G1 X114.076 Y43.111 E4.10761
G1 X114.531 Y43.385 E4.12794
G1 X114.939 Y43.724 E4.14824
G1 X115.292 Y44.12 E4.16854
G1 X115.582 Y44.565 E4.18887
G1 X115.801 Y45.048 E4.20916
G1 X115.946 Y45.559 E4.22949
G1 X116.015 Y46.161 E4.25268
G1 X116.025 Y46.58 E4.26872
G1 X116.025 Y73.058 E5.28203
G1 X116.016 Y73.785 E5.30985
G1 X115.969 Y74.313 E5.33014
G1 X115.844 Y74.829 E5.35046
G1 X115.643 Y75.32 E5.37076
G1 X115.37 Y75.775 E5.39107
G1 X115.032 Y76.184 E5.41138
G1 X114.636 Y76.538 E5.4317
G1 X114.192 Y76.828 E5.452
G1 X113.709 Y77.049 E5.47233
G1 X113.199 Y77.194 E5.49262
G1 X112.59 Y77.265 E5.51608
G1 X112.17 Y77.275 E5.53216
G1 X8.162 Y77.275 E9.51254
G1 X7.464 Y77.266 E9.53925
G1 X6.935 Y77.219 E9.55958
G1 X6.419 Y77.093 E9.57991
G1 X5.928 Y76.892 E9.60021
G1 X5.473 Y76.619 E9.62052
G1 X5.064 Y76.281 E9.64082
G1 X4.711 Y75.885 E9.66112
G1 X4.421 Y75.441 E9.68142
G1 X4.201 Y74.958 E9.70173
G1 X4.055 Y74.447 E9.72207
G1 X3.985 Y73.836 E9.74561
G1 X3.975 Y73.408 E9.76199
G1 X3.975 Y46.876 E10.77737
G1 X3.984 Y46.211 E10.80282
G1 X4.031 Y45.683 E10.82311
G1 X4.157 Y45.167 E10.84343
G1 X4.359 Y44.676 E10.86375
G1 X4.632 Y44.222 E10.88403
G1 X4.971 Y43.813 E10.90436
G1 X5.367 Y43.46 E10.92466
G1 X5.811 Y43.17 E10.94495
G1 X6.146 Y43.017 E10.95905
G0 F1620 X6.294 Y42.95
G0 X6.805 Y42.805
G0 F4320 X7.103 Y43.11
G1 F1800 X7.741 Y43.076 E10.9835
G1 X111.838 Y43.075 E14.96728
G1 X112.536 Y43.085 E14.994
G1 X113.038 Y43.132 E15.0133
G1 X113.525 Y43.258 E15.03255
G1 X113.987 Y43.46 E15.05184
G1 X114.411 Y43.731 E15.0711
G1 X114.787 Y44.067 E15.0904
G1 X115.105 Y44.457 E15.10966
G1 X115.357 Y44.893 E15.12893
G1 X115.537 Y45.363 E15.14819
G1 X115.64 Y45.856 E15.16746
G1 X115.674 Y46.491 E15.1918
G1 X115.675 Y73.053 E16.20833
G1 X115.666 Y73.78 E16.23615
G1 X115.62 Y74.282 E16.25544
G1 X115.495 Y74.77 E16.27472
G1 X115.294 Y75.232 E16.294
G1 X115.023 Y75.656 E16.31326
G1 X114.689 Y76.032 E16.33251
G1 X114.299 Y76.351 E16.35179
G1 X113.863 Y76.604 E16.37108
G1 X113.393 Y76.785 E16.39036
G1 X112.901 Y76.889 E16.4096
G1 X112.259 Y76.924 E16.43421
G1 X8.166 Y76.925 E20.41784
G1 X7.468 Y76.916 E20.44455
G1 X6.967 Y76.869 E20.46381
G1 X6.479 Y76.744 E20.48309
G1 X6.017 Y76.544 E20.50236
G1 X5.593 Y76.272 E20.52163
G1 X5.216 Y75.938 E20.54091
G1 X4.898 Y75.547 E20.5602
G1 X4.645 Y75.112 E20.57946
G1 X4.464 Y74.642 E20.59873
G1 X4.36 Y74.149 E20.61801
G1 X4.326 Y73.494 E20.64311
G1 X4.325 Y46.881 E21.66159
G1 X4.334 Y46.216 E21.68704
G1 X4.381 Y45.715 E21.7063
G1 X4.506 Y45.227 E21.72558
G1 X4.707 Y44.765 E21.74486
G1 X4.979 Y44.341 E21.76414
G1 X5.314 Y43.965 E21.78341
G1 X5.704 Y43.647 E21.80267
G1 X6.14 Y43.394 E21.82196
G1 X6.432 Y43.282 E21.83393
G0 F1620 X6.61 Y43.214
G0 X7.103 Y43.11
G1 F2400 E18.83393
;MESH:powermeterSensor_prototype3_top.stl
G0 F4320 X8.56 Y45.61
G0 X8.56 Y47.31
G0 X8.532 Y72.718
G0 X111.625 Y72.875
;TYPE:WALL-INNER
G1 F2400 E21.83393
G1 F1800 X8.375 Y72.875 E25.7853
G1 X8.375 Y47.125 E26.77075
G1 X111.625 Y47.125 E30.72212
G1 X111.625 Y72.181 E31.68102
G0 F1620 X111.625 Y72.875
G0 F4320 X111.975 Y73.225
G1 F1800 X8.025 Y73.225 E35.65918
G1 X8.025 Y46.775 E36.67142
G1 X111.975 Y46.775 E40.64958
G1 X111.975 Y72.531 E41.63526
G0 F1620 X111.975 Y73.225
G0 F4320 X112.3 Y73.55
;TYPE:WALL-OUTER
G1 F1800 X7.7 Y73.55 E45.63829
G1 X7.7 Y46.45 E46.67541
G1 X112.3 Y46.45 E50.67845
G1 X112.3 Y72.856 E51.689
G0 F1620 X112.3 Y73.55
G0 F4320 X112.1 Y73.55
G0 X112.1 Y73.275
G0 X111.54 Y72.535
G0 X111.285 Y72.535
;TYPE:SKIN
G1 F1800 X8.715 Y72.535 E55.61435
G1 X8.715 Y47.465 E56.57378
G1 X111.285 Y47.465 E60.49912
G1 X111.285 Y71.841 E61.43199
G0 F1620 X111.285 Y72.535
G0 F4320 X111.54 Y72.535
G0 X111.54 Y47.77
G0 X111.127 Y47.77
G1 F1800 X110.978 Y47.622 E61.44003
G0 F4320 X110.484 Y47.622
G1 F1800 X111.127 Y48.265 E61.47483
G0 F4320 X111.127 Y48.76
G1 F1800 X109.989 Y47.622 E61.53642
G0 F4320 X109.494 Y47.622
G1 F1800 X111.127 Y49.255 E61.6248
G0 F4320 X111.127 Y49.75
G1 F1800 X108.999 Y47.622 E61.73997
G0 F4320 X108.504 Y47.622
G1 F1800 X111.127 Y50.245 E61.88194
G0 F4320 X111.127 Y50.74
G1 F1800 X108.009 Y47.622 E62.05069
G0 F4320 X107.514 Y47.622
G1 F1800 X111.127 Y51.235 E62.24623
G0 F4320 X111.127 Y51.73
G1 F1800 X107.019 Y47.622 E62.46856
G0 F4320 X106.524 Y47.622
G1 F1800 X111.127 Y52.225 E62.71769
G0 F4320 X111.127 Y52.72
G1 F1800 X106.029 Y47.622 E62.9936
G0 F4320 X105.534 Y47.622
G1 F1800 X111.127 Y53.215 E63.2963
G0 F4320 X111.127 Y53.71
G1 F1800 X105.039 Y47.622 E63.6258
G0 F4320 X104.544 Y47.622
G1 F1800 X111.127 Y54.205 E63.98208
G0 F4320 X111.127 Y54.7
G1 F1800 X104.049 Y47.622 E64.36515
G0 F4320 X103.554 Y47.622
G1 F1800 X111.127 Y55.195 E64.77502
G0 F4320 X111.127 Y55.69
G1 F1800 X103.059 Y47.622 E65.21168
G0 F4320 X102.564 Y47.622
G1 F1800 X111.127 Y56.185 E65.67512
G0 F4320 X111.127 Y56.68
G1 F1800 X102.069 Y47.622 E66.16536
G0 F4320 X101.574 Y47.622
G1 F1800 X111.127 Y57.175 E66.68238
G0 F4320 X111.127 Y57.67
G1 F1800 X101.079 Y47.622 E67.2262
G0 F4320 X100.584 Y47.622
G1 F1800 X111.127 Y58.165 E67.79681
G0 F4320 X111.127 Y58.66
G1 F1800 X100.089 Y47.622 E68.3942
G0 F4320 X99.594 Y47.622
G1 F1800 X111.127 Y59.155 E69.01839
G0 F4320 X111.127 Y59.65
G1 F1800 X99.099 Y47.622 E69.66937
G0 F4320 X98.604 Y47.622
G1 F1800 X111.127 Y60.145 E70.34714
G0 F4320 X111.127 Y60.64
G1 F1800 X98.109 Y47.622 E71.0517
G0 F4320 X97.614 Y47.622
G1 F1800 X111.127 Y61.135 E71.78304
G0 F4320 X111.127 Y61.63
G1 F1800 X97.119 Y47.622 E72.54118
G0 F4320 X96.624 Y47.622
G1 F1800 X111.127 Y62.124 E73.32609
G0 F4320 X111.127 Y62.619
G1 F1800 X96.129 Y47.622 E74.13778
G0 F4320 X95.634 Y47.622
G1 F1800 X111.127 Y63.114 E74.97626
G0 F4320 X111.127 Y63.609
G1 F1800 X95.139 Y47.622 E75.84154
G0 F4320 X94.644 Y47.622
G1 F1800 X111.127 Y64.104 E76.7336
G0 F4320 X111.127 Y64.599
G1 F1800 X94.149 Y47.622 E77.65245
G0 F4320 X93.654 Y47.622
G1 F1800 X111.127 Y65.094 E78.5981
G0 F4320 X111.127 Y65.589
G1 F1800 X93.159 Y47.622 E79.57053
G0 F4320 X92.664 Y47.622
G1 F1800 X111.127 Y66.084 E80.56976
G0 F4320 X111.127 Y66.579
G1 F1800 X92.169 Y47.622 E81.59577
G0 F4320 X91.674 Y47.622
G1 F1800 X111.127 Y67.074 E82.64858
G0 F4320 X111.127 Y67.569
G1 F1800 X91.18 Y47.622 E83.72815
G0 F4320 X90.685 Y47.622
G1 F1800 X111.127 Y68.064 E84.83451
G0 F4320 X111.127 Y68.559
G1 F1800 X90.19 Y47.622 E85.96766
G0 F4320 X89.695 Y47.622
G1 F1800 X111.127 Y69.054 E87.1276
G0 F4320 X111.127 Y69.549
G1 F1800 X89.2 Y47.622 E88.31433
G0 F4320 X88.705 Y47.622
G1 F1800 X111.127 Y70.044 E89.52785
G0 F4320 X111.127 Y70.539
G1 F1800 X88.21 Y47.622 E90.76816
G0 F4320 X87.715 Y47.622
G1 F1800 X111.127 Y71.034 E92.03526
G0 F4320 X111.127 Y71.529
G1 F1800 X87.22 Y47.622 E93.32915
G0 F4320 X86.725 Y47.622
G1 F1800 X111.127 Y72.024 E94.64983
G0 F4320 X110.985 Y72.377
G1 F1800 X86.23 Y47.622 E95.98962
G0 F4320 X85.735 Y47.622
G1 F1800 X110.49 Y72.377 E97.32941
G0 F4320 X109.995 Y72.377
G1 F1800 X85.24 Y47.622 E98.66919
G0 F4320 X84.745 Y47.622
G1 F1800 X109.5 Y72.377 E100.00898
G0 F4320 X109.005 Y72.377
G1 F1800 X84.25 Y47.622 E101.34877
G0 F4320 X83.755 Y47.622
G1 F1800 X108.51 Y72.377 E102.68856
G0 F4320 X108.015 Y72.377
G1 F1800 X83.26 Y47.622 E104.02834
G0 F4320 X82.765 Y47.622
G1 F1800 X107.52 Y72.377 E105.36813
G0 F4320 X107.025 Y72.377
G1 F1800 X82.27 Y47.622 E106.70792
G0 F4320 X81.775 Y47.622
G1 F1800 X106.53 Y72.377 E108.0477
G0 F4320 X106.035 Y72.377
G1 F1800 X81.28 Y47.622 E109.38749
G0 F4320 X80.785 Y47.622
G1 F1800 X105.54 Y72.377 E110.72728
G0 F4320 X105.045 Y72.377
G1 F1800 X80.29 Y47.622 E112.06706
G0 F4320 X79.795 Y47.622
G1 F1800 X104.55 Y72.377 E113.40685
G0 F4320 X104.055 Y72.377
G1 F1800 X79.3 Y47.622 E114.74664
G0 F4320 X78.805 Y47.622
G1 F1800 X103.56 Y72.377 E116.08642
G0 F4320 X103.065 Y72.377
G1 F1800 X78.31 Y47.622 E117.42621
G0 F4320 X77.815 Y47.622
G1 F1800 X102.57 Y72.377 E118.766
G0 F4320 X102.075 Y72.377
G1 F1800 X77.32 Y47.622 E120.10579
G0 F4320 X76.825 Y47.622
G1 F1800 X101.58 Y72.377 E121.44557
G0 F4320 X101.085 Y72.377
G1 F1800 X76.33 Y47.622 E122.78536
G0 F4320 X75.835 Y47.622
G1 F1800 X100.59 Y72.377 E124.12515
G0 F4320 X100.095 Y72.377
G1 F1800 X75.34 Y47.622 E125.46493
G0 F4320 X74.845 Y47.622
G1 F1800 X99.6 Y72.377 E126.80472
G0 F4320 X99.105 Y72.377
G1 F1800 X74.35 Y47.622 E128.14451
G0 F4320 X73.855 Y47.622
G1 F1800 X98.61 Y72.377 E129.48429
G0 F4320 X98.116 Y72.377
G1 F1800 X73.36 Y47.622 E130.82411
G0 F4320 X72.865 Y47.622
G1 F1800 X97.621 Y72.377 E132.16392
G0 F4320 X97.126 Y72.377
G1 F1800 X72.37 Y47.622 E133.50374
G0 F4320 X71.875 Y47.622
G1 F1800 X96.631 Y72.377 E134.84355
G0 F4320 X96.136 Y72.377
G1 F1800 X71.381 Y47.622 E136.18334
G0 F4320 X70.886 Y47.622
G1 F1800 X95.641 Y72.377 E137.52312
G0 F4320 X95.146 Y72.377
G1 F1800 X70.391 Y47.622 E138.86291
G0 F4320 X69.896 Y47.622
G1 F1800 X94.651 Y72.377 E140.2027
G0 F4320 X94.156 Y72.377
G1 F1800 X69.401 Y47.622 E141.54248
G0 F4320 X68.906 Y47.622
G1 F1800 X93.661 Y72.377 E142.88227
G0 F4320 X93.166 Y72.377
G1 F1800 X68.411 Y47.622 E144.22206
G0 F4320 X67.916 Y47.622
G1 F1800 X92.671 Y72.377 E145.56185
G0 F4320 X92.176 Y72.377
G1 F1800 X67.421 Y47.622 E146.90163
G0 F4320 X66.926 Y47.622
G1 F1800 X91.681 Y72.377 E148.24142
G0 F4320 X91.186 Y72.377
G1 F1800 X66.431 Y47.622 E149.58121
G0 F4320 X65.936 Y47.622
G1 F1800 X90.691 Y72.377 E150.92099
G0 F4320 X90.196 Y72.377
G1 F1800 X65.441 Y47.622 E152.26078
G0 F4320 X64.946 Y47.622
G1 F1800 X89.701 Y72.377 E153.60057
G0 F4320 X89.206 Y72.377
G1 F1800 X64.451 Y47.622 E154.94035
G0 F4320 X63.956 Y47.622
G1 F1800 X88.711 Y72.377 E156.28014
G0 F4320 X88.216 Y72.377
G1 F1800 X63.461 Y47.622 E157.61993
G0 F4320 X62.966 Y47.622
G1 F1800 X87.721 Y72.377 E158.95972
G0 F4320 X87.226 Y72.377
G1 F1800 X62.471 Y47.622 E160.2995
G0 F4320 X61.976 Y47.622
G1 F1800 X86.731 Y72.377 E161.63929
G0 F4320 X86.236 Y72.377
G1 F1800 X61.481 Y47.622 E162.97908
G0 F4320 X60.986 Y47.622
G1 F1800 X85.741 Y72.377 E164.31886
G0 F4320 X85.246 Y72.377
G1 F1800 X60.491 Y47.622 E165.65865
G0 F4320 X59.996 Y47.622
G1 F1800 X84.751 Y72.377 E166.99844
G0 F4320 X84.256 Y72.377
G1 F1800 X59.501 Y47.622 E168.33822
G0 F4320 X59.006 Y47.622
G1 F1800 X83.761 Y72.377 E169.67801
G0 F4320 X83.266 Y72.377
G1 F1800 X58.511 Y47.622 E171.0178
G0 F4320 X58.016 Y47.622
G1 F1800 X82.771 Y72.377 E172.35758
G0 F4320 X82.276 Y72.377
G1 F1800 X57.521 Y47.622 E173.69737
G0 F4320 X57.026 Y47.622
G1 F1800 X81.781 Y72.377 E175.03716
G0 F4320 X81.286 Y72.377
G1 F1800 X56.531 Y47.622 E176.37695
G0 F4320 X56.036 Y47.622
G1 F1800 X80.791 Y72.377 E177.71673
G0 F4320 X80.296 Y72.377
G1 F1800 X55.541 Y47.622 E179.05652
G0 F4320 X55.046 Y47.622
G1 F1800 X79.801 Y72.377 E180.39631
G0 F4320 X79.306 Y72.377
G1 F1800 X54.551 Y47.622 E181.73609
G0 F4320 X54.056 Y47.622
G1 F1800 X78.812 Y72.377 E183.07591
G0 F4320 X78.317 Y72.377
G1 F1800 X53.561 Y47.622 E184.41572
G0 F4320 X53.066 Y47.622
G1 F1800 X77.822 Y72.377 E185.75554
G0 F4320 X77.327 Y72.377
G1 F1800 X52.571 Y47.622 E187.09535
G0 F4320 X52.077 Y47.622
G1 F1800 X76.832 Y72.377 E188.43514
G0 F4320 X76.337 Y72.377
G1 F1800 X51.582 Y47.622 E189.77492
G0 F4320 X51.087 Y47.622
G1 F1800 X75.842 Y72.377 E191.11471
G0 F4320 X75.347 Y72.377
G1 F1800 X50.592 Y47.622 E192.4545
G0 F4320 X50.097 Y47.622
G1 F1800 X74.852 Y72.377 E193.79428
G0 F4320 X74.357 Y72.377
G1 F1800 X49.602 Y47.622 E195.13407
G0 F4320 X49.107 Y47.622
G1 F1800 X73.862 Y72.377 E196.47386
G0 F4320 X73.367 Y72.377
G1 F1800 X48.612 Y47.622 E197.81364
G0 F4320 X48.117 Y47.622
G1 F1800 X72.872 Y72.377 E199.15343
G0 F4320 X72.377 Y72.377
G1 F1800 X47.622 Y47.622 E200.49322
G0 F4320 X47.127 Y47.622
G1 F1800 X71.882 Y72.377 E201.83301
G0 F4320 X71.387 Y72.377
G1 F1800 X46.632 Y47.622 E203.17279
G0 F4320 X46.137 Y47.622
G1 F1800 X70.892 Y72.377 E204.51258
G0 F4320 X70.397 Y72.377
G1 F1800 X45.642 Y47.622 E205.85237
G0 F4320 X45.147 Y47.622
G1 F1800 X69.902 Y72.377 E207.19215
G0 F4320 X69.407 Y72.377
G1 F1800 X44.652 Y47.622 E208.53194
G0 F4320 X44.157 Y47.622
G1 F1800 X68.912 Y72.377 E209.87173
G0 F4320 X68.417 Y72.377
G1 F1800 X43.662 Y47.622 E211.21151
G0 F4320 X43.167 Y47.622
G1 F1800 X67.922 Y72.377 E212.5513
G0 F4320 X67.427 Y72.377
G1 F1800 X42.672 Y47.622 E213.89109
G0 F4320 X42.177 Y47.622
G1 F1800 X66.932 Y72.377 E215.23088
G0 F4320 X66.437 Y72.377
G1 F1800 X41.682 Y47.622 E216.57066
G0 F4320 X41.187 Y47.622
G1 F1800 X65.942 Y72.377 E217.91045
G0 F4320 X65.447 Y72.377
G1 F1800 X40.692 Y47.622 E219.25024
G0 F4320 X40.197 Y47.622
G1 F1800 X64.952 Y72.377 E220.59002
G0 F4320 X64.457 Y72.377
G1 F1800 X39.702 Y47.622 E221.92981
G0 F4320 X39.207 Y47.622
G1 F1800 X63.962 Y72.377 E223.2696
G0 F4320 X63.467 Y72.377
G1 F1800 X38.712 Y47.622 E224.60938
G0 F4320 X38.217 Y47.622
G1 F1800 X62.972 Y72.377 E225.94917
G0 F4320 X62.477 Y72.377
G1 F1800 X37.722 Y47.622 E227.28896
G0 F4320 X37.227 Y47.622
G1 F1800 X61.982 Y72.377 E228.62874
G0 F4320 X61.487 Y72.377
G1 F1800 X36.732 Y47.622 E229.96853
G0 F4320 X36.237 Y47.622
G1 F1800 X60.992 Y72.377 E231.30832
G0 F4320 X60.497 Y72.377
G1 F1800 X35.742 Y47.622 E232.64811
G0 F4320 X35.247 Y47.622
G1 F1800 X60.002 Y72.377 E233.98789
G0 F4320 X59.507 Y72.377
G1 F1800 X34.752 Y47.622 E235.32768
G0 F4320 X34.257 Y47.622
G1 F1800 X59.013 Y72.377 E236.66749
G0 F4320 X58.518 Y72.377
G1 F1800 X33.762 Y47.622 E238.00731
G0 F4320 X33.267 Y47.622
G1 F1800 X58.023 Y72.377 E239.34712
G0 F4320 X57.528 Y72.377
G1 F1800 X32.772 Y47.622 E240.68694
G0 F4320 X32.278 Y47.622
G1 F1800 X57.033 Y72.377 E242.02672
G0 F4320 X56.538 Y72.377
G1 F1800 X31.783 Y47.622 E243.36651
G0 F4320 X31.288 Y47.622
G1 F1800 X56.043 Y72.377 E244.7063
G0 F4320 X55.548 Y72.377
G1 F1800 X30.793 Y47.622 E246.04608
G0 F4320 X30.298 Y47.622
G1 F1800 X55.053 Y72.377 E247.38587
G0 F4320 X54.558 Y72.377
G1 F1800 X29.803 Y47.622 E248.72566
G0 F4320 X29.308 Y47.622
G1 F1800 X54.063 Y72.377 E250.06544
G0 F4320 X53.568 Y72.377
G1 F1800 X28.813 Y47.622 E251.40523
G0 F4320 X28.318 Y47.622
G1 F1800 X53.073 Y72.377 E252.74502
G0 F4320 X52.578 Y72.377
G1 F1800 X27.823 Y47.622 E254.0848
G0 F4320 X27.328 Y47.622
G1 F1800 X52.083 Y72.377 E255.42459
G0 F4320 X51.588 Y72.377
G1 F1800 X26.833 Y47.622 E256.76438
G0 F4320 X26.338 Y47.622
G1 F1800 X51.093 Y72.377 E258.10417
G0 F4320 X50.598 Y72.377
G1 F1800 X25.843 Y47.622 E259.44395
G0 F4320 X25.348 Y47.622
G1 F1800 X50.103 Y72.377 E260.78374
G0 F4320 X49.608 Y72.377
G1 F1800 X24.853 Y47.622 E262.12353
G0 F4320 X24.358 Y47.622
G1 F1800 X49.113 Y72.377 E263.46331
G0 F4320 X48.618 Y72.377
G1 F1800 X23.863 Y47.622 E264.8031
G0 F4320 X23.368 Y47.622
G1 F1800 X48.123 Y72.377 E266.14289
G0 F4320 X47.628 Y72.377
G1 F1800 X22.873 Y47.622 E267.48267
G0 F4320 X22.378 Y47.622
G1 F1800 X47.133 Y72.377 E268.82246
G0 F4320 X46.638 Y72.377
G1 F1800 X21.883 Y47.622 E270.16225
G0 F4320 X21.388 Y47.622
G1 F1800 X46.143 Y72.377 E271.50204
G0 F4320 X45.648 Y72.377
G1 F1800 X20.893 Y47.622 E272.84182
G0 F4320 X20.398 Y47.622
G1 F1800 X45.153 Y72.377 E274.18161
G0 F4320 X44.658 Y72.377
G1 F1800 X19.903 Y47.622 E275.5214
G0 F4320 X19.408 Y47.622
G1 F1800 X44.163 Y72.377 E276.86118
