;FLAVOR:Marlin
;TIME:5440
;Filament used: 2.52596m
;Layer height: 0.13125
;MINX:20.356
;MINY:36.95
;MINZ:0.263
;MAXX:101.456
;MAXY:82.433
;MAXZ:24.891
;Generated with Cura_SteamEngine 4.6.1
M140 S65
M105
M190 S65
M104 S205
M105
M109 S205
M82 ;absolute extrusion mode
G21;(metric values)
G90;(absolute positioning)
M82;(set extruder to absolute mode)
M107;(start with the fan off)
G28;(Home the printer)
G92 E0;(Reset the extruder to 0)
G0 Z5 E5 F500;(Move up and prime the nozzle)
G0 X-1 Z0;(Move outside the printable area)
G1 Y60 E8 F500;(Draw a priming/wiping line to the rear)
G1 X-1;(Move a little closer to the print area)
G1 Y10 E16 F500;(draw more priming/wiping)
G1 E15 F250;(Small retract)
G92 E0;(Zero the extruder)
G92 E0
G92 E0
G1 F2400 E-2.5
;LAYER_COUNT:189
;LAYER:0
M107
G0 F4320 X22.95 Y37.657 Z0.263
;TYPE:SKIRT
G1 F2400 E0
G1 F1800 X23.517 Y37.368 E0.02436
G1 X24.116 Y37.152 E0.04872
G1 X24.738 Y37.013 E0.07311
G1 X25.534 Y36.95 E0.10367
G1 X96.278 Y36.95 E2.81104
G1 X96.914 Y36.99 E2.83543
G1 X97.539 Y37.109 E2.85978
G1 X98.145 Y37.306 E2.88416
G1 X98.721 Y37.577 E2.90853
G1 X99.259 Y37.918 E2.9329
G1 X99.867 Y38.436 E2.96347
G1 X100.391 Y39.017 E2.99341
G1 X100.749 Y39.544 E3.01779
G1 X101.038 Y40.111 E3.04215
G1 X101.254 Y40.71 E3.06652
G1 X101.393 Y41.332 E3.09091
G1 X101.456 Y42.128 E3.12147
G1 X101.456 Y77.255 E4.46577
G1 X101.416 Y77.891 E4.49016
G1 X101.297 Y78.516 E4.51451
G1 X101.1 Y79.122 E4.5389
G1 X100.829 Y79.698 E4.56326
G1 X100.488 Y80.236 E4.58764
G1 X99.97 Y80.844 E4.6182
G1 X99.389 Y81.368 E4.64815
G1 X98.862 Y81.726 E4.67253
G1 X98.295 Y82.015 E4.69688
G1 X97.696 Y82.231 E4.72125
G1 X97.074 Y82.37 E4.74564
G1 X96.278 Y82.433 E4.7762
G1 X25.534 Y82.433 E7.48357
G1 X24.898 Y82.393 E7.50796
G1 X24.273 Y82.274 E7.5323
G1 X23.667 Y82.077 E7.55669
G1 X23.091 Y81.806 E7.58105
G1 X22.553 Y81.465 E7.60543
G1 X21.945 Y80.947 E7.636
G1 X21.421 Y80.366 E7.66594
G1 X21.063 Y79.839 E7.69032
G1 X20.774 Y79.272 E7.71468
G1 X20.558 Y78.673 E7.73904
G1 X20.419 Y78.051 E7.76344
G1 X20.356 Y77.255 E7.79399
G1 X20.356 Y42.128 E9.1383
G1 X20.396 Y41.492 E9.16269
G1 X20.515 Y40.867 E9.18704
G1 X20.712 Y40.261 E9.21142
G1 X20.983 Y39.685 E9.23579
G1 X21.324 Y39.147 E9.26016
G1 X21.842 Y38.539 E9.29073
G1 X22.381 Y38.053 E9.3185
G0 F1620 X22.423 Y38.015
G0 X22.95 Y37.657
G0 F4320 X23.165 Y37.937
G1 F1800 X23.716 Y37.664 E9.34204
G1 X24.297 Y37.465 E9.36554
G1 X24.9 Y37.343 E9.38908
G1 X25.534 Y37.3 E9.4134
G1 X96.278 Y37.3 E12.12077
G1 X96.891 Y37.34 E12.14428
G1 X97.494 Y37.459 E12.1678
G1 X98.076 Y37.656 E12.19132
G1 X98.628 Y37.926 E12.21483
G1 X99.14 Y38.266 E12.23836
G1 X99.619 Y38.684 E12.26269
G1 X100.127 Y39.249 E12.29176
G1 X100.469 Y39.759 E12.31526
G1 X100.742 Y40.31 E12.3388
G1 X100.941 Y40.891 E12.3623
G1 X101.063 Y41.494 E12.38584
G1 X101.106 Y42.128 E12.41016
G1 X101.106 Y77.255 E13.75447
G1 X101.066 Y77.868 E13.77798
G1 X100.947 Y78.471 E13.8015
G1 X100.75 Y79.053 E13.82502
G1 X100.48 Y79.605 E13.84853
G1 X100.14 Y80.117 E13.87205
G1 X99.722 Y80.596 E13.89638
G1 X99.157 Y81.104 E13.92546
G1 X98.647 Y81.446 E13.94896
G1 X98.096 Y81.719 E13.97249
G1 X97.515 Y81.918 E13.996
G1 X96.912 Y82.04 E14.01954
G1 X96.278 Y82.083 E14.04386
G1 X25.534 Y82.083 E16.75123
G1 X24.921 Y82.043 E16.77474
G1 X24.318 Y81.924 E16.79826
G1 X23.736 Y81.727 E16.82177
G1 X23.184 Y81.457 E16.84529
G1 X22.672 Y81.117 E16.86881
G1 X22.193 Y80.699 E16.89314
G1 X21.685 Y80.134 E16.92222
G1 X21.343 Y79.624 E16.94572
G1 X21.07 Y79.073 E16.96925
G1 X20.871 Y78.492 E16.99276
G1 X20.749 Y77.889 E17.0163
G1 X20.706 Y77.255 E17.04062
G1 X20.706 Y42.128 E18.38493
G1 X20.746 Y41.515 E18.40844
G1 X20.865 Y40.912 E18.43196
G1 X21.062 Y40.33 E18.45547
G1 X21.332 Y39.778 E18.47899
G1 X21.672 Y39.266 E18.50251
G1 X22.09 Y38.787 E18.52684
G1 X22.596 Y38.332 E18.55288
G0 F1620 X22.655 Y38.279
G0 X23.165 Y37.937
G0 F4320 X23.38 Y38.217
G1 F1800 X23.913 Y37.962 E18.57549
G1 X24.475 Y37.78 E18.5981
G1 X25.057 Y37.676 E18.62073
G1 X25.534 Y37.65 E18.63901
G1 X96.278 Y37.65 E21.34638
G1 X96.868 Y37.69 E21.36901
G1 X97.447 Y37.809 E21.39163
G1 X98.005 Y38.005 E21.41426
G1 X98.531 Y38.275 E21.43689
G1 X99.016 Y38.613 E21.45952
G1 X99.475 Y39.034 E21.48335
G1 X99.863 Y39.48 E21.50597
G1 X100.189 Y39.974 E21.52863
G1 X100.444 Y40.507 E21.55124
G1 X100.626 Y41.069 E21.57384
G1 X100.73 Y41.651 E21.59647
G1 X100.756 Y42.128 E21.61475
G1 X100.756 Y77.255 E22.95906
G1 X100.716 Y77.845 E22.98169
G1 X100.597 Y78.424 E23.00431
G1 X100.401 Y78.982 E23.02695
G1 X100.131 Y79.508 E23.04957
G1 X99.793 Y79.993 E23.0722
G1 X99.372 Y80.452 E23.09603
G1 X98.926 Y80.84 E23.11866
G1 X98.432 Y81.166 E23.14131
G1 X97.899 Y81.421 E23.16392
G1 X97.337 Y81.603 E23.18653
G1 X96.755 Y81.707 E23.20915
G1 X96.278 Y81.733 E23.22743
G1 X25.534 Y81.733 E25.9348
G1 X24.944 Y81.693 E25.95743
G1 X24.365 Y81.574 E25.98006
G1 X23.807 Y81.378 E26.00269
G1 X23.281 Y81.108 E26.02532
G1 X22.796 Y80.77 E26.04794
G1 X22.337 Y80.349 E26.07178
G1 X21.949 Y79.903 E26.0944
G1 X21.623 Y79.409 E26.11705
G1 X21.368 Y78.876 E26.13966
G1 X21.186 Y78.314 E26.16227
G1 X21.082 Y77.732 E26.1849
G1 X21.056 Y77.255 E26.20318
G1 X21.056 Y42.128 E27.54749
G1 X21.096 Y41.538 E27.57012
G1 X21.215 Y40.959 E27.59274
G1 X21.411 Y40.401 E27.61537
G1 X21.681 Y39.875 E27.638
G1 X22.019 Y39.39 E27.66062
G1 X22.44 Y38.931 E27.68446
G1 X22.809 Y38.61 E27.70318
G0 F1620 X22.886 Y38.543
G0 X23.38 Y38.217
G0 F4320 X23.592 Y38.499
G1 F1800 X24.107 Y38.261 E27.72489
G1 X24.65 Y38.098 E27.74658
G1 X25.211 Y38.013 E27.7683
G1 X25.534 Y38 E27.78067
G1 X96.278 Y38 E30.48804
G1 X96.844 Y38.04 E30.50975
G1 X97.398 Y38.159 E30.53144
G1 X97.93 Y38.355 E30.55314
G1 X98.43 Y38.623 E30.57485
G1 X98.886 Y38.96 E30.59655
G1 X99.227 Y39.282 E30.6145
G1 X99.599 Y39.71 E30.6362
G1 X99.907 Y40.186 E30.65789
G1 X100.145 Y40.701 E30.67961
G1 X100.308 Y41.244 E30.7013
G1 X100.393 Y41.805 E30.72302
G1 X100.406 Y42.128 E30.73539
G1 X100.406 Y77.255 E32.0797
G1 X100.366 Y77.821 E32.10141
G1 X100.247 Y78.375 E32.1231
G1 X100.051 Y78.907 E32.14479
G1 X99.783 Y79.407 E32.1665
G1 X99.446 Y79.863 E32.1882
G1 X99.124 Y80.204 E32.20615
G1 X98.696 Y80.576 E32.22785
G1 X98.22 Y80.884 E32.24955
G1 X97.705 Y81.122 E32.27126
G1 X97.162 Y81.285 E32.29296
G1 X96.601 Y81.37 E32.31468
G1 X96.278 Y81.383 E32.32705
G1 X25.534 Y81.383 E35.03442
G1 X24.968 Y81.343 E35.05613
G1 X24.414 Y81.224 E35.07782
G1 X23.882 Y81.028 E35.09951
G1 X23.382 Y80.76 E35.12122
G1 X22.926 Y80.423 E35.14292
G1 X22.585 Y80.101 E35.16087
G1 X22.213 Y79.673 E35.18257
G1 X21.905 Y79.197 E35.20427
G1 X21.667 Y78.682 E35.22598
G1 X21.504 Y78.139 E35.24768
G1 X21.419 Y77.578 E35.26939
G1 X21.406 Y77.255 E35.28176
G1 X21.406 Y42.128 E36.62607
G1 X21.446 Y41.562 E36.64779
G1 X21.565 Y41.008 E36.66947
G1 X21.761 Y40.476 E36.69117
G1 X22.029 Y39.976 E36.71288
G1 X22.366 Y39.52 E36.73458
G1 X22.688 Y39.179 E36.75253
G1 X23.02 Y38.89 E36.76937
G0 F1620 X23.116 Y38.807
G0 X23.592 Y38.499
G0 F4320 X23.804 Y38.783
G1 F1800 X24.299 Y38.564 E36.79009
G1 X24.822 Y38.42 E36.81085
G1 X25.534 Y38.35 E36.83823
G1 X96.278 Y38.35 E39.5456
G1 X96.818 Y38.39 E39.56632
G1 X97.347 Y38.509 E39.58707
G1 X97.852 Y38.704 E39.60779
G1 X98.324 Y38.972 E39.62856
G1 X98.877 Y39.426 E39.65594
G1 X99.333 Y39.94 E39.68224
G1 X99.623 Y40.398 E39.70298
G1 X99.842 Y40.893 E39.7237
G1 X99.986 Y41.416 E39.74446
G1 X100.056 Y42.128 E39.77184
G1 X100.056 Y77.255 E41.11615
G1 X100.016 Y77.795 E41.13687
G1 X99.897 Y78.324 E41.15762
G1 X99.702 Y78.829 E41.17834
G1 X99.434 Y79.301 E41.19911
G1 X98.98 Y79.854 E41.22649
G1 X98.466 Y80.31 E41.25279
G1 X98.008 Y80.6 E41.27353
G1 X97.513 Y80.819 E41.29425
G1 X96.99 Y80.963 E41.31501
G1 X96.278 Y81.033 E41.34239
G1 X25.534 Y81.033 E44.04976
G1 X24.994 Y80.993 E44.07048
G1 X24.465 Y80.874 E44.09123
G1 X23.96 Y80.679 E44.11195
G1 X23.488 Y80.411 E44.13272
G1 X22.935 Y79.957 E44.1601
G1 X22.479 Y79.443 E44.1864
G1 X22.189 Y78.985 E44.20714
G1 X21.97 Y78.49 E44.22786
G1 X21.826 Y77.967 E44.24862
G1 X21.756 Y77.255 E44.276
G1 X21.756 Y42.128 E45.6203
G1 X21.796 Y41.588 E45.64103
G1 X21.915 Y41.059 E45.66178
G1 X22.11 Y40.554 E45.68249
G1 X22.378 Y40.082 E45.70327
G1 X22.832 Y39.529 E45.73065
G1 X23.233 Y39.173 E45.75117
G0 F1620 X23.346 Y39.073
G0 X23.804 Y38.783
G0 F4320 X24.013 Y39.068
G1 F1800 X24.488 Y38.869 E45.77088
G1 X24.989 Y38.745 E45.79063
G1 X25.534 Y38.7 E45.81156
G1 X96.278 Y38.7 E48.51893
G1 X96.792 Y38.74 E48.53866
G1 X97.293 Y38.859 E48.55836
G1 X97.77 Y39.054 E48.57808
G1 X98.212 Y39.32 E48.59783
G1 X98.629 Y39.674 E48.61876
G1 X99.067 Y40.168 E48.64403
G1 X99.338 Y40.607 E48.66377
G1 X99.537 Y41.082 E48.68348
G1 X99.661 Y41.583 E48.70323
G1 X99.706 Y42.128 E48.72416
G1 X99.706 Y77.255 E50.06847
G1 X99.666 Y77.769 E50.0882
G1 X99.547 Y78.27 E50.1079
G1 X99.352 Y78.747 E50.12763
G1 X99.086 Y79.189 E50.14737
G1 X98.732 Y79.606 E50.1683
G1 X98.238 Y80.044 E50.19357
G1 X97.799 Y80.315 E50.21331
G1 X97.324 Y80.514 E50.23302
G1 X96.823 Y80.638 E50.25277
G1 X96.278 Y80.683 E50.2737
G1 X25.534 Y80.683 E52.98107
G1 X25.02 Y80.643 E53.0008
G1 X24.519 Y80.524 E53.02051
G1 X24.042 Y80.329 E53.04023
G1 X23.6 Y80.063 E53.05997
G1 X23.183 Y79.709 E53.0809
G1 X22.745 Y79.215 E53.10617
G1 X22.474 Y78.776 E53.12591
G1 X22.275 Y78.301 E53.14562
G1 X22.151 Y77.8 E53.16537
G1 X22.106 Y77.255 E53.1863
G1 X22.106 Y42.128 E54.53061
G1 X22.146 Y41.614 E54.55034
G1 X22.265 Y41.113 E54.57005
G1 X22.46 Y40.636 E54.58977
G1 X22.726 Y40.194 E54.60951
G1 X23.08 Y39.777 E54.63044
G1 X23.441 Y39.457 E54.64891
G0 F1620 X23.574 Y39.339
G0 X24.013 Y39.068
G0 F4320 X24.22 Y39.356
G1 F1800 X24.674 Y39.177 E54.66758
G1 X25.15 Y39.075 E54.68621
G1 X25.534 Y39.05 E54.70094
G1 X96.278 Y39.05 E57.40831
G1 X96.764 Y39.09 E57.42697
G1 X97.237 Y39.209 E57.44564
G1 X97.684 Y39.403 E57.46428
G1 X98.093 Y39.668 E57.48294
G1 X98.485 Y40.024 E57.5032
G1 X98.8 Y40.396 E57.52186
G1 X99.05 Y40.814 E57.54049
G1 X99.229 Y41.268 E57.55917
G1 X99.331 Y41.744 E57.5778
G1 X99.356 Y42.128 E57.59253
G1 X99.356 Y77.255 E58.93684
G1 X99.316 Y77.741 E58.9555
G1 X99.197 Y78.214 E58.97416
G1 X99.003 Y78.661 E58.99281
G1 X98.738 Y79.07 E59.01146
G1 X98.382 Y79.462 E59.03173
G1 X98.01 Y79.777 E59.05038
G1 X97.592 Y80.027 E59.06902
G1 X97.138 Y80.206 E59.0877
G1 X96.662 Y80.308 E59.10633
G1 X96.278 Y80.333 E59.12106
G1 X25.534 Y80.333 E61.82842
G1 X25.048 Y80.293 E61.84709
G1 X24.575 Y80.174 E61.86575
G1 X24.128 Y79.98 E61.8844
G1 X23.719 Y79.715 E61.90305
G1 X23.327 Y79.359 E61.92332
G1 X23.012 Y78.987 E61.94197
G1 X22.762 Y78.569 E61.96061
G1 X22.583 Y78.115 E61.97929
G1 X22.481 Y77.639 E61.99792
G1 X22.456 Y77.255 E62.01264
G1 X22.456 Y42.128 E63.35695
G1 X22.496 Y41.642 E63.37561
G1 X22.615 Y41.169 E63.39428
G1 X22.809 Y40.722 E63.41293
G1 X23.074 Y40.313 E63.43158
G1 X23.43 Y39.921 E63.45184
G1 X23.644 Y39.739 E63.46259
G0 F1620 X23.802 Y39.606
G0 X24.22 Y39.356
G0 F4320 X24.029 Y39.875
G1 F1800 X24.425 Y39.646 E63.4801
G1 X24.855 Y39.489 E63.49762
G1 X25.534 Y39.4 E63.52383
G1 X96.278 Y39.4 E66.2312
G1 X96.734 Y39.44 E66.24871
G1 X97.176 Y39.558 E66.26622
G1 X97.591 Y39.752 E66.28375
G1 X98.134 Y40.169 E66.30995
G1 X98.531 Y40.623 E66.33304
G1 X98.76 Y41.019 E66.35054
G1 X98.917 Y41.449 E66.36806
G1 X99.006 Y42.128 E66.39427
G1 X99.006 Y77.255 E67.73858
G1 X98.966 Y77.711 E67.75609
G1 X98.848 Y78.153 E67.7736
G1 X98.654 Y78.568 E67.79113
G1 X98.237 Y79.111 E67.81734
G1 X97.783 Y79.508 E67.84042
G1 X97.387 Y79.737 E67.85792
G1 X96.957 Y79.894 E67.87544
G1 X96.278 Y79.983 E67.90165
G1 X25.534 Y79.983 E70.60902
G1 X25.078 Y79.943 E70.62654
G1 X24.636 Y79.825 E70.64404
G1 X24.221 Y79.631 E70.66157
G1 X23.678 Y79.214 E70.68778
G1 X23.281 Y78.76 E70.71086
G1 X23.052 Y78.364 E70.72836
G1 X22.895 Y77.934 E70.74588
G1 X22.806 Y77.255 E70.77209
G1 X22.806 Y42.128 E72.1164
G1 X22.846 Y41.672 E72.13392
G1 X22.964 Y41.23 E72.15142
G1 X23.158 Y40.815 E72.16895
G1 X23.52 Y40.344 E72.19169
G0 F1620 X23.575 Y40.272
G0 X24.029 Y39.875
G0 F4320 X24.254 Y40.145
G1 F1800 X24.627 Y39.939 E72.208
G1 X25.032 Y39.806 E72.22431
G1 X25.534 Y39.75 E72.24364
G1 X96.278 Y39.75 E74.95101
G1 X96.702 Y39.79 E74.96731
G1 X97.112 Y39.908 E74.98364
G1 X97.492 Y40.101 E74.99995
G1 X97.887 Y40.416 E75.01928
G1 X98.261 Y40.848 E75.04115
G1 X98.467 Y41.221 E75.05746
G1 X98.6 Y41.626 E75.07377
G1 X98.656 Y42.128 E75.0931
G1 X98.656 Y77.255 E76.43741
G1 X98.616 Y77.679 E76.45371
G1 X98.498 Y78.089 E76.47003
G1 X98.305 Y78.469 E76.48634
G1 X97.99 Y78.864 E76.50568
G1 X97.558 Y79.238 E76.52755
G1 X97.185 Y79.444 E76.54385
G1 X96.78 Y79.577 E76.56017
G1 X96.278 Y79.633 E76.5795
G1 X25.534 Y79.633 E79.28687
G1 X25.11 Y79.593 E79.30317
G1 X24.7 Y79.475 E79.31949
G1 X24.32 Y79.282 E79.3358
G1 X23.925 Y78.967 E79.35514
G1 X23.551 Y78.535 E79.37701
G1 X23.345 Y78.162 E79.39331
G1 X23.212 Y77.757 E79.40963
G1 X23.156 Y77.255 E79.42896
G1 X23.156 Y42.128 E80.77327
G1 X23.196 Y41.704 E80.78956
G1 X23.314 Y41.294 E80.80589
G1 X23.507 Y40.914 E80.8222
G1 X23.746 Y40.615 E80.83685
G0 F1620 X23.822 Y40.519
G0 X24.254 Y40.145
G0 F4320 X24.477 Y40.416
G1 F1800 X24.824 Y40.236 E80.85181
G1 X25.202 Y40.129 E80.86685
G1 X25.534 Y40.1 E80.8796
G1 X96.278 Y40.1 E83.58697
G1 X96.668 Y40.14 E83.60197
G1 X97.042 Y40.258 E83.61698
G1 X97.384 Y40.449 E83.63197
G1 X97.742 Y40.767 E83.6503
G1 X97.99 Y41.071 E83.66531
G1 X98.17 Y41.418 E83.68027
G1 X98.277 Y41.796 E83.69531
G1 X98.306 Y42.128 E83.70806
G1 X98.306 Y77.255 E85.05237
G1 X98.266 Y77.645 E85.06737
G1 X98.148 Y78.019 E85.08238
G1 X97.957 Y78.361 E85.09737
G1 X97.639 Y78.719 E85.1157
G1 X97.335 Y78.967 E85.13071
G1 X96.988 Y79.147 E85.14567
G1 X96.61 Y79.254 E85.16071
G1 X96.278 Y79.283 E85.17346
G1 X25.534 Y79.283 E87.88083
G1 X25.144 Y79.243 E87.89583
G1 X24.77 Y79.125 E87.91084
G1 X24.428 Y78.934 E87.92583
G1 X24.07 Y78.616 E87.94416
G1 X23.822 Y78.312 E87.95917
G1 X23.642 Y77.965 E87.97413
G1 X23.535 Y77.587 E87.98917
G1 X23.506 Y77.255 E88.00192
G1 X23.506 Y42.128 E89.34623
G1 X23.546 Y41.738 E89.36123
G1 X23.664 Y41.364 E89.37624
G1 X23.855 Y41.022 E89.39123
G1 X23.973 Y40.89 E89.39801
G0 F1620 X24.173 Y40.664
G0 X24.477 Y40.416
G0 F4320 X24.698 Y40.69
G1 F1800 X25.017 Y40.537 E89.41155
G1 X25.534 Y40.45 E89.43161
G1 X96.278 Y40.45 E92.13898
G1 X96.63 Y40.49 E92.15254
G1 X96.964 Y40.607 E92.16608
G1 X97.392 Y40.911 E92.18617
G1 X97.716 Y41.292 E92.20531
G1 X97.869 Y41.611 E92.21885
G1 X97.956 Y42.128 E92.23892
G1 X97.956 Y77.255 E93.58322
G1 X97.916 Y77.607 E93.59678
G1 X97.799 Y77.941 E93.61032
G1 X97.495 Y78.369 E93.63042
G1 X97.114 Y78.693 E93.64956
G1 X96.795 Y78.846 E93.6631
G1 X96.278 Y78.933 E93.68316
G1 X25.534 Y78.933 E96.39053
G1 X25.182 Y78.893 E96.40409
G1 X24.848 Y78.776 E96.41763
G1 X24.42 Y78.472 E96.43772
G1 X24.096 Y78.091 E96.45686
G1 X23.943 Y77.772 E96.4704
G1 X23.856 Y77.255 E96.49046
G1 X23.856 Y42.128 E97.83477
G1 X23.896 Y41.776 E97.84833
G1 X24.013 Y41.442 E97.86187
G1 X24.205 Y41.172 E97.87455
G0 F1620 X24.317 Y41.014
G0 X24.698 Y40.69
G0 F4320 X24.915 Y40.968
G1 F1800 X25.203 Y40.846 E97.88652
G1 X25.534 Y40.8 E97.89931
G1 X96.278 Y40.8 E100.60668
G1 X96.588 Y40.84 E100.61864
G1 X96.878 Y40.957 E100.63061
G1 X97.144 Y41.159 E100.64339
G1 X97.247 Y41.262 E100.64897
G1 X97.438 Y41.509 E100.66092
G1 X97.56 Y41.797 E100.67289
G1 X97.606 Y42.128 E100.68568
G1 X97.606 Y77.255 E102.02998
G1 X97.566 Y77.565 E102.04195
G1 X97.449 Y77.855 E102.05391
G1 X97.247 Y78.121 E102.0667
G1 X97.144 Y78.224 E102.07227
G1 X96.897 Y78.415 E102.08422
G1 X96.609 Y78.537 E102.09619
G1 X96.278 Y78.583 E102.10898
G1 X25.534 Y78.583 E104.81635
G1 X25.224 Y78.543 E104.82831
G1 X24.934 Y78.426 E104.84028
G1 X24.668 Y78.224 E104.85306
G1 X24.565 Y78.121 E104.85863
G1 X24.374 Y77.874 E104.87058
G1 X24.252 Y77.586 E104.88255
G1 X24.206 Y77.255 E104.89534
G1 X24.206 Y42.128 E106.23965
G1 X24.246 Y41.818 E106.25161
G1 X24.363 Y41.528 E106.26358
G1 X24.422 Y41.45 E106.26732
G0 F1620 X24.565 Y41.262
G0 X24.668 Y41.159
G0 X24.915 Y40.968
G0 F4320 X25.128 Y41.25
G1 F1800 X25.377 Y41.164 E106.2774
G1 X25.534 Y41.15 E106.28344
