;FLAVOR:Marlin
;TIME:10708
;Filament used: 4.85115m
;Layer height: 0.13125
;MINX:3.975
;MINY:20.975
;MINZ:0.263
;MAXX:116.025
;MAXY:99.025
;MAXZ:5.896
;Generated with Cura_SteamEngine 4.6.1
M140 S65
M105
M190 S65
M104 S205
M105
M109 S205
M82 ;absolute extrusion mode
G21;(metric values)
G90;(absolute positioning)
M82;(set extruder to absolute mode)
M107;(start with the fan off)
G28;(Home the printer)
G92 E0;(Reset the extruder to 0)
G0 Z5 E5 F500;(Move up and prime the nozzle)
G0 X-1 Z0;(Move outside the printable area)
G1 Y60 E8 F500;(Draw a priming/wiping line to the rear)
G1 X-1;(Move a little closer to the print area)
G1 Y10 E16 F500;(draw more priming/wiping)
G1 E15 F250;(Small retract)
G92 E0;(Zero the extruder)
G92 E0
G92 E0
G1 F2400 E-2.5
;LAYER_COUNT:44
;LAYER:0
M107
G0 F4320 X113.038 Y21.382 Z0.263
;TYPE:SKIRT
G1 F2400 E0
G1 F1800 X113.525 Y21.508 E0.01925
G1 X113.987 Y21.71 E0.03855
G1 X114.411 Y21.981 E0.05781
G1 X114.787 Y22.317 E0.0771
G1 X115.105 Y22.707 E0.09636
G1 X115.357 Y23.143 E0.11563
G1 X115.537 Y23.613 E0.13489
G1 X115.64 Y24.106 E0.15417
G1 X115.674 Y24.741 E0.17851
G1 X115.675 Y53.818 E1.29128
G1 X115.665 Y54.535 E1.31872
G1 X115.618 Y55.037 E1.33802
G1 X115.492 Y55.524 E1.35727
G1 X115.291 Y55.986 E1.37655
G1 X115.019 Y56.41 E1.39583
G1 X114.684 Y56.786 E1.4151
G1 X114.203 Y57.164 E1.43851
G1 X113.392 Y57.684 E1.47538
G1 X111.061 Y59.215 E1.58211
G1 X108.821 Y60.779 E1.68666
G1 X106.617 Y62.411 E1.79162
G1 X104.457 Y64.108 E1.89674
G1 X102.364 Y65.851 E2.00098
G1 X100.326 Y67.648 E2.10496
G1 X98.294 Y69.544 E2.21132
G1 X96.364 Y71.448 E2.31507
G1 X94.455 Y73.441 E2.42069
G1 X92.626 Y75.465 E2.52509
G1 X90.841 Y77.555 E2.63027
G1 X89.137 Y79.667 E2.73413
G1 X87.463 Y81.87 E2.84001
G1 X85.877 Y84.081 E2.94415
G1 X84.335 Y86.365 E3.04961
G1 X82.873 Y88.671 E3.1541
G1 X81.495 Y90.982 E3.25707
G1 X80.129 Y93.43 E3.36436
G1 X78.862 Y95.861 E3.46927
G1 X78.333 Y96.911 E3.51426
G1 X78.071 Y97.342 E3.53357
G1 X77.745 Y97.725 E3.55282
G1 X77.362 Y98.052 E3.57209
G1 X76.932 Y98.315 E3.59138
G1 X76.466 Y98.506 E3.61065
G1 X75.976 Y98.621 E3.62991
G1 X75.344 Y98.67 E3.65417
G1 X41.16 Y98.675 E4.96239
G1 X40.479 Y98.665 E4.98846
G1 X39.978 Y98.617 E5.00772
G1 X39.49 Y98.491 E5.02701
G1 X39.029 Y98.29 E5.04625
G1 X38.605 Y98.018 E5.06553
G1 X38.23 Y97.682 E5.0848
G1 X38.108 Y97.561 E5.09138
G1 X37.807 Y97.157 E5.11066
G1 X37.605 Y96.78 E5.12703
G1 X37.039 Y95.53 E5.17954
G1 X35.874 Y93.052 E5.28433
G1 X34.637 Y90.603 E5.38933
G1 X33.346 Y88.217 E5.49315
G1 X31.968 Y85.834 E5.5985
G1 X30.518 Y83.485 E5.70414
G1 X29.026 Y81.211 E5.80823
G1 X27.458 Y78.964 E5.91309
G1 X25.826 Y76.759 E6.01807
G1 X24.147 Y74.62 E6.12214
G1 X22.387 Y72.505 E6.22744
G1 X20.555 Y70.428 E6.33343
G1 X18.713 Y68.451 E6.43684
G1 X16.792 Y66.505 E6.54148
G1 X14.813 Y64.611 E6.64632
G1 X12.76 Y62.752 E6.75231
G1 X10.682 Y60.977 E6.8569
G1 X8.573 Y59.275 E6.96061
G1 X6.372 Y57.601 E7.06644
G1 X5.624 Y57.049 E7.10201
G1 X5.244 Y56.718 E7.1213
G1 X4.92 Y56.332 E7.14059
G1 X4.662 Y55.9 E7.15984
G1 X4.476 Y55.432 E7.17912
G1 X4.366 Y54.941 E7.19837
G1 X4.326 Y54.258 E7.22456
G1 X4.325 Y25.131 E8.33925
G1 X4.334 Y24.466 E8.3647
G1 X4.381 Y23.965 E8.38395
G1 X4.506 Y23.477 E8.40323
G1 X4.707 Y23.015 E8.42251
G1 X4.979 Y22.591 E8.44179
G1 X5.314 Y22.215 E8.46107
G1 X5.704 Y21.897 E8.48032
G1 X6.14 Y21.644 E8.49961
G1 X6.61 Y21.464 E8.51888
G1 X7.103 Y21.36 E8.53816
G1 X7.741 Y21.326 E8.56261
G1 X111.838 Y21.325 E12.54639
G1 X112.346 Y21.333 E12.56584
G0 F1620 X112.536 Y21.335
G0 X113.038 Y21.382
G0 F4320 X113.07 Y21.033
G1 F1800 X113.585 Y21.159 E12.58613
G1 X114.076 Y21.361 E12.60645
G1 X114.531 Y21.635 E12.62677
G1 X114.939 Y21.974 E12.64707
G1 X115.292 Y22.37 E12.66738
G1 X115.582 Y22.815 E12.6877
G1 X115.801 Y23.298 E12.708
G1 X115.946 Y23.809 E12.72833
G1 X116.015 Y24.411 E12.75152
G1 X116.025 Y53.823 E13.87711
G1 X116.015 Y54.54 E13.90455
G1 X115.967 Y55.069 E13.92488
G1 X115.841 Y55.584 E13.94517
G1 X115.639 Y56.075 E13.96549
G1 X115.366 Y56.53 E13.9858
G1 X115.027 Y56.938 E14.0061
G1 X114.631 Y57.291 E14.0264
G1 X111.267 Y59.498 E14.18037
G1 X109.037 Y61.055 E14.28446
G1 X106.814 Y62.701 E14.39032
G1 X104.687 Y64.372 E14.49383
G1 X102.609 Y66.102 E14.59731
G1 X100.53 Y67.936 E14.70341
G1 X98.548 Y69.784 E14.80711
G1 X96.616 Y71.692 E14.91103
G1 X94.72 Y73.671 E15.01591
G1 X92.889 Y75.696 E15.12039
G1 X91.115 Y77.774 E15.22496
G1 X89.392 Y79.91 E15.32998
G1 X87.763 Y82.052 E15.43297
G1 X86.155 Y84.295 E15.53859
G1 X84.64 Y86.538 E15.64217
G1 X83.163 Y88.868 E15.74775
G1 X81.773 Y91.2 E15.85164
G1 X80.454 Y93.564 E15.95524
G1 X79.195 Y95.98 E16.0595
G1 X78.646 Y97.069 E16.10618
G1 X78.372 Y97.523 E16.12647
G1 X78.033 Y97.932 E16.1468
G1 X77.636 Y98.284 E16.16711
G1 X77.191 Y98.574 E16.18743
G1 X76.708 Y98.793 E16.20773
G1 X76.197 Y98.937 E16.22805
G1 X75.691 Y99.002 E16.24757
G1 X75.17 Y99.025 E16.26753
G1 X41.155 Y99.025 E17.56928
G1 X40.474 Y99.015 E17.59534
G1 X39.946 Y98.967 E17.61563
G1 X39.43 Y98.84 E17.63597
G1 X38.94 Y98.638 E17.65625
G1 X38.485 Y98.364 E17.67658
G1 X38.094 Y98.039 E17.69604
G1 X38 Y97.958 E17.70079
G1 X37.655 Y97.555 E17.72109
G1 X37.286 Y96.924 E17.74906
G1 X36.741 Y95.72 E17.79964
G1 X35.564 Y93.217 E17.90549
G1 X34.322 Y90.757 E18.01096
G1 X33.032 Y88.374 E18.11466
G1 X31.664 Y86.007 E18.21928
G1 X30.219 Y83.665 E18.3246
G1 X28.743 Y81.417 E18.42752
G1 X27.186 Y79.186 E18.53163
G1 X25.549 Y76.973 E18.63698
G1 X23.865 Y74.829 E18.74131
G1 X22.104 Y72.712 E18.8467
G1 X20.319 Y70.688 E18.94997
G1 X18.455 Y68.689 E19.05457
G1 X16.548 Y66.757 E19.15846
G1 X14.565 Y64.857 E19.26356
G1 X12.548 Y63.032 E19.36766
G1 X10.462 Y61.251 E19.47263
G1 X8.351 Y59.546 E19.57648
G1 X6.123 Y57.852 E19.68359
G1 X5.416 Y57.33 E19.71722
G1 X5.014 Y56.984 E19.73752
G1 X4.668 Y56.581 E19.75785
G1 X4.387 Y56.131 E19.77815
G1 X4.177 Y55.644 E19.79845
G1 X4.042 Y55.131 E19.81875
G1 X3.985 Y54.592 E19.83949
G1 X3.975 Y25.126 E20.96715
G1 X3.984 Y24.461 E20.99261
G1 X4.031 Y23.933 E21.01289
G1 X4.157 Y23.417 E21.03322
G1 X4.359 Y22.926 E21.05354
G1 X4.632 Y22.472 E21.07381
G1 X4.971 Y22.063 E21.09414
G1 X5.367 Y21.71 E21.11444
G1 X5.811 Y21.42 E21.13474
G1 X6.294 Y21.2 E21.15505
G1 X6.805 Y21.055 E21.17538
G1 X7.41 Y20.985 E21.19869
G1 X111.843 Y20.975 E25.19533
G1 X112.378 Y20.983 E25.21581
G0 F1620 X112.541 Y20.985
G0 X113.07 Y21.033
G1 F2400 E22.71581
;MESH:prototype5_bottoms.stl
G0 F4320 X113.136 Y24.354
G0 X113.136 Y54.646
G0 X75.893 Y65.106
G0 X75.111 Y65.889
G0 X41.532 Y66.532
G0 X41.375 Y94.625
;TYPE:WALL-INNER
G1 F2400 E25.21581
G1 F1800 X41.375 Y66.375 E26.29693
G1 X74.625 Y66.375 E27.56941
G1 X74.625 Y94.625 E28.65054
G1 X42.069 Y94.625 E29.89645
G0 F1620 X41.375 Y94.625
G0 F4320 X41.025 Y94.975
G1 F1800 X41.025 Y66.025 E31.00437
G1 X74.975 Y66.025 E32.30363
G1 X74.975 Y94.975 E33.41155
G1 X41.719 Y94.975 E34.68425
G0 F1620 X41.025 Y94.975
G0 F4320 X40.7 Y95.3
;TYPE:WALL-OUTER
G1 F1800 X40.7 Y65.7 E35.81704
G1 X75.3 Y65.7 E37.14118
G1 X75.3 Y95.3 E38.27397
G1 X41.394 Y95.3 E39.57155
G0 F1620 X40.7 Y95.3
G0 F4320 X40.7 Y95.1
G0 X40.975 Y95.1
G0 X41.46 Y94.285
G0 X41.715 Y94.285
;TYPE:SKIN
G1 F1800 X41.715 Y66.715 E40.62666
G1 X74.285 Y66.715 E41.87311
G1 X74.285 Y94.285 E42.92821
G1 X42.409 Y94.285 E44.1481
G0 F1620 X41.715 Y94.285
G0 F4320 X42.154 Y94.127
G1 F1800 X41.872 Y93.844 E44.16339
G0 F4320 X41.872 Y93.349
G1 F1800 X42.649 Y94.127 E44.20547
G0 F4320 X43.144 Y94.127
G1 F1800 X41.872 Y92.854 E44.27434
G0 F4320 X41.872 Y92.359
G1 F1800 X43.639 Y94.127 E44.37
G0 F4320 X44.134 Y94.127
G1 F1800 X41.872 Y91.864 E44.49245
G0 F4320 X41.872 Y91.369
G1 F1800 X44.629 Y94.127 E44.64169
G0 F4320 X45.124 Y94.127
G1 F1800 X41.872 Y90.874 E44.81773
G0 F4320 X41.872 Y90.379
G1 F1800 X45.619 Y94.127 E45.02055
G0 F4320 X46.114 Y94.127
G1 F1800 X41.872 Y89.884 E45.25016
G0 F4320 X41.872 Y89.389
G1 F1800 X46.609 Y94.127 E45.50656
G0 F4320 X47.104 Y94.127
G1 F1800 X41.872 Y88.894 E45.78975
G0 F4320 X41.872 Y88.399
G1 F1800 X47.599 Y94.127 E46.09974
G0 F4320 X48.094 Y94.127
G1 F1800 X41.872 Y87.904 E46.43651
G0 F4320 X41.872 Y87.409
G1 F1800 X48.589 Y94.127 E46.80007
G0 F4320 X49.084 Y94.127
G1 F1800 X41.872 Y86.914 E47.19043
G0 F4320 X41.872 Y86.419
G1 F1800 X49.579 Y94.127 E47.60757
G0 F4320 X50.074 Y94.127
G1 F1800 X41.872 Y85.924 E48.05151
G0 F4320 X41.872 Y85.429
G1 F1800 X50.569 Y94.127 E48.52223
G0 F4320 X51.064 Y94.127
G1 F1800 X41.872 Y84.934 E49.01975
G0 F4320 X41.872 Y84.439
G1 F1800 X51.559 Y94.127 E49.54405
G0 F4320 X52.054 Y94.127
G1 F1800 X41.872 Y83.944 E50.09515
G0 F4320 X41.872 Y83.449
G1 F1800 X52.549 Y94.127 E50.67304
G0 F4320 X53.044 Y94.127
G1 F1800 X41.872 Y82.954 E51.27771
G0 F4320 X41.872 Y82.459
G1 F1800 X53.539 Y94.127 E51.90918
G0 F4320 X54.034 Y94.127
G1 F1800 X41.872 Y81.964 E52.56744
G0 F4320 X41.872 Y81.47
G1 F1800 X54.529 Y94.127 E53.25246
G0 F4320 X55.024 Y94.127
G1 F1800 X41.872 Y80.975 E53.96427
G0 F4320 X41.872 Y80.48
G1 F1800 X55.519 Y94.127 E54.70287
G0 F4320 X56.014 Y94.127
G1 F1800 X41.872 Y79.985 E55.46826
G0 F4320 X41.872 Y79.49
G1 F1800 X56.509 Y94.127 E56.26044
G0 F4320 X57.004 Y94.127
G1 F1800 X41.872 Y78.995 E57.07941
G0 F4320 X41.872 Y78.5
G1 F1800 X57.499 Y94.127 E57.92518
G0 F4320 X57.994 Y94.127
G1 F1800 X41.872 Y78.005 E58.79773
G0 F4320 X41.872 Y77.51
G1 F1800 X58.489 Y94.127 E59.69707
G0 F4320 X58.984 Y94.127
G1 F1800 X41.872 Y77.015 E60.62321
G0 F4320 X41.872 Y76.52
G1 F1800 X59.478 Y94.127 E61.5761
G0 F4320 X59.973 Y94.127
G1 F1800 X41.872 Y76.025 E62.55579
G0 F4320 X41.872 Y75.53
G1 F1800 X60.468 Y94.127 E63.56227
G0 F4320 X60.963 Y94.127
G1 F1800 X41.872 Y75.035 E64.59554
G0 F4320 X41.872 Y74.54
G1 F1800 X61.458 Y94.127 E65.65559
G0 F4320 X61.953 Y94.127
G1 F1800 X41.872 Y74.045 E66.74244
G0 F4320 X41.872 Y73.55
G1 F1800 X62.448 Y94.127 E67.85608
G0 F4320 X62.943 Y94.127
G1 F1800 X41.872 Y73.055 E68.99651
G0 F4320 X41.872 Y72.56
G1 F1800 X63.438 Y94.127 E70.16373
G0 F4320 X63.933 Y94.127
G1 F1800 X41.872 Y72.065 E71.35774
G0 F4320 X41.872 Y71.57
G1 F1800 X64.428 Y94.127 E72.57854
G0 F4320 X64.923 Y94.127
G1 F1800 X41.872 Y71.075 E73.82613
G0 F4320 X41.872 Y70.58
G1 F1800 X65.418 Y94.127 E75.10051
G0 F4320 X65.913 Y94.127
G1 F1800 X41.872 Y70.085 E76.40168
G0 F4320 X41.872 Y69.59
G1 F1800 X66.408 Y94.127 E77.72964
G0 F4320 X66.903 Y94.127
G1 F1800 X41.872 Y69.095 E79.08439
G0 F4320 X41.872 Y68.6
G1 F1800 X67.398 Y94.127 E80.46594
G0 F4320 X67.893 Y94.127
G1 F1800 X41.872 Y68.105 E81.87427
G0 F4320 X41.872 Y67.61
G1 F1800 X68.388 Y94.127 E83.30939
G0 F4320 X68.883 Y94.127
G1 F1800 X41.872 Y67.115 E84.7713
G0 F4320 X42.123 Y66.871
G1 F1800 X69.378 Y94.127 E86.24642
G0 F4320 X69.873 Y94.127
G1 F1800 X42.618 Y66.871 E87.72154
G0 F4320 X43.113 Y66.871
G1 F1800 X70.368 Y94.127 E89.19666
G0 F4320 X70.863 Y94.127
G1 F1800 X43.607 Y66.871 E90.67181
G0 F4320 X44.102 Y66.871
G1 F1800 X71.358 Y94.127 E92.14695
G0 F4320 X71.853 Y94.127
G1 F1800 X44.597 Y66.871 E93.6221
G0 F4320 X45.092 Y66.871
G1 F1800 X72.348 Y94.127 E95.09724
G0 F4320 X72.843 Y94.127
G1 F1800 X45.587 Y66.871 E96.57239
G0 F4320 X46.082 Y66.871
G1 F1800 X73.338 Y94.127 E98.04753
G0 F4320 X73.833 Y94.127
G1 F1800 X46.577 Y66.871 E99.52268
G0 F4320 X47.072 Y66.871
G1 F1800 X74.127 Y93.926 E100.98695
G0 F4320 X74.127 Y93.431
G1 F1800 X47.567 Y66.871 E102.42442
G0 F4320 X48.062 Y66.871
G1 F1800 X74.127 Y92.936 E103.83511
G0 F4320 X74.127 Y92.441
G1 F1800 X48.557 Y66.871 E105.21901
G0 F4320 X49.052 Y66.871
G1 F1800 X74.127 Y91.946 E106.57611
G0 F4320 X74.127 Y91.451
G1 F1800 X49.547 Y66.871 E107.90643
G0 F4320 X50.042 Y66.871
G1 F1800 X74.127 Y90.956 E109.20995
G0 F4320 X74.127 Y90.461
G1 F1800 X50.537 Y66.871 E110.48669
G0 F4320 X51.032 Y66.871
G1 F1800 X74.127 Y89.966 E111.73663
G0 F4320 X74.127 Y89.471
G1 F1800 X51.527 Y66.871 E112.95979
G0 F4320 X52.022 Y66.871
G1 F1800 X74.127 Y88.976 E114.15615
G0 F4320 X74.127 Y88.481
G1 F1800 X52.517 Y66.871 E115.32573
G0 F4320 X53.012 Y66.871
G1 F1800 X74.127 Y87.986 E116.46851
G0 F4320 X74.127 Y87.491
G1 F1800 X53.507 Y66.871 E117.5845
G0 F4320 X54.002 Y66.871
G1 F1800 X74.127 Y86.996 E118.6737
G0 F4320 X74.127 Y86.501
G1 F1800 X54.497 Y66.871 E119.73612
G0 F4320 X54.992 Y66.871
G1 F1800 X74.127 Y86.006 E120.77174
G0 F4320 X74.127 Y85.511
G1 F1800 X55.487 Y66.871 E121.78057
G0 F4320 X55.982 Y66.871
G1 F1800 X74.127 Y85.016 E122.76261
G0 F4320 X74.127 Y84.521
G1 F1800 X56.477 Y66.871 E123.71786
G0 F4320 X56.972 Y66.871
G1 F1800 X74.127 Y84.026 E124.64632
G0 F4320 X74.127 Y83.531
G1 F1800 X57.467 Y66.871 E125.54799
G0 F4320 X57.962 Y66.871
G1 F1800 X74.127 Y83.036 E126.42287
G0 F4320 X74.127 Y82.541
G1 F1800 X58.457 Y66.872 E127.27094
G0 F4320 X58.952 Y66.872
G1 F1800 X74.127 Y82.047 E128.09224
G0 F4320 X74.127 Y81.552
G1 F1800 X59.447 Y66.872 E128.88675
G0 F4320 X59.942 Y66.872
G1 F1800 X74.127 Y81.057 E129.65446
G0 F4320 X74.127 Y80.562
G1 F1800 X60.437 Y66.872 E130.39539
G0 F4320 X60.932 Y66.872
G1 F1800 X74.127 Y80.067 E131.10953
G0 F4320 X74.127 Y79.572
G1 F1800 X61.427 Y66.872 E131.79688
G0 F4320 X61.922 Y66.872
G1 F1800 X74.127 Y79.077 E132.45744
G0 F4320 X74.127 Y78.582
G1 F1800 X62.417 Y66.872 E133.0912
G0 F4320 X62.912 Y66.872
G1 F1800 X74.127 Y78.087 E133.69818
G0 F4320 X74.127 Y77.592
G1 F1800 X63.407 Y66.872 E134.27837
G0 F4320 X63.902 Y66.872
G1 F1800 X74.127 Y77.097 E134.83176
G0 F4320 X74.127 Y76.602
G1 F1800 X64.397 Y66.872 E135.35837
G0 F4320 X64.892 Y66.872
G1 F1800 X74.127 Y76.107 E135.85818
G0 F4320 X74.127 Y75.612
G1 F1800 X65.387 Y66.872 E136.33121
G0 F4320 X65.882 Y66.872
G1 F1800 X74.127 Y75.117 E136.77744
G0 F4320 X74.127 Y74.622
G1 F1800 X66.377 Y66.872 E137.19689
G0 F4320 X66.872 Y66.872
G1 F1800 X74.127 Y74.127 E137.58954
G0 F4320 X74.127 Y73.632
G1 F1800 X67.367 Y66.872 E137.95541
G0 F4320 X67.862 Y66.872
G1 F1800 X74.127 Y73.137 E138.29448
G0 F4320 X74.127 Y72.642
G1 F1800 X68.357 Y66.872 E138.60676
G0 F4320 X68.852 Y66.872
G1 F1800 X74.127 Y72.147 E138.89226
G0 F4320 X74.127 Y71.652
G1 F1800 X69.347 Y66.872 E139.15096
G0 F4320 X69.842 Y66.872
G1 F1800 X74.127 Y71.157 E139.38287
G0 F4320 X74.127 Y70.662
G1 F1800 X70.337 Y66.872 E139.58799
G0 F4320 X70.832 Y66.872
G1 F1800 X74.127 Y70.167 E139.76632
G0 F4320 X74.127 Y69.672
G1 F1800 X71.327 Y66.872 E139.91787
G0 F4320 X71.822 Y66.872
G1 F1800 X74.127 Y69.177 E140.04262
G0 F4320 X74.127 Y68.682
G1 F1800 X72.317 Y66.872 E140.14058
G0 F4320 X72.812 Y66.872
G1 F1800 X74.127 Y68.187 E140.21175
G0 F4320 X74.127 Y67.692
G1 F1800 X73.307 Y66.872 E140.25613
G0 F4320 X73.802 Y66.872
G1 F1800 X74.127 Y67.197 E140.27372
G0 F4320 X74.775 Y67.197
G1 F2400 E137.77372
G0 F4320 X74.468 Y66.532
G0 X40.889 Y65.889
G0 X40.889 Y64.86
G0 X40.889 Y55.14
G0 X40.889 Y54.105
G0 X8.375 Y53.625
;TYPE:WALL-INNER
G1 F2400 E140.27372
G1 F1800 X8.375 Y25.375 E141.35484
G1 X111.625 Y25.375 E145.30621
G1 X111.625 Y53.625 E146.38734
G1 X9.069 Y53.625 E150.31215
G0 F1620 X8.375 Y53.625
G0 F4320 X8.025 Y53.975
G1 F1800 X8.025 Y25.025 E151.42007
G1 X111.975 Y25.025 E155.39823
G1 X111.975 Y53.975 E156.50614
G1 X8.719 Y53.975 E160.45774
G0 F1620 X8.025 Y53.975
G0 F4320 X7.7 Y54.3
;TYPE:WALL-OUTER
G1 F1800 X7.7 Y24.7 E161.59053
G1 X112.3 Y24.7 E165.59357
G1 X112.3 Y54.3 E166.72636
G1 X8.394 Y54.3 E170.70284
G0 F1620 X7.7 Y54.3
G0 F4320 X7.7 Y54.1
G0 X7.975 Y54.1
G0 X8.46 Y53.285
G0 X8.715 Y53.285
;TYPE:SKIN
G1 F1800 X8.715 Y25.715 E171.75794
G1 X111.285 Y25.715 E175.68329
G1 X111.285 Y53.285 E176.73839
G1 X9.409 Y53.285 E180.63718
G0 F1620 X8.715 Y53.285
G0 F4320 X9.074 Y53.127
G1 F1800 X8.872 Y52.924 E180.64814
G0 F4320 X8.872 Y52.429
G1 F1800 X9.569 Y53.127 E180.68589
G0 F4320 X10.064 Y53.127
G1 F1800 X8.872 Y51.934 E180.75043
G0 F4320 X8.872 Y51.439
G1 F1800 X10.559 Y53.127 E180.84176
G0 F4320 X11.054 Y53.127
G1 F1800 X8.872 Y50.944 E180.95988
G0 F4320 X8.872 Y50.449
G1 F1800 X11.549 Y53.127 E181.10479
G0 F4320 X12.044 Y53.127
G1 F1800 X8.872 Y49.954 E181.27649
G0 F4320 X8.872 Y49.459
G1 F1800 X12.539 Y53.127 E181.47498
G0 F4320 X13.034 Y53.127
G1 F1800 X8.872 Y48.965 E181.70024
G0 F4320 X8.872 Y48.47
