;FLAVOR:Marlin
;TIME:8551
;Filament used: 4.30696m
;Layer height: 0.13125
;MINX:22.975
;MINY:39.625
;MINZ:0.263
;MAXX:97.025
;MAXY:80.375
;MAXZ:26.987
;Generated with Cura_SteamEngine 4.6.1
M140 S65
M105
M190 S65
M104 S205
M105
M109 S205
M82 ;absolute extrusion mode
G21;(metric values)
G90;(absolute positioning)
M82;(set extruder to absolute mode)
M107;(start with the fan off)
G28;(Home the printer)
G92 E0;(Reset the extruder to 0)
G0 Z5 E5 F500;(Move up and prime the nozzle)
G0 X-1 Z0;(Move outside the printable area)
G1 Y60 E8 F500;(Draw a priming/wiping line to the rear)
G1 X-1;(Move a little closer to the print area)
G1 Y10 E16 F500;(draw more priming/wiping)
G1 E15 F250;(Small retract)
G92 E0;(Zero the extruder)
G92 E0
G92 E0
G1 F2400 E-2.5
;LAYER_COUNT:205
;LAYER:0
M107
G0 F4320 X94.021 Y40.033 Z0.263
;TYPE:SKIRT
G1 F2400 E0
G1 F1800 X94.508 Y40.159 E0.01925
G1 X94.97 Y40.36 E0.03853
G1 X95.394 Y40.632 E0.05781
G1 X95.769 Y40.967 E0.07705
G1 X96.087 Y41.358 E0.09634
G1 X96.339 Y41.794 E0.11561
G1 X96.519 Y42.264 E0.13488
G1 X96.622 Y42.757 E0.15415
G1 X96.647 Y43.086 E0.16678
G1 X96.67 Y44.077 E0.20471
G1 X96.675 Y45.936 E0.27586
G1 X96.675 Y76.158 E1.43245
G1 X96.665 Y76.885 E1.46028
G1 X96.618 Y77.386 E1.47953
G1 X96.492 Y77.874 E1.49882
G1 X96.291 Y78.335 E1.51807
G1 X96.02 Y78.76 E1.53736
G1 X95.685 Y79.135 E1.5566
G1 X95.294 Y79.454 E1.57591
G1 X94.858 Y79.706 E1.59519
G1 X94.388 Y79.886 E1.61445
G1 X93.895 Y79.99 E1.63373
G1 X93.259 Y80.024 E1.6581
G1 X27.166 Y80.025 E4.18748
G1 X26.468 Y80.016 E4.21419
G1 X25.967 Y79.969 E4.23345
G1 X25.479 Y79.844 E4.25273
G1 X25.017 Y79.644 E4.272
G1 X24.593 Y79.372 E4.29127
G1 X24.216 Y79.038 E4.31055
G1 X23.898 Y78.647 E4.32984
G1 X23.645 Y78.212 E4.3491
G1 X23.464 Y77.742 E4.36837
G1 X23.36 Y77.249 E4.38765
G1 X23.326 Y76.594 E4.41275
G1 X23.325 Y43.781 E5.6685
G1 X23.334 Y43.116 E5.69396
G1 X23.381 Y42.615 E5.71321
G1 X23.506 Y42.127 E5.73249
G1 X23.707 Y41.665 E5.75177
G1 X23.979 Y41.241 E5.77105
G1 X24.314 Y40.865 E5.79032
G1 X24.704 Y40.547 E5.80958
G1 X25.14 Y40.294 E5.82887
G1 X25.61 Y40.114 E5.84814
G1 X26.103 Y40.01 E5.86742
G1 X26.741 Y39.976 E5.89187
G1 X92.833 Y39.975 E8.42121
G1 X93.329 Y39.983 E8.44019
G0 F1620 X93.519 Y39.985
G0 X94.021 Y40.033
G0 F4320 X94.053 Y39.683
G1 F1800 X94.568 Y39.809 E8.46048
G1 X95.059 Y40.012 E8.48081
G1 X95.513 Y40.286 E8.50111
G1 X95.922 Y40.624 E8.52141
G1 X96.275 Y41.021 E8.54174
G1 X96.564 Y41.466 E8.56205
G1 X96.783 Y41.949 E8.58235
G1 X96.928 Y42.459 E8.60264
G1 X96.997 Y43.078 E8.62647
G1 X97.02 Y44.069 E8.66441
G1 X97.025 Y45.935 E8.73582
G1 X97.025 Y76.162 E9.89261
G1 X97.015 Y76.889 E9.92043
G1 X96.967 Y77.418 E9.94076
G1 X96.841 Y77.934 E9.96109
G1 X96.639 Y78.424 E9.98137
G1 X96.366 Y78.879 E10.00168
G1 X96.028 Y79.288 E10.02198
G1 X95.632 Y79.641 E10.04228
G1 X95.187 Y79.931 E10.06261
G1 X94.704 Y80.15 E10.08291
G1 X94.193 Y80.295 E10.10323
G1 X93.589 Y80.365 E10.1265
G1 X27.162 Y80.375 E12.66866
G1 X26.464 Y80.366 E12.69538
G1 X25.935 Y80.319 E12.7157
G1 X25.419 Y80.193 E12.73603
G1 X24.928 Y79.992 E12.75633
G1 X24.473 Y79.719 E12.77664
G1 X24.064 Y79.381 E12.79694
G1 X23.711 Y78.985 E12.81725
G1 X23.421 Y78.541 E12.83754
G1 X23.201 Y78.058 E12.85785
G1 X23.055 Y77.547 E12.87819
G1 X22.985 Y76.936 E12.90173
G1 X22.975 Y43.776 E14.17076
G1 X22.984 Y43.111 E14.19621
G1 X23.031 Y42.583 E14.2165
G1 X23.157 Y42.067 E14.23682
G1 X23.359 Y41.576 E14.25714
G1 X23.632 Y41.122 E14.27742
G1 X23.971 Y40.713 E14.29775
G1 X24.367 Y40.36 E14.31805
G1 X24.811 Y40.07 E14.33834
G1 X25.294 Y39.85 E14.35866
G1 X25.805 Y39.705 E14.37898
G1 X26.41 Y39.635 E14.40229
G1 X92.838 Y39.625 E16.94449
G1 X93.361 Y39.633 E16.96451
G0 F1620 X93.524 Y39.635
G0 X94.053 Y39.683
G1 F2400 E14.46451
;MESH:prototype5_topright.stl
G0 F4320 X93.105 Y42.51
G0 X93.105 Y43.539
G0 X92.625 Y51.288
;TYPE:WALL-INNER
G1 F2400 E16.96451
G1 F1800 X92.625 Y68.043 E17.60572
G1 X92.625 Y75.975 E17.90928
G1 X27.375 Y75.975 E20.40639
G1 X27.375 Y44.025 E21.62911
G1 X92.621 Y44.025 E24.12607
G1 X92.625 Y46.145 E24.20721
G1 X92.625 Y50.594 E24.37747
G0 F1620 X92.625 Y51.288
G0 F4320 X91.96 Y67.571
G0 X66.676 Y68.043
G1 F1800 X92.432 Y68.043 E25.36315
G1 X92.432 Y51.288 E25.71673
G1 X66.676 Y51.288 E26.70241
G1 X66.676 Y67.349 E27.31707
G0 F1620 X66.676 Y68.043
G1 F2400 E24.81707
G0 F4320 X66.531 Y66.241
G0 X68.191 Y66.241
G0 X55.576 Y66.512
G0 X55.576 Y68.172
G0 X31.623 Y68.027
G1 F2400 E27.31707
G1 F1800 X57.378 Y68.027 E28.30271
G1 X57.378 Y51.272 E28.94392
G1 X31.623 Y51.272 E29.92957
G1 X31.623 Y67.333 E30.54422
G0 F1620 X31.623 Y68.027
G0 F4320 X31.973 Y67.677
G1 F1800 X57.028 Y67.677 E31.50307
G1 X57.028 Y51.622 E32.1175
G1 X31.973 Y51.622 E33.07635
G1 X31.973 Y66.983 E33.66421
G0 F1620 X31.973 Y67.677
G1 F2400 E31.16421
G0 F4320 X49.615 Y68.172
G0 X49.615 Y66.512
G0 X68.191 Y66.241
G0 X66.531 Y66.241
G0 X67.026 Y67.693
G1 F2400 E33.66421
G1 F1800 X92.082 Y67.693 E34.62311
G1 X92.082 Y51.638 E35.23753
G1 X67.026 Y51.638 E36.19642
G1 X67.026 Y66.999 E36.78429
G0 F1620 X67.026 Y67.693
G0 F4320 X92.468 Y68.2
G0 X92.975 Y76.325
G1 F1800 X27.025 Y76.325 E39.30819
G1 X27.025 Y43.675 E40.5577
G1 X92.97 Y43.675 E43.08141
G1 X92.975 Y46.144 E43.1759
G1 X92.975 Y75.631 E44.30437
G0 F1620 X92.975 Y76.325
G0 F4320 X93.3 Y76.65
;TYPE:WALL-OUTER
G1 F1800 X26.7 Y76.65 E46.85315
G1 X26.7 Y43.35 E48.12754
G1 X93.294 Y43.35 E50.67608
G1 X93.3 Y46.143 E50.78297
G1 X93.3 Y75.956 E51.92391
G0 F1620 X93.3 Y76.65
G0 F4320 X93.1 Y76.65
G0 X93.1 Y76.375
G0 X92.468 Y68.2
G0 X67.148 Y67.571
G0 X67.351 Y67.368
G1 F1800 X91.757 Y67.368 E52.85793
G1 X91.757 Y51.963 E53.44748
G1 X67.351 Y51.963 E54.3815
G1 X67.351 Y66.674 E54.94448
G0 F1620 X67.351 Y67.368
G0 F4320 X67.551 Y67.368
G1 F2400 E52.44448
G0 F4320 X67.551 Y67.643
G0 X66.491 Y67.352
G0 X68.179 Y66.54
G0 X55.875 Y66.524
G0 X57.543 Y67.352
G0 X32.095 Y67.555
G0 X32.298 Y67.352
G1 F2400 E54.94448
G1 F1800 X56.703 Y67.352 E55.87846
G1 X56.703 Y51.947 E56.46801
G1 X32.298 Y51.947 E57.40199
G1 X32.298 Y66.658 E57.96498
G0 F1620 X32.298 Y67.352
G0 F4320 X32.498 Y67.352
G0 X32.498 Y67.627
G0 X31.508 Y68.142
G0 X31.283 Y68.367
;TYPE:SKIN
G1 F1800 X57.718 Y68.367 E58.97664
G1 X57.718 Y50.932 E59.64388
G1 X31.283 Y50.932 E60.65555
G1 X31.283 Y67.673 E61.29622
G0 F1620 X31.283 Y68.367
G1 F2400 E58.79622
G0 F4320 X31.538 Y68.142
G0 X31.478 Y66.225
G0 X33.138 Y66.225
G0 X25.86 Y68.198
G0 X27.56 Y68.198
G0 X27.46 Y75.635
G0 X27.715 Y75.635
G1 F2400 E61.29622
G1 F1800 X27.715 Y44.365 E62.49292
G1 X92.281 Y44.365 E64.96386
G1 X92.285 Y46.145 E65.03198
G1 X92.285 Y50.948 E65.21579
G1 X66.336 Y50.948 E66.20886
G1 X66.336 Y68.383 E66.8761
G1 X92.285 Y68.383 E67.86916
G1 X92.285 Y75.635 E68.1467
G1 X28.409 Y75.635 E70.59123
G0 F1620 X27.715 Y75.635
G0 F4320 X27.959 Y75.477
G1 F1800 X27.872 Y75.389 E70.59596
G0 F4320 X27.872 Y74.894
G1 F1800 X28.454 Y75.477 E70.62749
G0 F4320 X28.949 Y75.477
G1 F1800 X27.872 Y74.399 E70.68581
G0 F4320 X27.872 Y73.904
G1 F1800 X29.444 Y75.477 E70.77091
G0 F4320 X29.939 Y75.477
G1 F1800 X27.872 Y73.409 E70.88281
G0 F4320 X27.872 Y72.914
G1 F1800 X30.434 Y75.477 E71.0215
G0 F4320 X30.929 Y75.477
G1 F1800 X27.872 Y72.419 E71.18697
G0 F4320 X27.872 Y71.924
G1 F1800 X31.424 Y75.477 E71.37924
G0 F4320 X31.919 Y75.477
G1 F1800 X27.872 Y71.429 E71.5983
G0 F4320 X27.872 Y70.934
G1 F1800 X32.414 Y75.477 E71.84415
G0 F4320 X32.909 Y75.477
G1 F1800 X27.872 Y70.439 E72.11679
G0 F4320 X27.872 Y69.944
G1 F1800 X33.404 Y75.477 E72.41622
G0 F4320 X33.899 Y75.477
G1 F1800 X27.872 Y69.449 E72.74244
G0 F4320 X27.872 Y68.954
G1 F1800 X34.394 Y75.477 E73.09545
G0 F4320 X34.889 Y75.477
G1 F1800 X27.872 Y68.459 E73.47525
G0 F4320 X27.872 Y67.964
G1 F1800 X35.384 Y75.477 E73.88184
G0 F4320 X35.879 Y75.477
G1 F1800 X27.872 Y67.47 E74.31519
G0 F4320 X27.872 Y66.975
G1 F1800 X36.374 Y75.477 E74.77534
G0 F4320 X36.869 Y75.477
G1 F1800 X27.872 Y66.48 E75.26227
G0 F4320 X27.872 Y65.985
G1 F1800 X37.364 Y75.477 E75.77599
G0 F4320 X37.859 Y75.477
G1 F1800 X27.872 Y65.49 E76.31651
G0 F4320 X27.872 Y64.995
G1 F1800 X31.126 Y68.249 E76.49262
G0 F4320 X31.4 Y68.523
G1 F1800 X38.354 Y75.477 E76.86899
G0 F4320 X38.849 Y75.477
G1 F1800 X31.895 Y68.523 E77.24535
G0 F4320 X32.39 Y68.523
G1 F1800 X39.344 Y75.477 E77.62171
G0 F4320 X39.839 Y75.477
G1 F1800 X32.885 Y68.523 E77.99808
G0 F4320 X33.38 Y68.523
G1 F1800 X40.334 Y75.477 E78.37444
G0 F4320 X40.829 Y75.477
G1 F1800 X33.875 Y68.523 E78.7508
G0 F4320 X34.37 Y68.523
G1 F1800 X41.324 Y75.477 E79.12717
G0 F4320 X41.819 Y75.477
G1 F1800 X34.865 Y68.523 E79.50353
G0 F4320 X35.36 Y68.523
G1 F1800 X42.313 Y75.477 E79.87987
G0 F4320 X42.808 Y75.477
G1 F1800 X35.855 Y68.523 E80.2562
G0 F4320 X36.35 Y68.523
G1 F1800 X43.303 Y75.477 E80.63254
G0 F4320 X43.798 Y75.477
G1 F1800 X36.845 Y68.523 E81.00888
G0 F4320 X37.34 Y68.523
G1 F1800 X44.293 Y75.477 E81.38521
G0 F4320 X44.788 Y75.477
G1 F1800 X37.835 Y68.523 E81.76155
G0 F4320 X38.33 Y68.523
G1 F1800 X45.283 Y75.477 E82.13789
G0 F4320 X45.778 Y75.477
G1 F1800 X38.825 Y68.523 E82.51422
G0 F4320 X39.32 Y68.523
G1 F1800 X46.273 Y75.477 E82.89056
G0 F4320 X46.768 Y75.477
G1 F1800 X39.815 Y68.523 E83.26689
G0 F4320 X40.31 Y68.523
G1 F1800 X47.263 Y75.477 E83.64323
G0 F4320 X47.758 Y75.477
G1 F1800 X40.805 Y68.523 E84.01957
G0 F4320 X41.299 Y68.523
G1 F1800 X48.253 Y75.477 E84.39593
G0 F4320 X48.748 Y75.477
G1 F1800 X41.794 Y68.523 E84.77229
G0 F4320 X42.289 Y68.523
G1 F1800 X49.243 Y75.477 E85.14866
G0 F4320 X49.738 Y75.477
G1 F1800 X42.784 Y68.523 E85.52502
G0 F4320 X43.279 Y68.523
G1 F1800 X50.233 Y75.477 E85.90138
G0 F4320 X50.728 Y75.477
G1 F1800 X43.774 Y68.523 E86.27775
G0 F4320 X44.269 Y68.523
G1 F1800 X51.223 Y75.477 E86.65411
G0 F4320 X51.718 Y75.477
G1 F1800 X44.764 Y68.523 E87.03048
G0 F4320 X45.259 Y68.523
G1 F1800 X52.213 Y75.477 E87.40684
G0 F4320 X52.708 Y75.477
G1 F1800 X45.754 Y68.523 E87.7832
G0 F4320 X46.249 Y68.523
G1 F1800 X53.203 Y75.477 E88.15957
G0 F4320 X53.698 Y75.477
G1 F1800 X46.744 Y68.523 E88.53593
G0 F4320 X47.239 Y68.523
G1 F1800 X54.193 Y75.477 E88.91229
G0 F4320 X54.688 Y75.477
G1 F1800 X47.734 Y68.523 E89.28866
G0 F4320 X48.229 Y68.523
G1 F1800 X55.183 Y75.477 E89.66502
G0 F4320 X55.678 Y75.477
G1 F1800 X48.724 Y68.523 E90.04138
G0 F4320 X49.219 Y68.523
G1 F1800 X56.173 Y75.477 E90.41775
G0 F4320 X56.668 Y75.477
G1 F1800 X49.714 Y68.523 E90.79411
G0 F4320 X50.209 Y68.523
G1 F1800 X57.163 Y75.477 E91.17047
G0 F4320 X57.658 Y75.477
G1 F1800 X50.704 Y68.523 E91.54684
G0 F4320 X51.199 Y68.523
G1 F1800 X58.153 Y75.477 E91.9232
G0 F4320 X58.648 Y75.477
G1 F1800 X51.694 Y68.523 E92.29956
G0 F4320 X52.189 Y68.523
G1 F1800 X59.143 Y75.477 E92.67593
G0 F4320 X59.638 Y75.477
G1 F1800 X52.684 Y68.523 E93.05229
G0 F4320 X53.179 Y68.523
G1 F1800 X60.133 Y75.477 E93.42865
G0 F4320 X60.628 Y75.477
G1 F1800 X53.674 Y68.523 E93.80502
G0 F4320 X54.169 Y68.523
G1 F1800 X61.123 Y75.477 E94.18138
G0 F4320 X61.617 Y75.477
G1 F1800 X54.664 Y68.523 E94.55772
G0 F4320 X55.159 Y68.523
G1 F1800 X62.112 Y75.477 E94.93405
G0 F4320 X62.607 Y75.477
G1 F1800 X55.654 Y68.523 E95.31039
G0 F4320 X56.149 Y68.523
G1 F1800 X63.102 Y75.477 E95.68673
G0 F4320 X63.597 Y75.477
G1 F1800 X56.644 Y68.523 E96.06306
G0 F4320 X57.139 Y68.523
G1 F1800 X64.092 Y75.477 E96.4394
G0 F4320 X64.587 Y75.477
G1 F1800 X57.634 Y68.523 E96.81574
G0 F4320 X57.874 Y68.269
G1 F1800 X65.082 Y75.477 E97.20585
G0 F4320 X65.577 Y75.477
G1 F1800 X57.874 Y67.774 E97.62275
G0 F4320 X57.874 Y67.279
G1 F1800 X66.072 Y75.477 E98.06644
G0 F4320 X66.567 Y75.477
G1 F1800 X57.874 Y66.784 E98.53692
G0 F4320 X57.874 Y66.289
G1 F1800 X67.062 Y75.477 E99.03419
G0 F4320 X67.557 Y75.477
G1 F1800 X57.874 Y65.794 E99.55825
G0 F4320 X57.874 Y65.299
G1 F1800 X68.052 Y75.477 E100.10911
G0 F4320 X68.547 Y75.477
G1 F1800 X57.874 Y64.804 E100.68675
G0 F4320 X57.874 Y64.309
G1 F1800 X69.042 Y75.477 E101.29118
G0 F4320 X69.537 Y75.477
G1 F1800 X57.874 Y63.814 E101.92241
G0 F4320 X57.874 Y63.319
G1 F1800 X70.032 Y75.477 E102.58042
G0 F4320 X70.527 Y75.477
G1 F1800 X57.874 Y62.824 E103.26522
G0 F4320 X57.874 Y62.329
G1 F1800 X71.022 Y75.477 E103.97682
G0 F4320 X71.517 Y75.477
G1 F1800 X57.874 Y61.834 E104.7152
G0 F4320 X57.874 Y61.339
G1 F1800 X72.012 Y75.477 E105.48038
G0 F4320 X72.507 Y75.477
G1 F1800 X57.874 Y60.844 E106.27234
G0 F4320 X57.874 Y60.349
G1 F1800 X73.002 Y75.477 E107.0911
G0 F4320 X73.497 Y75.477
G1 F1800 X66.559 Y68.539 E107.4666
G0 F4320 X67.054 Y68.539
G1 F1800 X73.992 Y75.477 E107.84209
G0 F4320 X74.487 Y75.477
G1 F1800 X67.549 Y68.539 E108.21759
G0 F4320 X68.044 Y68.539
G1 F1800 X74.982 Y75.477 E108.59309
G0 F4320 X75.477 Y75.477
G1 F1800 X68.539 Y68.539 E108.96859
G0 F4320 X69.034 Y68.539
G1 F1800 X75.972 Y75.477 E109.34408
G0 F4320 X76.467 Y75.477
G1 F1800 X69.529 Y68.539 E109.71958
G0 F4320 X70.024 Y68.539
G1 F1800 X76.962 Y75.477 E110.09508
G0 F4320 X77.457 Y75.477
G1 F1800 X70.519 Y68.539 E110.47058
G0 F4320 X71.014 Y68.539
G1 F1800 X77.952 Y75.477 E110.84607
G0 F4320 X78.447 Y75.477
G1 F1800 X71.509 Y68.539 E111.22157
G0 F4320 X72.004 Y68.539
G1 F1800 X78.942 Y75.477 E111.59707
G0 F4320 X79.437 Y75.477
G1 F1800 X72.499 Y68.539 E111.97257
G0 F4320 X72.994 Y68.539
G1 F1800 X79.932 Y75.477 E112.34806
G0 F4320 X80.427 Y75.477
G1 F1800 X73.489 Y68.539 E112.72356
G0 F4320 X73.984 Y68.539
G1 F1800 X80.922 Y75.477 E113.09906
G0 F4320 X81.416 Y75.477
G1 F1800 X74.479 Y68.539 E113.47453
G0 F4320 X74.974 Y68.539
G1 F1800 X81.911 Y75.477 E113.85
G0 F4320 X82.406 Y75.477
G1 F1800 X75.469 Y68.539 E114.22547
G0 F4320 X75.964 Y68.539
G1 F1800 X82.901 Y75.477 E114.60094
G0 F4320 X83.396 Y75.477
G1 F1800 X76.459 Y68.539 E114.97641
G0 F4320 X76.954 Y68.539
G1 F1800 X83.891 Y75.477 E115.35188
G0 F4320 X84.386 Y75.477
G1 F1800 X77.449 Y68.539 E115.72735
G0 F4320 X77.944 Y68.539
G1 F1800 X84.881 Y75.477 E116.10282
G0 F4320 X85.376 Y75.477
G1 F1800 X78.439 Y68.539 E116.47829
G0 F4320 X78.934 Y68.539
G1 F1800 X85.871 Y75.477 E116.85376
G0 F4320 X86.366 Y75.477
G1 F1800 X79.429 Y68.539 E117.22924
G0 F4320 X79.924 Y68.539
G1 F1800 X86.861 Y75.477 E117.60471
G0 F4320 X87.356 Y75.477
G1 F1800 X80.419 Y68.539 E117.98018
G0 F4320 X80.914 Y68.539
G1 F1800 X87.851 Y75.477 E118.35565
G0 F4320 X88.346 Y75.477
G1 F1800 X81.409 Y68.539 E118.73112
G0 F4320 X81.904 Y68.539
G1 F1800 X88.841 Y75.477 E119.10659
G0 F4320 X89.336 Y75.477
G1 F1800 X82.399 Y68.539 E119.48206
G0 F4320 X82.894 Y68.539
G1 F1800 X89.831 Y75.477 E119.85753
G0 F4320 X90.326 Y75.477
G1 F1800 X83.389 Y68.539 E120.233
G0 F4320 X83.884 Y68.539
G1 F1800 X90.821 Y75.477 E120.60847
G0 F4320 X91.316 Y75.477
G1 F1800 X84.379 Y68.539 E120.98394
G0 F4320 X84.874 Y68.539
G1 F1800 X91.811 Y75.477 E121.35941
G0 F4320 X92.127 Y75.298
G1 F1800 X85.369 Y68.539 E121.72519
G0 F4320 X85.863 Y68.539
G1 F1800 X92.127 Y74.803 E122.06421
G0 F4320 X92.127 Y74.308
G1 F1800 X86.358 Y68.539 E122.37644
G0 F4320 X86.853 Y68.539
G1 F1800 X92.127 Y73.813 E122.66188
G0 F4320 X92.127 Y73.318
G1 F1800 X87.348 Y68.539 E122.92053
G0 F4320 X87.843 Y68.539
G1 F1800 X92.127 Y72.823 E123.15239
G0 F4320 X92.127 Y72.328
G1 F1800 X88.338 Y68.539 E123.35745
G0 F4320 X88.833 Y68.539
G1 F1800 X92.127 Y71.833 E123.53573
G0 F4320 X92.127 Y71.338
G1 F1800 X89.328 Y68.539 E123.68722
G0 F4320 X89.823 Y68.539
G1 F1800 X92.127 Y70.843 E123.81192
G0 F4320 X92.127 Y70.348
G1 F1800 X90.318 Y68.539 E123.90982
G0 F4320 X90.813 Y68.539
G1 F1800 X92.127 Y69.853 E123.98094
G0 F4320 X92.127 Y69.358
G1 F1800 X91.308 Y68.539 E124.02526
G0 F4320 X91.803 Y68.539
G1 F1800 X92.127 Y68.863 E124.0428
G0 F4320 X92.54 Y68.863
G0 X91.96 Y51.76
G0 X91.873 Y50.79
G1 F1800 X85.605 Y44.522 E124.38204
G0 F4320 X85.11 Y44.522
G1 F1800 X91.378 Y50.79 E124.72127
G0 F4320 X90.883 Y50.79
G1 F1800 X84.615 Y44.522 E125.06051
G0 F4320 X84.12 Y44.522
G1 F1800 X90.388 Y50.79 E125.39974
G0 F4320 X89.893 Y50.79
G1 F1800 X83.625 Y44.522 E125.73898
G0 F4320 X83.13 Y44.522
G1 F1800 X89.398 Y50.79 E126.07822
G0 F4320 X88.903 Y50.79
G1 F1800 X82.635 Y44.522 E126.41745
G0 F4320 X82.14 Y44.522
G1 F1800 X88.408 Y50.79 E126.75669
