;FLAVOR:Marlin
;TIME:8714
;Filament used: 4.36792m
;Layer height: 0.13125
;MINX:22.725
;MINY:39.194
;MINZ:0.263
;MAXX:98.165
;MAXY:80.806
;MAXZ:26.987
;Generated with Cura_SteamEngine 4.6.1
M140 S65
M105
M190 S65
M104 S205
M105
M109 S205
M82 ;absolute extrusion mode
G21;(metric values)
G90;(absolute positioning)
M82;(set extruder to absolute mode)
M107;(start with the fan off)
G28;(Home the printer)
G92 E0;(Reset the extruder to 0)
G0 Z5 E5 F500;(Move up and prime the nozzle)
G0 X-1 Z0;(Move outside the printable area)
G1 Y60 E8 F500;(Draw a priming/wiping line to the rear)
G1 X-1;(Move a little closer to the print area)
G1 Y10 E16 F500;(draw more priming/wiping)
G1 E15 F250;(Small retract)
G92 E0;(Zero the extruder)
G92 E0
G92 E0
G1 F2400 E-2.5
;LAYER_COUNT:205
;LAYER:0
M107
G0 F4320 X94.288 Y39.601 Z0.263
;TYPE:SKIRT
G1 F2400 E0
G1 F1800 X94.775 Y39.727 E0.01925
G1 X95.237 Y39.929 E0.03855
G1 X95.685 Y40.219 E0.05897
G1 X96.528 Y40.872 E0.09978
G1 X96.901 Y41.211 E0.11907
G1 X97.215 Y41.605 E0.13835
G1 X97.463 Y42.043 E0.15761
G1 X97.638 Y42.515 E0.17688
G1 X97.737 Y43.009 E0.19616
G1 X97.767 Y43.602 E0.21888
G1 X97.768 Y46.836 E0.34265
G1 X97.758 Y47.533 E0.36932
G1 X97.7 Y48.238 E0.3964
G1 X97.481 Y50.181 E0.47123
G1 X97.247 Y52.926 E0.57666
G1 X97.093 Y55.644 E0.68084
G1 X97.015 Y58.397 E0.78624
G1 X97.015 Y61.116 E0.8903
G1 X97.093 Y63.87 E0.99573
G1 X97.247 Y66.587 E1.09988
G1 X97.483 Y69.364 E1.20654
G1 X97.63 Y70.743 E1.25961
G1 X97.786 Y72.105 E1.31208
G1 X97.816 Y72.714 E1.33541
G1 X97.815 Y76.01 E1.46155
G1 X97.806 Y76.703 E1.48807
G1 X97.759 Y77.204 E1.50733
G1 X97.633 Y77.692 E1.52662
G1 X97.432 Y78.154 E1.5459
G1 X97.161 Y78.578 E1.56516
G1 X96.825 Y78.954 E1.58446
G1 X96.486 Y79.236 E1.60133
G1 X96.022 Y79.57 E1.62321
G1 X95.502 Y79.913 E1.64705
G1 X95.06 Y80.154 E1.66632
G1 X94.585 Y80.322 E1.6856
G1 X93.893 Y80.427 E1.71238
G1 X93.211 Y80.454 E1.7385
G1 X26.912 Y80.456 E4.27576
G1 X26.214 Y80.446 E4.30248
G1 X25.712 Y80.399 E4.32177
G1 X25.225 Y80.273 E4.34103
G1 X24.763 Y80.071 E4.36032
G1 X24.339 Y79.8 E4.37958
G1 X23.963 Y79.464 E4.39888
G1 X23.645 Y79.074 E4.41814
G1 X23.393 Y78.638 E4.43741
G1 X23.213 Y78.168 E4.45667
G1 X23.11 Y77.675 E4.47594
G1 X23.076 Y77.025 E4.50085
G1 X23.075 Y43.943 E5.7669
G1 X23.085 Y43.24 E5.79381
G1 X23.132 Y42.738 E5.8131
G1 X23.258 Y42.251 E5.83235
G1 X23.459 Y41.789 E5.85163
G1 X23.877 Y41.187 E5.87968
G1 X24.26 Y40.752 E5.90186
G1 X24.437 Y40.56 E5.91186
G1 X24.809 Y40.221 E5.93112
G1 X25.23 Y39.944 E5.9504
G1 X25.689 Y39.738 E5.96966
G1 X26.176 Y39.607 E5.98896
G1 X26.669 Y39.554 E6.00793
G1 X93.088 Y39.544 E8.54978
G1 X93.596 Y39.552 E8.56923
G0 F1620 X93.786 Y39.554
G0 X94.288 Y39.601
G0 F4320 X94.32 Y39.252
G1 F1800 X94.835 Y39.378 E8.58952
G1 X95.326 Y39.58 E8.60984
G1 X95.9 Y39.942 E8.63581
G1 X96.743 Y40.595 E8.67662
G1 X97.137 Y40.951 E8.69694
G1 X97.473 Y41.362 E8.71725
G1 X97.743 Y41.818 E8.73753
G1 X97.942 Y42.31 E8.75784
G1 X98.065 Y42.826 E8.77815
G1 X98.117 Y43.592 E8.80753
G1 X98.118 Y46.841 E8.93187
G1 X98.108 Y47.538 E8.95854
G1 X98.049 Y48.272 E8.98672
G1 X97.826 Y50.247 E9.06279
G1 X97.596 Y52.943 E9.16634
G1 X97.443 Y55.636 E9.26957
G1 X97.365 Y58.407 E9.37565
G1 X97.365 Y61.106 E9.47894
G1 X97.443 Y63.877 E9.58503
G1 X97.596 Y66.57 E9.68826
G1 X97.828 Y69.295 E9.79292
G1 X97.978 Y70.703 E9.84711
G1 X98.134 Y72.065 E9.89958
G1 X98.165 Y72.704 E9.92406
G1 X98.165 Y76.01 E10.05058
G1 X98.156 Y76.708 E10.07729
G1 X98.108 Y77.236 E10.09758
G1 X97.982 Y77.752 E10.11791
G1 X97.78 Y78.242 E10.13819
G1 X97.507 Y78.697 E10.1585
G1 X97.168 Y79.106 E10.17883
G1 X96.69 Y79.52 E10.20303
G1 X96.226 Y79.854 E10.22491
G1 X95.693 Y80.206 E10.24936
G1 X95.228 Y80.462 E10.26967
G1 X94.73 Y80.645 E10.28997
G1 X94.21 Y80.751 E10.31028
G1 X93.224 Y80.803 E10.34807
G1 X26.907 Y80.806 E12.88602
G1 X26.209 Y80.796 E12.91273
G1 X25.68 Y80.748 E12.93306
G1 X25.165 Y80.622 E12.95335
G1 X24.674 Y80.42 E12.97367
G1 X24.219 Y80.146 E12.994
G1 X23.811 Y79.807 E13.0143
G1 X23.458 Y79.411 E13.0346
G1 X23.168 Y78.966 E13.05493
G1 X22.949 Y78.483 E13.07522
G1 X22.804 Y77.972 E13.09555
G1 X22.735 Y77.367 E13.11885
G1 X22.725 Y43.938 E14.39818
G1 X22.735 Y43.235 E14.42509
G1 X22.783 Y42.706 E14.44541
G1 X22.909 Y42.191 E14.4657
G1 X23.111 Y41.7 E14.48602
G1 X23.385 Y41.246 E14.50632
G1 X23.997 Y40.521 E14.54263
G1 X24.181 Y40.321 E14.55303
G1 X24.572 Y39.962 E14.57334
G1 X25.012 Y39.665 E14.59366
G1 X25.491 Y39.438 E14.61394
G1 X26 Y39.285 E14.63428
G1 X26.659 Y39.204 E14.65969
G1 X93.093 Y39.194 E17.20212
G1 X93.628 Y39.202 E17.22259
G0 F1620 X93.791 Y39.204
G0 X94.32 Y39.252
G0 F4320 X94.418 Y46.135
;TYPE:SUPPORT
G1 F1800 X94.418 Y47.38 E17.27024
G1 X94.1 Y47.51 E17.28339
G1 X94.1 Y46.454 E17.3238
G1 X94.322 Y46.231 E17.33584
G0 F1620 X94.418 Y46.135
G0 F4320 X94.1 Y72.431
G1 F1800 X94.467 Y72.584 E17.35106
G1 X94.466 Y73.913 E17.40192
G1 X94.1 Y73.546 E17.42176
G1 X94.1 Y72.65 E17.45605
G0 F1620 X94.1 Y72.431
G1 F2400 E14.95605
;MESH:prototype4_topright.stl
G0 F4320 X93.89 Y68.57
G0 X92.54 Y68.57
G0 X92.568 Y52.963
G0 X92.375 Y44.844
;TYPE:WALL-INNER
G1 F2400 E17.45605
G1 F1800 X92.375 Y52.403 E17.74533
G1 X67.372 Y52.403 E18.70219
G1 X67.372 Y69.158 E19.3434
G1 X92.375 Y69.158 E20.30027
G1 X92.375 Y74.229 E20.49434
G1 X92.389 Y75.156 E20.52982
G1 X92.875 Y75.156 E20.54841
G1 X92.875 Y76.406 E20.59625
G1 X27.125 Y76.406 E23.1125
G1 X27.125 Y44.156 E24.34671
G1 X27.625 Y44.156 E24.36584
G1 X27.625 Y43.594 E24.38735
G1 X92.875 Y43.594 E26.88446
G1 X92.875 Y44.65 E26.92488
G0 F1620 X92.875 Y44.844
G0 X92.375 Y44.844
G1 F2400 E24.42488
G0 F4320 X92.218 Y52.246
G0 X79.109 Y52.258
G0 X79.109 Y53.918
G0 X35.456 Y67.643
G0 X35.456 Y69.303
G0 X31.373 Y69.158
G1 F2400 E26.92488
G1 F1800 X57.128 Y69.158 E27.91052
G1 X57.128 Y52.403 E28.55173
G1 X31.373 Y52.403 E29.53737
G1 X31.373 Y68.464 E30.15203
G0 F1620 X31.373 Y69.158
G0 F4320 X31.723 Y68.808
G1 F1800 X56.778 Y68.808 E31.11088
G1 X56.778 Y52.753 E31.7253
G1 X31.723 Y52.753 E32.68416
G1 X31.723 Y68.114 E33.27202
G0 F1620 X31.723 Y68.808
G1 F2400 E30.77202
G0 F4320 X56.568 Y68.598
G0 X57.273 Y62.153
G0 X55.613 Y62.153
G0 X91.625 Y53.906
G0 X92.19 Y52.218
G0 X92.725 Y45.194
G1 F2400 E33.27202
G1 F1800 X92.725 Y52.753 E33.5613
G1 X67.722 Y52.753 E34.51817
G1 X67.722 Y68.808 E35.13259
G1 X92.725 Y68.808 E36.08946
G1 X92.725 Y74.226 E36.2968
G1 X92.734 Y74.806 E36.319
G1 X93.225 Y74.806 E36.33779
G1 X93.225 Y76.756 E36.41242
G1 X26.775 Y76.756 E38.95546
G1 X26.775 Y43.806 E40.21645
G1 X27.275 Y43.806 E40.23559
G1 X27.275 Y43.244 E40.25709
G1 X93.225 Y43.244 E42.781
G1 X93.225 Y45 E42.8482
G0 F1620 X93.225 Y45.194
G0 X92.725 Y45.194
G0 F4320 X93.05 Y45.519
;TYPE:WALL-OUTER
G1 F1800 X93.05 Y74.223 E43.9467
G1 X93.054 Y74.481 E43.95657
G1 X93.55 Y74.481 E43.97556
G1 X93.55 Y77.081 E44.07506
G1 X26.45 Y77.081 E46.64297
G1 X26.45 Y43.481 E47.92884
G1 X26.95 Y43.481 E47.94798
G1 X26.95 Y42.919 E47.96948
G1 X93.55 Y42.919 E50.51826
G1 X93.55 Y45.325 E50.61034
G0 F1620 X93.55 Y45.519
G0 X93.05 Y45.519
G0 F4320 X93.05 Y45.719
G0 X92.863 Y45.719
G0 X92.218 Y52.246
G0 X67.932 Y52.963
G0 X67.86 Y68.483
G0 X68.047 Y68.483
G1 F1800 X92.453 Y68.483 E51.54435
G1 X92.453 Y53.078 E52.1339
G1 X68.047 Y53.078 E53.06792
G1 X68.047 Y67.789 E53.63091
G0 F1620 X68.047 Y68.483
G0 F4320 X68.247 Y68.483
G1 F2400 E51.13091
G0 F4320 X68.247 Y68.67
G0 X67.227 Y67.356
G0 X68.887 Y67.356
G0 X55.625 Y67.655
G0 X57.293 Y68.483
G0 X56.568 Y68.598
G0 X31.933 Y68.598
G0 X32.048 Y68.483
G1 F2400 E53.63091
G1 F1800 X56.453 Y68.483 E54.56489
G1 X56.453 Y53.078 E55.15444
G1 X32.048 Y53.078 E56.08841
G1 X32.048 Y67.789 E56.6514
G0 F1620 X32.048 Y68.483
G0 F4320 X32.248 Y68.483
G0 X32.248 Y68.67
G0 X31.258 Y69.273
G0 X31.033 Y69.498
;TYPE:SKIN
G1 F1800 X57.468 Y69.498 E57.66307
G1 X57.468 Y52.063 E58.3303
G1 X31.033 Y52.063 E59.34197
G1 X31.033 Y68.804 E59.98265
G0 F1620 X31.033 Y69.498
G1 F2400 E57.48265
G0 F4320 X31.288 Y69.273
G0 X31.228 Y67.356
G0 X32.888 Y67.356
G0 X25.61 Y69.329
G0 X27.31 Y69.329
G0 X27.21 Y76.066
G0 X27.465 Y76.066
G1 F2400 E59.98265
G1 F1800 X27.465 Y44.496 E61.19083
G1 X27.965 Y44.496 E61.20996
G1 X27.965 Y43.934 E61.23147
G1 X92.535 Y43.934 E63.70256
G1 X92.535 Y44.504 E63.72438
G1 X92.035 Y44.504 E63.74351
G1 X92.035 Y52.063 E64.03279
G1 X67.032 Y52.063 E64.98966
G1 X67.032 Y69.498 E65.65689
G1 X92.035 Y69.498 E66.61376
G1 X92.035 Y74.231 E66.79489
G1 X92.055 Y75.496 E66.84331
G1 X92.535 Y75.496 E66.86168
G1 X92.535 Y76.066 E66.88349
G1 X28.159 Y76.066 E69.34716
G0 F1620 X27.465 Y76.066
G0 F4320 X27.896 Y75.908
G1 F1800 X27.621 Y75.634 E69.36201
G0 F4320 X27.621 Y75.139
G1 F1800 X28.391 Y75.908 E69.40366
G0 F4320 X28.886 Y75.908
G1 F1800 X27.621 Y74.644 E69.4721
G0 F4320 X27.621 Y74.149
G1 F1800 X29.38 Y75.908 E69.5673
G0 F4320 X29.875 Y75.908
G1 F1800 X27.621 Y73.654 E69.68929
G0 F4320 X27.621 Y73.159
G1 F1800 X30.37 Y75.908 E69.83807
G0 F4320 X30.865 Y75.908
G1 F1800 X27.621 Y72.664 E70.01364
G0 F4320 X27.621 Y72.169
G1 F1800 X31.36 Y75.908 E70.216
G0 F4320 X31.855 Y75.908
G1 F1800 X27.621 Y71.674 E70.44515
G0 F4320 X27.621 Y71.179
G1 F1800 X32.35 Y75.908 E70.7011
G0 F4320 X32.845 Y75.908
G1 F1800 X27.621 Y70.684 E70.98383
G0 F4320 X27.621 Y70.189
G1 F1800 X33.34 Y75.908 E71.29335
G0 F4320 X33.835 Y75.908
G1 F1800 X27.621 Y69.694 E71.62966
G0 F4320 X27.621 Y69.199
G1 F1800 X34.33 Y75.908 E71.99277
G0 F4320 X34.825 Y75.908
G1 F1800 X27.621 Y68.704 E72.38266
G0 F4320 X27.621 Y68.209
G1 F1800 X35.32 Y75.908 E72.79935
G0 F4320 X35.815 Y75.908
G1 F1800 X27.621 Y67.714 E73.24282
G0 F4320 X27.621 Y67.219
G1 F1800 X36.31 Y75.908 E73.71309
G0 F4320 X36.805 Y75.908
G1 F1800 X27.621 Y66.724 E74.21014
G0 F4320 X27.621 Y66.229
G1 F1800 X30.876 Y69.484 E74.38631
G0 F4320 X31.046 Y69.654
G1 F1800 X37.3 Y75.908 E74.72479
G0 F4320 X37.795 Y75.908
G1 F1800 X31.541 Y69.654 E75.06326
G0 F4320 X32.036 Y69.654
G1 F1800 X38.29 Y75.908 E75.40174
G0 F4320 X38.785 Y75.908
G1 F1800 X32.531 Y69.654 E75.74022
G0 F4320 X33.026 Y69.654
G1 F1800 X39.28 Y75.908 E76.0787
G0 F4320 X39.775 Y75.908
G1 F1800 X33.521 Y69.654 E76.41718
G0 F4320 X34.016 Y69.654
G1 F1800 X40.27 Y75.908 E76.75566
G0 F4320 X40.765 Y75.908
G1 F1800 X34.511 Y69.654 E77.09413
G0 F4320 X35.006 Y69.654
G1 F1800 X41.26 Y75.908 E77.43261
G0 F4320 X41.755 Y75.908
G1 F1800 X35.501 Y69.654 E77.77109
G0 F4320 X35.995 Y69.654
G1 F1800 X42.25 Y75.908 E78.1096
G0 F4320 X42.745 Y75.908
G1 F1800 X36.49 Y69.654 E78.4481
G0 F4320 X36.985 Y69.654
G1 F1800 X43.24 Y75.908 E78.78661
G0 F4320 X43.735 Y75.908
G1 F1800 X37.48 Y69.654 E79.12511
G0 F4320 X37.975 Y69.654
G1 F1800 X44.23 Y75.908 E79.46362
G0 F4320 X44.725 Y75.908
G1 F1800 X38.47 Y69.654 E79.80212
G0 F4320 X38.965 Y69.654
G1 F1800 X45.22 Y75.908 E80.14063
G0 F4320 X45.715 Y75.908
G1 F1800 X39.46 Y69.654 E80.47913
G0 F4320 X39.955 Y69.654
G1 F1800 X46.21 Y75.908 E80.81764
G0 F4320 X46.705 Y75.908
G1 F1800 X40.45 Y69.654 E81.15614
G0 F4320 X40.945 Y69.654
G1 F1800 X47.2 Y75.908 E81.49465
G0 F4320 X47.695 Y75.908
G1 F1800 X41.44 Y69.654 E81.83315
G0 F4320 X41.935 Y69.654
G1 F1800 X48.19 Y75.908 E82.17166
G0 F4320 X48.685 Y75.908
G1 F1800 X42.43 Y69.654 E82.51016
G0 F4320 X42.925 Y69.654
G1 F1800 X49.179 Y75.908 E82.84864
G0 F4320 X49.674 Y75.908
G1 F1800 X43.42 Y69.654 E83.18712
G0 F4320 X43.915 Y69.654
G1 F1800 X50.169 Y75.908 E83.5256
G0 F4320 X50.664 Y75.908
G1 F1800 X44.41 Y69.654 E83.86408
G0 F4320 X44.905 Y69.654
G1 F1800 X51.159 Y75.908 E84.20255
G0 F4320 X51.654 Y75.908
G1 F1800 X45.4 Y69.654 E84.54103
G0 F4320 X45.895 Y69.654
G1 F1800 X52.149 Y75.908 E84.87951
G0 F4320 X52.644 Y75.908
G1 F1800 X46.39 Y69.654 E85.21799
G0 F4320 X46.885 Y69.654
G1 F1800 X53.139 Y75.908 E85.55647
G0 F4320 X53.634 Y75.908
G1 F1800 X47.38 Y69.654 E85.89495
G0 F4320 X47.875 Y69.654
G1 F1800 X54.129 Y75.908 E86.23342
G0 F4320 X54.624 Y75.908
G1 F1800 X48.37 Y69.654 E86.5719
G0 F4320 X48.865 Y69.654
G1 F1800 X55.119 Y75.908 E86.91038
G0 F4320 X55.614 Y75.908
G1 F1800 X49.36 Y69.654 E87.24886
G0 F4320 X49.855 Y69.654
G1 F1800 X56.109 Y75.908 E87.58734
G0 F4320 X56.604 Y75.908
G1 F1800 X50.35 Y69.654 E87.92581
G0 F4320 X50.845 Y69.654
G1 F1800 X57.099 Y75.908 E88.26429
G0 F4320 X57.594 Y75.908
G1 F1800 X51.34 Y69.654 E88.60277
G0 F4320 X51.835 Y69.654
G1 F1800 X58.089 Y75.908 E88.94125
G0 F4320 X58.584 Y75.908
G1 F1800 X52.33 Y69.654 E89.27973
G0 F4320 X52.825 Y69.654
G1 F1800 X59.079 Y75.908 E89.61821
G0 F4320 X59.574 Y75.908
G1 F1800 X53.32 Y69.654 E89.95668
G0 F4320 X53.815 Y69.654
G1 F1800 X60.069 Y75.908 E90.29516
G0 F4320 X60.564 Y75.908
G1 F1800 X54.31 Y69.654 E90.63364
G0 F4320 X54.805 Y69.654
G1 F1800 X61.059 Y75.908 E90.97212
G0 F4320 X61.554 Y75.908
G1 F1800 X55.299 Y69.654 E91.31062
G0 F4320 X55.794 Y69.654
G1 F1800 X62.049 Y75.908 E91.64913
G0 F4320 X62.544 Y75.908
G1 F1800 X56.289 Y69.654 E91.98763
G0 F4320 X56.784 Y69.654
G1 F1800 X63.039 Y75.908 E92.32614
G0 F4320 X63.534 Y75.908
G1 F1800 X57.279 Y69.654 E92.66464
G0 F4320 X57.624 Y69.503
G1 F1800 X64.029 Y75.908 E93.0113
G0 F4320 X64.524 Y75.908
G1 F1800 X57.624 Y69.008 E93.38474
G0 F4320 X57.624 Y68.513
G1 F1800 X65.019 Y75.908 E93.78497
G0 F4320 X65.514 Y75.908
G1 F1800 X57.624 Y68.018 E94.21199
G0 F4320 X57.624 Y67.523
G1 F1800 X66.009 Y75.908 E94.6658
G0 F4320 X66.504 Y75.908
G1 F1800 X57.624 Y67.028 E95.1464
G0 F4320 X57.624 Y66.533
G1 F1800 X66.999 Y75.908 E95.6538
G0 F4320 X67.494 Y75.908
G1 F1800 X57.624 Y66.038 E96.18798
G0 F4320 X57.624 Y65.543
G1 F1800 X67.989 Y75.908 E96.74895
G0 F4320 X68.483 Y75.908
G1 F1800 X57.624 Y65.048 E97.33669
G0 F4320 X57.624 Y64.553
G1 F1800 X68.978 Y75.908 E97.95121
G0 F4320 X69.473 Y75.908
G1 F1800 X57.624 Y64.058 E98.59253
G0 F4320 X57.624 Y63.563
G1 F1800 X69.968 Y75.908 E99.26064
G0 F4320 X70.463 Y75.908
G1 F1800 X57.624 Y63.068 E99.95554
G0 F4320 X57.624 Y62.574
G1 F1800 X70.958 Y75.908 E100.6772
G0 F4320 X71.453 Y75.908
G1 F1800 X57.624 Y62.079 E101.42565
G0 F4320 X57.624 Y61.584
G1 F1800 X71.948 Y75.908 E102.20089
G0 F4320 X72.443 Y75.908
G1 F1800 X57.624 Y61.089 E103.00292
G0 F4320 X57.624 Y60.594
G1 F1800 X72.938 Y75.908 E103.83175
G0 F4320 X73.433 Y75.908
G1 F1800 X67.18 Y69.654 E104.1702
G0 F4320 X66.875 Y69.35
G1 F1800 X57.624 Y60.099 E104.67088
G0 F4320 X57.624 Y59.604
G1 F1800 X66.875 Y68.855 E105.17156
G0 F4320 X66.875 Y68.36
G1 F1800 X57.624 Y59.109 E105.67224
G0 F4320 X57.624 Y58.614
G1 F1800 X66.875 Y67.865 E106.17292
G0 F4320 X66.875 Y67.37
G1 F1800 X57.624 Y58.119 E106.6736
G0 F4320 X57.624 Y57.624
G1 F1800 X66.875 Y66.875 E107.17429
G0 F4320 X66.875 Y66.38
G1 F1800 X57.624 Y57.129 E107.67497
G0 F4320 X57.624 Y56.634
G1 F1800 X66.875 Y65.885 E108.17565
G0 F4320 X66.875 Y65.39
G1 F1800 X57.624 Y56.139 E108.67633
G0 F4320 X57.624 Y55.644
G1 F1800 X66.875 Y64.895 E109.17701
G0 F4320 X66.875 Y64.4
G1 F1800 X57.624 Y55.149 E109.67769
G0 F4320 X57.624 Y54.654
G1 F1800 X66.875 Y63.905 E110.17837
G0 F4320 X66.875 Y63.41
G1 F1800 X57.624 Y54.159 E110.67906
G0 F4320 X57.624 Y53.664
G1 F1800 X66.875 Y62.915 E111.17974
G0 F4320 X66.875 Y62.42
G1 F1800 X57.624 Y53.169 E111.68042
G0 F4320 X57.624 Y52.674
G1 F1800 X66.875 Y61.925 E112.1811
G0 F4320 X66.875 Y61.43
G1 F1800 X57.624 Y52.179 E112.68178
G0 F4320 X57.35 Y51.905
G1 F1800 X49.535 Y44.09 E113.10474
G0 F4320 X49.04 Y44.09
G1 F1800 X56.855 Y51.905 E113.52771
G0 F4320 X56.36 Y51.905
G1 F1800 X48.545 Y44.09 E113.95067
G0 F4320 X48.05 Y44.09
G1 F1800 X55.865 Y51.905 E114.37363
G0 F4320 X55.37 Y51.905
G1 F1800 X47.555 Y44.09 E114.79659
G0 F4320 X47.06 Y44.09
G1 F1800 X54.875 Y51.905 E115.21956
G0 F4320 X54.38 Y51.905
G1 F1800 X46.565 Y44.09 E115.64252
G0 F4320 X46.07 Y44.09
G1 F1800 X53.885 Y51.905 E116.06548
G0 F4320 X53.39 Y51.905
G1 F1800 X45.575 Y44.09 E116.48844
G0 F4320 X45.08 Y44.09
G1 F1800 X52.895 Y51.905 E116.91141
G0 F4320 X52.4 Y51.905
G1 F1800 X44.585 Y44.09 E117.33437
G0 F4320 X44.09 Y44.09
G1 F1800 X51.905 Y51.905 E117.75733
G0 F4320 X51.41 Y51.905
G1 F1800 X43.595 Y44.09 E118.18029
G0 F4320 X43.1 Y44.09
G1 F1800 X50.915 Y51.905 E118.60326
G0 F4320 X50.42 Y51.905
