;FLAVOR:Marlin
;TIME:16535
;Filament used: 9.00195m
;Layer height: 0.13125
;MINX:13.45
;MINY:11.515
;MINZ:0.263
;MAXX:106.55
;MAXY:97.615
;MAXZ:23.712
;Generated with Cura_SteamEngine 4.6.1
M140 S65
M105
M190 S65
M104 S205
M105
M109 S205
M82 ;absolute extrusion mode
G21;(metric values)
G90;(absolute positioning)
M82;(set extruder to absolute mode)
M107;(start with the fan off)
G28;(Home the printer)
G92 E0;(Reset the extruder to 0)
G0 Z5 E5 F500;(Move up and prime the nozzle)
G0 X-1 Z0;(Move outside the printable area)
G1 Y60 E8 F500;(Draw a priming/wiping line to the rear)
G1 X-1;(Move a little closer to the print area)
G1 Y10 E16 F500;(draw more priming/wiping)
G1 E15 F250;(Small retract)
G92 E0;(Zero the extruder)
G92 E0
G92 E0
G1 F2400 E-2.5
;LAYER_COUNT:180
;LAYER:0
M107
G0 F4320 X14.936 Y13.104 Z0.263
;TYPE:SKIRT
G1 F2400 E0
G1 F1800 X15.517 Y12.58 E0.02994
G1 X16.044 Y12.222 E0.05432
G1 X16.611 Y11.933 E0.07868
G1 X17.21 Y11.717 E0.10305
G1 X17.832 Y11.578 E0.12744
G1 X18.628 Y11.515 E0.158
G1 X101.372 Y11.515 E3.3246
G1 X102.008 Y11.555 E3.34899
G1 X102.633 Y11.674 E3.37334
G1 X103.239 Y11.871 E3.39773
G1 X103.815 Y12.142 E3.42209
G1 X104.353 Y12.483 E3.44647
G1 X104.961 Y13.001 E3.47703
G1 X105.485 Y13.582 E3.50698
G1 X105.843 Y14.109 E3.53136
G1 X106.132 Y14.676 E3.55571
G1 X106.348 Y15.275 E3.58008
G1 X106.487 Y15.897 E3.60447
G1 X106.55 Y16.693 E3.63503
G1 X106.55 Y53.437 E5.04122
G1 X106.51 Y54.073 E5.06561
G1 X106.415 Y54.573 E5.08509
G1 X106.487 Y54.897 E5.09779
G1 X106.55 Y55.693 E5.12835
G1 X106.55 Y92.437 E6.53454
G1 X106.51 Y93.073 E6.55892
G1 X106.391 Y93.698 E6.58327
G1 X106.194 Y94.304 E6.60766
G1 X105.923 Y94.88 E6.63202
G1 X105.582 Y95.418 E6.6564
G1 X105.064 Y96.026 E6.68696
G1 X104.483 Y96.55 E6.71691
G1 X103.956 Y96.908 E6.74129
G1 X103.389 Y97.197 E6.76564
G1 X102.79 Y97.413 E6.79001
G1 X102.168 Y97.552 E6.8144
G1 X101.372 Y97.615 E6.84496
G1 X27.628 Y97.615 E9.66714
G1 X26.992 Y97.575 E9.69153
G1 X26.367 Y97.456 E9.71588
G1 X25.761 Y97.259 E9.74026
G1 X25.185 Y96.988 E9.76462
G1 X24.647 Y96.647 E9.789
G1 X24.039 Y96.129 E9.81957
G1 X23.515 Y95.548 E9.84951
G1 X23.157 Y95.021 E9.87389
G1 X22.868 Y94.454 E9.89825
G1 X22.652 Y93.855 E9.92262
G1 X22.513 Y93.233 E9.94701
G1 X22.45 Y92.437 E9.97756
G1 X22.45 Y58.615 E11.27193
G1 X18.628 Y58.615 E11.4182
G1 X17.992 Y58.575 E11.44259
G1 X17.367 Y58.456 E11.46693
G1 X16.761 Y58.259 E11.49132
G1 X16.185 Y57.988 E11.51568
G1 X15.647 Y57.647 E11.54006
G1 X15.039 Y57.129 E11.57063
G1 X14.515 Y56.548 E11.60057
G1 X14.157 Y56.021 E11.62495
G1 X13.868 Y55.454 E11.64931
G1 X13.652 Y54.855 E11.67367
G1 X13.513 Y54.233 E11.69807
G1 X13.45 Y53.437 E11.72862
G1 X13.45 Y16.693 E13.13481
G1 X13.49 Y16.057 E13.1592
G1 X13.609 Y15.432 E13.18355
G1 X13.806 Y14.826 E13.20794
G1 X14.077 Y14.25 E13.2323
G1 X14.418 Y13.712 E13.25667
G1 X14.486 Y13.632 E13.26069
G0 F1620 X14.936 Y13.104
G0 F4320 X15.184 Y13.352
G1 F1800 X15.749 Y12.844 E13.28977
G1 X16.259 Y12.502 E13.31327
G1 X16.81 Y12.229 E13.3368
G1 X17.391 Y12.03 E13.36031
G1 X17.994 Y11.908 E13.38385
G1 X18.628 Y11.865 E13.40817
G1 X101.372 Y11.865 E16.57478
G1 X101.985 Y11.905 E16.59829
G1 X102.588 Y12.024 E16.62181
G1 X103.17 Y12.221 E16.64532
G1 X103.722 Y12.491 E16.66884
G1 X104.234 Y12.831 E16.69236
G1 X104.713 Y13.249 E16.71669
G1 X105.221 Y13.814 E16.74577
G1 X105.563 Y14.324 E16.76927
G1 X105.836 Y14.875 E16.7928
G1 X106.035 Y15.456 E16.8163
G1 X106.157 Y16.059 E16.83985
G1 X106.2 Y16.693 E16.86417
G1 X106.2 Y53.437 E18.27036
G1 X106.16 Y54.05 E18.29387
G1 X106.058 Y54.568 E18.31407
G1 X106.157 Y55.059 E18.33324
G1 X106.2 Y55.693 E18.35756
G1 X106.2 Y92.437 E19.76375
G1 X106.16 Y93.05 E19.78726
G1 X106.041 Y93.653 E19.81078
G1 X105.844 Y94.235 E19.8343
G1 X105.574 Y94.787 E19.85781
G1 X105.234 Y95.299 E19.88133
G1 X104.816 Y95.778 E19.90566
G1 X104.251 Y96.286 E19.93474
G1 X103.741 Y96.628 E19.95824
G1 X103.19 Y96.901 E19.98177
G1 X102.609 Y97.1 E20.00528
G1 X102.006 Y97.222 E20.02882
G1 X101.372 Y97.265 E20.05314
G1 X27.628 Y97.265 E22.87532
G1 X27.015 Y97.225 E22.89883
G1 X26.412 Y97.106 E22.92235
G1 X25.83 Y96.909 E22.94586
G1 X25.278 Y96.639 E22.96938
G1 X24.766 Y96.299 E22.9929
G1 X24.287 Y95.881 E23.01723
G1 X23.779 Y95.316 E23.04631
G1 X23.437 Y94.806 E23.06981
G1 X23.164 Y94.255 E23.09334
G1 X22.965 Y93.674 E23.11684
G1 X22.843 Y93.071 E23.14039
G1 X22.8 Y92.437 E23.16471
G1 X22.8 Y58.265 E24.47247
G1 X18.628 Y58.265 E24.63213
G1 X18.015 Y58.225 E24.65564
G1 X17.412 Y58.106 E24.67916
G1 X16.83 Y57.909 E24.70268
G1 X16.278 Y57.639 E24.72619
G1 X15.766 Y57.299 E24.74971
G1 X15.287 Y56.881 E24.77404
G1 X14.779 Y56.316 E24.80312
G1 X14.437 Y55.806 E24.82662
G1 X14.164 Y55.255 E24.85015
G1 X13.965 Y54.674 E24.87366
G1 X13.843 Y54.071 E24.8972
G1 X13.8 Y53.437 E24.92152
G1 X13.8 Y16.693 E26.32771
G1 X13.84 Y16.08 E26.35122
G1 X13.959 Y15.477 E26.37474
G1 X14.156 Y14.895 E26.39826
G1 X14.426 Y14.343 E26.42177
G1 X14.734 Y13.88 E26.44305
G0 F1620 X14.766 Y13.831
G0 X15.184 Y13.352
G0 F4320 X15.534 Y13.496
G1 F1800 X15.98 Y13.108 E26.46568
G1 X16.474 Y12.782 E26.48833
G1 X17.007 Y12.527 E26.51094
G1 X17.569 Y12.345 E26.53355
G1 X18.151 Y12.241 E26.55617
G1 X18.628 Y12.215 E26.57446
G1 X101.372 Y12.215 E29.74106
G1 X101.962 Y12.255 E29.7637
G1 X102.541 Y12.374 E29.78632
G1 X103.099 Y12.57 E29.80895
G1 X103.625 Y12.84 E29.83158
G1 X104.11 Y13.178 E29.8542
G1 X104.569 Y13.599 E29.87804
G1 X104.957 Y14.045 E29.90066
G1 X105.283 Y14.539 E29.92331
G1 X105.538 Y15.072 E29.94592
G1 X105.72 Y15.634 E29.96853
G1 X105.824 Y16.216 E29.99116
G1 X105.85 Y16.693 E30.00944
G1 X105.85 Y53.437 E31.41563
G1 X105.81 Y54.027 E31.43826
G1 X105.699 Y54.568 E31.4594
G1 X105.824 Y55.216 E31.48465
G1 X105.85 Y55.693 E31.50293
G1 X105.85 Y92.437 E32.90912
G1 X105.81 Y93.027 E32.93176
G1 X105.691 Y93.606 E32.95438
G1 X105.495 Y94.164 E32.97701
G1 X105.225 Y94.69 E32.99964
G1 X104.887 Y95.175 E33.02226
G1 X104.466 Y95.634 E33.0461
G1 X104.02 Y96.022 E33.06872
G1 X103.526 Y96.348 E33.09137
G1 X102.993 Y96.603 E33.11398
G1 X102.431 Y96.785 E33.13659
G1 X101.849 Y96.889 E33.15922
G1 X101.372 Y96.915 E33.1775
G1 X27.628 Y96.915 E35.99968
G1 X27.038 Y96.875 E36.02231
G1 X26.459 Y96.756 E36.04493
G1 X25.901 Y96.56 E36.06756
G1 X25.375 Y96.29 E36.09019
G1 X24.89 Y95.952 E36.11281
G1 X24.431 Y95.531 E36.13665
G1 X24.043 Y95.085 E36.15927
G1 X23.717 Y94.591 E36.18192
G1 X23.462 Y94.058 E36.20454
G1 X23.28 Y93.496 E36.22714
G1 X23.176 Y92.914 E36.24977
G1 X23.15 Y92.437 E36.26805
G1 X23.15 Y57.915 E37.58921
G1 X18.628 Y57.915 E37.76226
G1 X18.038 Y57.875 E37.78489
G1 X17.459 Y57.756 E37.80752
G1 X16.901 Y57.56 E37.83015
G1 X16.375 Y57.29 E37.85278
G1 X15.89 Y56.952 E37.8754
G1 X15.431 Y56.531 E37.89924
G1 X15.043 Y56.085 E37.92186
G1 X14.717 Y55.591 E37.94451
G1 X14.462 Y55.058 E37.96712
G1 X14.28 Y54.496 E37.98973
G1 X14.176 Y53.914 E38.01236
G1 X14.15 Y53.437 E38.03064
G1 X14.15 Y16.693 E39.43683
G1 X14.19 Y16.103 E39.45946
G1 X14.309 Y15.524 E39.48208
G1 X14.505 Y14.966 E39.50471
G1 X14.775 Y14.44 E39.52734
G1 X15.072 Y14.014 E39.54722
G0 F1620 X15.113 Y13.955
G0 X15.534 Y13.496
G0 F4320 X15.782 Y13.744
G1 F1800 X16.21 Y13.372 E39.56892
G1 X16.686 Y13.064 E39.59061
G1 X17.201 Y12.826 E39.61233
G1 X17.744 Y12.663 E39.63402
G1 X18.305 Y12.578 E39.65574
G1 X18.628 Y12.565 E39.66811
G1 X101.372 Y12.565 E42.83472
G1 X101.938 Y12.605 E42.85643
G1 X102.492 Y12.724 E42.87812
G1 X103.024 Y12.92 E42.89981
G1 X103.524 Y13.188 E42.92153
G1 X103.98 Y13.525 E42.94322
G1 X104.321 Y13.847 E42.96117
G1 X104.693 Y14.275 E42.98288
G1 X105.001 Y14.751 E43.00457
G1 X105.239 Y15.266 E43.02628
G1 X105.402 Y15.809 E43.04798
G1 X105.487 Y16.37 E43.0697
G1 X105.5 Y16.693 E43.08207
G1 X105.5 Y53.437 E44.48826
G1 X105.46 Y54.003 E44.50997
G1 X105.341 Y54.557 E44.53166
G1 X105.333 Y54.579 E44.53255
G1 X105.402 Y54.809 E44.54174
G1 X105.487 Y55.37 E44.56346
G1 X105.5 Y55.693 E44.57583
G1 X105.5 Y92.437 E45.98202
G1 X105.46 Y93.003 E46.00373
G1 X105.341 Y93.557 E46.02542
G1 X105.145 Y94.089 E46.04712
G1 X104.877 Y94.589 E46.06883
G1 X104.54 Y95.045 E46.09053
G1 X104.218 Y95.386 E46.10848
G1 X103.79 Y95.758 E46.13018
G1 X103.314 Y96.066 E46.15187
G1 X102.799 Y96.304 E46.17359
G1 X102.256 Y96.467 E46.19528
G1 X101.695 Y96.552 E46.217
G1 X101.372 Y96.565 E46.22937
G1 X27.628 Y96.565 E49.05155
G1 X27.062 Y96.525 E49.07326
G1 X26.508 Y96.406 E49.09495
G1 X25.976 Y96.21 E49.11664
G1 X25.476 Y95.942 E49.13836
G1 X25.02 Y95.605 E49.16005
G1 X24.679 Y95.283 E49.178
G1 X24.307 Y94.855 E49.19971
G1 X23.999 Y94.379 E49.2214
G1 X23.761 Y93.864 E49.24311
G1 X23.598 Y93.321 E49.26481
G1 X23.513 Y92.76 E49.28653
G1 X23.5 Y92.437 E49.2989
G1 X23.5 Y57.565 E50.63345
G1 X18.628 Y57.565 E50.8199
G1 X18.062 Y57.525 E50.84161
G1 X17.508 Y57.406 E50.8633
G1 X16.976 Y57.21 E50.885
G1 X16.476 Y56.942 E50.90671
G1 X16.02 Y56.605 E50.9284
G1 X15.679 Y56.283 E50.94635
G1 X15.307 Y55.855 E50.96806
G1 X14.999 Y55.379 E50.98975
G1 X14.761 Y54.864 E51.01146
G1 X14.598 Y54.321 E51.03316
G1 X14.513 Y53.76 E51.05488
G1 X14.5 Y53.437 E51.06725
G1 X14.5 Y16.693 E52.47344
G1 X14.54 Y16.127 E52.49515
G1 X14.659 Y15.573 E52.51684
G1 X14.855 Y15.041 E52.53854
G1 X15.123 Y14.541 E52.56025
G1 X15.327 Y14.265 E52.57338
G0 F1620 X15.46 Y14.085
G0 X15.782 Y13.744
G0 F4320 X15.926 Y14.094
G1 F1800 X16.44 Y13.638 E52.59968
G1 X16.898 Y13.348 E52.62042
G1 X17.393 Y13.129 E52.64114
G1 X17.916 Y12.985 E52.6619
G1 X18.628 Y12.915 E52.68928
G1 X101.372 Y12.915 E55.85588
G1 X101.912 Y12.955 E55.87661
G1 X102.441 Y13.074 E55.89736
G1 X102.946 Y13.269 E55.91807
G1 X103.418 Y13.537 E55.93885
G1 X103.971 Y13.991 E55.96623
G1 X104.427 Y14.505 E55.99252
G1 X104.717 Y14.963 E56.01327
G1 X104.936 Y15.458 E56.03399
G1 X105.08 Y15.981 E56.05475
G1 X105.15 Y16.693 E56.08212
G1 X105.15 Y53.437 E57.48832
G1 X105.11 Y53.977 E57.50904
G1 X104.991 Y54.506 E57.52979
G1 X104.967 Y54.569 E57.53237
G1 X105.08 Y54.981 E57.54872
G1 X105.15 Y55.693 E57.5761
G1 X105.15 Y92.437 E58.98229
G1 X105.11 Y92.977 E59.00301
G1 X104.991 Y93.506 E59.02376
G1 X104.796 Y94.011 E59.04448
G1 X104.528 Y94.483 E59.06525
G1 X104.074 Y95.036 E59.09263
G1 X103.56 Y95.492 E59.11893
G1 X103.102 Y95.782 E59.13967
G1 X102.607 Y96.001 E59.16039
G1 X102.084 Y96.145 E59.18115
G1 X101.372 Y96.215 E59.20853
G1 X27.628 Y96.215 E62.03071
G1 X27.088 Y96.175 E62.05143
G1 X26.559 Y96.056 E62.07218
G1 X26.054 Y95.861 E62.0929
G1 X25.582 Y95.593 E62.11367
G1 X25.029 Y95.139 E62.14105
G1 X24.573 Y94.625 E62.16735
G1 X24.283 Y94.167 E62.18809
G1 X24.064 Y93.672 E62.20881
G1 X23.92 Y93.149 E62.22957
G1 X23.85 Y92.437 E62.25695
G1 X23.85 Y57.215 E63.60489
G1 X18.628 Y57.215 E63.80474
G1 X18.088 Y57.175 E63.82546
G1 X17.559 Y57.056 E63.84621
G1 X17.054 Y56.861 E63.86693
G1 X16.582 Y56.593 E63.8877
G1 X16.029 Y56.139 E63.91508
G1 X15.573 Y55.625 E63.94138
G1 X15.283 Y55.167 E63.96212
G1 X15.064 Y54.672 E63.98284
G1 X14.92 Y54.149 E64.0036
G1 X14.85 Y53.437 E64.03098
G1 X14.85 Y16.693 E65.43717
G1 X14.89 Y16.153 E65.45789
G1 X15.009 Y15.624 E65.47864
G1 X15.204 Y15.119 E65.49936
G1 X15.472 Y14.647 E65.52013
G1 X15.486 Y14.63 E65.52097
G0 F1620 X15.926 Y14.094
G0 F4320 X16.174 Y14.342
G1 F1800 X16.668 Y13.904 E65.54624
G1 X17.107 Y13.633 E65.56598
G1 X17.582 Y13.434 E65.58569
G1 X18.083 Y13.31 E65.60544
G1 X18.628 Y13.265 E65.62637
G1 X101.372 Y13.265 E68.79298
G1 X101.886 Y13.305 E68.81271
G1 X102.387 Y13.424 E68.83242
G1 X102.864 Y13.619 E68.85214
G1 X103.306 Y13.885 E68.87188
G1 X103.723 Y14.239 E68.89281
G1 X104.161 Y14.733 E68.91808
G1 X104.432 Y15.172 E68.93782
G1 X104.631 Y15.647 E68.95753
G1 X104.755 Y16.148 E68.97729
G1 X104.8 Y16.693 E68.99821
G1 X104.8 Y53.437 E70.4044
G1 X104.76 Y53.951 E70.42413
G1 X104.641 Y54.452 E70.44384
G1 X104.596 Y54.563 E70.44842
G1 X104.755 Y55.148 E70.47162
G1 X104.8 Y55.693 E70.49255
G1 X104.8 Y92.437 E71.89874
G1 X104.76 Y92.951 E71.91847
G1 X104.641 Y93.452 E71.93818
G1 X104.446 Y93.929 E71.9579
G1 X104.18 Y94.371 E71.97764
G1 X103.826 Y94.788 E71.99858
G1 X103.332 Y95.226 E72.02384
G1 X102.893 Y95.497 E72.04359
G1 X102.418 Y95.696 E72.0633
G1 X101.917 Y95.82 E72.08305
G1 X101.372 Y95.865 E72.10398
G1 X27.628 Y95.865 E74.92616
G1 X27.114 Y95.825 E74.94589
G1 X26.613 Y95.706 E74.96559
G1 X26.136 Y95.511 E74.98531
G1 X25.694 Y95.245 E75.00506
G1 X25.277 Y94.891 E75.02599
G1 X24.839 Y94.397 E75.05126
G1 X24.568 Y93.958 E75.071
G1 X24.369 Y93.483 E75.09071
G1 X24.245 Y92.982 E75.11046
G1 X24.2 Y92.437 E75.13139
G1 X24.2 Y56.865 E76.49273
G1 X18.628 Y56.865 E76.70597
G1 X18.114 Y56.825 E76.7257
G1 X17.613 Y56.706 E76.7454
G1 X17.136 Y56.511 E76.76512
G1 X16.694 Y56.245 E76.78487
G1 X16.277 Y55.891 E76.8058
G1 X15.839 Y55.397 E76.83107
G1 X15.568 Y54.958 E76.85081
G1 X15.369 Y54.483 E76.87052
G1 X15.245 Y53.982 E76.89027
G1 X15.2 Y53.437 E76.9112
G1 X15.2 Y16.693 E78.31739
G1 X15.24 Y16.179 E78.33712
G1 X15.359 Y15.678 E78.35683
G1 X15.554 Y15.201 E78.37655
G1 X15.744 Y14.886 E78.39063
G0 F1620 X15.82 Y14.759
G0 X16.174 Y14.342
G0 F4320 X16.524 Y14.486
G1 F1800 X16.896 Y14.171 E78.40928
G1 X17.314 Y13.921 E78.42792
G1 X17.768 Y13.742 E78.4466
G1 X18.244 Y13.64 E78.46523
G1 X18.628 Y13.615 E78.47995
G1 X101.372 Y13.615 E81.64656
G1 X101.858 Y13.655 E81.66522
G1 X102.331 Y13.774 E81.68389
G1 X102.778 Y13.968 E81.70254
G1 X103.187 Y14.233 E81.72119
G1 X103.579 Y14.589 E81.74145
G1 X103.894 Y14.961 E81.76011
G1 X104.144 Y15.379 E81.77875
G1 X104.323 Y15.833 E81.79742
G1 X104.425 Y16.309 E81.81605
G1 X104.45 Y16.693 E81.83078
G1 X104.45 Y53.437 E83.23697
G1 X104.41 Y53.923 E83.25563
G1 X104.291 Y54.396 E83.2743
G1 X104.217 Y54.565 E83.28136
G1 X104.323 Y54.833 E83.29239
G1 X104.425 Y55.309 E83.31102
G1 X104.45 Y55.693 E83.32575
G1 X104.45 Y92.437 E84.73194
G1 X104.41 Y92.923 E84.7506
G1 X104.291 Y93.396 E84.76927
G1 X104.097 Y93.843 E84.78791
G1 X103.832 Y94.252 E84.80656
G1 X103.476 Y94.644 E84.82683
G1 X103.104 Y94.959 E84.84548
G1 X102.686 Y95.209 E84.86412
G1 X102.232 Y95.388 E84.8828
G1 X101.756 Y95.49 E84.90143
G1 X101.372 Y95.515 E84.91616
G1 X27.628 Y95.515 E87.73834
G1 X27.142 Y95.475 E87.757
G1 X26.669 Y95.356 E87.77566
G1 X26.222 Y95.162 E87.79431
G1 X25.813 Y94.897 E87.81296
G1 X25.421 Y94.541 E87.83323
G1 X25.106 Y94.169 E87.85188
G1 X24.856 Y93.751 E87.87052
G1 X24.677 Y93.297 E87.8892
G1 X24.575 Y92.821 E87.90783
G1 X24.55 Y92.437 E87.92256
G1 X24.55 Y56.515 E89.29729
G1 X18.628 Y56.515 E89.52392
G1 X18.142 Y56.475 E89.54258
G1 X17.669 Y56.356 E89.56125
G1 X17.222 Y56.162 E89.5799
G1 X16.813 Y55.897 E89.59855
G1 X16.421 Y55.541 E89.61881
G1 X16.106 Y55.169 E89.63747
G1 X15.856 Y54.751 E89.65611
G1 X15.677 Y54.297 E89.67479
G1 X15.575 Y53.821 E89.69342
G1 X15.55 Y53.437 E89.70814
G1 X15.55 Y16.693 E91.11433
G1 X15.59 Y16.207 E91.13299
G1 X15.709 Y15.734 E91.15166
G1 X15.903 Y15.287 E91.17031
G1 X16.079 Y15.016 E91.18268
G0 F1620 X16.168 Y14.878
G0 X16.524 Y14.486
G0 F4320 X16.669 Y14.837
G1 F1800 X17.123 Y14.44 E91.20576
G1 X17.519 Y14.211 E91.22326
G1 X17.949 Y14.054 E91.24078
G1 X18.628 Y13.965 E91.26699
G1 X101.372 Y13.965 E94.4336
G1 X101.828 Y14.005 E94.45111
G1 X102.27 Y14.123 E94.46862
G1 X102.685 Y14.317 E94.48615
G1 X103.228 Y14.734 E94.51236
G1 X103.625 Y15.188 E94.53544
G1 X103.854 Y15.584 E94.55294
G1 X104.011 Y16.014 E94.57046
G1 X104.1 Y16.693 E94.59667
G1 X104.1 Y53.437 E96.00286
G1 X104.06 Y53.893 E96.02038
G1 X103.942 Y54.335 E96.03789
G1 X103.838 Y54.557 E96.04727
G1 X104.011 Y55.014 E96.06597
G1 X104.1 Y55.693 E96.09218
G1 X104.1 Y92.437 E97.49837
G1 X104.06 Y92.893 E97.51588
G1 X103.942 Y93.335 E97.53339
G1 X103.748 Y93.75 E97.55092
G1 X103.331 Y94.293 E97.57712
G1 X102.877 Y94.69 E97.60021
G1 X102.481 Y94.919 E97.61771
G1 X102.051 Y95.076 E97.63523
G1 X101.372 Y95.165 E97.66144
G1 X27.628 Y95.165 E100.48362
G1 X27.172 Y95.125 E100.50113
G1 X26.73 Y95.007 E100.51864
G1 X26.315 Y94.813 E100.53617
G1 X25.772 Y94.396 E100.56238
G1 X25.375 Y93.942 E100.58546
G1 X25.146 Y93.546 E100.60296
G1 X24.989 Y93.116 E100.62048
G1 X24.9 Y92.437 E100.64669
G1 X24.9 Y56.165 E102.03482
G1 X18.628 Y56.165 E102.27484
