;FLAVOR:Marlin
;TIME:3313
;Filament used: 1.63205m
;Layer height: 0.13125
;MINX:3.975
;MINY:16.475
;MINZ:0.263
;MAXX:116.025
;MAXY:103.525
;MAXZ:0.918
;Generated with Cura_SteamEngine 4.6.1
M140 S65
M105
M190 S65
M104 S205
M105
M109 S205
M82 ;absolute extrusion mode
G21;(metric values)
G90;(absolute positioning)
M82;(set extruder to absolute mode)
M107;(start with the fan off)
G28;(Home the printer)
G92 E0;(Reset the extruder to 0)
G0 Z5 E5 F500;(Move up and prime the nozzle)
G0 X-1 Z0;(Move outside the printable area)
G1 Y60 E8 F500;(Draw a priming/wiping line to the rear)
G1 X-1;(Move a little closer to the print area)
G1 Y10 E16 F500;(draw more priming/wiping)
G1 E15 F250;(Small retract)
G92 E0;(Zero the extruder)
G92 E0
G92 E0
G1 F2400 E-2.5
;LAYER_COUNT:6
;LAYER:0
M107
G0 F4320 X113.038 Y16.882 Z0.263
;TYPE:SKIRT
G1 F2400 E0
G1 F1800 X113.525 Y17.008 E0.01925
G1 X113.987 Y17.21 E0.03855
G1 X114.411 Y17.481 E0.05781
G1 X114.787 Y17.817 E0.0771
G1 X115.105 Y18.207 E0.09636
G1 X115.357 Y18.643 E0.11563
G1 X115.537 Y19.113 E0.13489
G1 X115.64 Y19.606 E0.15417
G1 X115.674 Y20.241 E0.17851
G1 X115.675 Y49.318 E1.29128
G1 X115.665 Y50.035 E1.31872
G1 X115.618 Y50.537 E1.33802
G1 X115.492 Y51.024 E1.35727
G1 X115.291 Y51.486 E1.37655
G1 X115.019 Y51.91 E1.39583
G1 X114.684 Y52.286 E1.4151
G1 X114.354 Y52.561 E1.43154
G1 X113.808 Y52.957 E1.45735
G1 X112.585 Y53.811 E1.51444
G1 X110.357 Y55.461 E1.62054
G1 X108.209 Y57.147 E1.72504
G1 X106.146 Y58.863 E1.82774
G1 X104.034 Y60.723 E1.93544
G1 X102.06 Y62.563 E2.03871
G1 X100.104 Y64.493 E2.14387
G1 X98.22 Y66.462 E2.24816
G1 X96.359 Y68.518 E2.35429
G1 X94.601 Y70.573 E2.45779
G1 X92.866 Y72.726 E2.56361
G1 X91.221 Y74.888 E2.66758
G1 X89.616 Y77.124 E2.77291
G1 X88.094 Y79.377 E2.87696
G1 X86.619 Y81.699 E2.98224
G1 X85.21 Y84.064 E3.08759
G1 X83.887 Y86.433 E3.19143
G1 X82.61 Y88.88 E3.29706
G1 X81.418 Y91.33 E3.40133
G1 X80.293 Y93.824 E3.50604
G1 X79.235 Y96.349 E3.61081
G1 X78.229 Y98.96 E3.7179
G1 X77.673 Y100.542 E3.78207
G1 X77.481 Y101.066 E3.80343
G1 X77.27 Y101.524 E3.82272
G1 X76.989 Y101.942 E3.842
G1 X76.646 Y102.311 E3.86128
G1 X76.249 Y102.62 E3.88053
G1 X75.808 Y102.863 E3.8998
G1 X75.334 Y103.034 E3.91909
G1 X74.788 Y103.132 E3.94032
G1 X74.17 Y103.175 E3.96402
G1 X40.162 Y103.175 E5.26551
G1 X39.464 Y103.165 E5.29222
G1 X38.962 Y103.118 E5.31152
G1 X38.475 Y102.992 E5.33077
G1 X38.013 Y102.79 E5.35007
G1 X37.589 Y102.519 E5.36932
G1 X37.213 Y102.183 E5.38862
G1 X36.895 Y101.793 E5.40788
G1 X36.643 Y101.357 E5.42715
G1 X36.462 Y100.882 E5.44661
G1 X36.084 Y99.591 E5.49809
G1 X35.177 Y96.616 E5.61711
G1 X34.292 Y94.012 E5.72237
G1 X33.36 Y91.502 E5.82483
G1 X32.316 Y88.919 E5.93145
G1 X31.215 Y86.403 E6.03656
G1 X30.046 Y83.925 E6.14141
G1 X28.82 Y81.506 E6.2452
G1 X27.506 Y79.084 E6.35065
G1 X26.122 Y76.698 E6.45621
G1 X24.706 Y74.405 E6.55935
G1 X23.199 Y72.116 E6.66423
G1 X21.612 Y69.847 E6.77019
G1 X19.991 Y67.663 E6.87428
G1 X18.288 Y65.5 E6.97964
G1 X16.529 Y63.391 E7.08474
G1 X14.741 Y61.366 E7.18812
G1 X12.847 Y59.339 E7.29429
G1 X10.932 Y57.404 E7.39847
G1 X8.944 Y55.506 E7.50366
G1 X6.914 Y53.674 E7.60831
G1 X5.932 Y52.835 E7.65774
G1 X5.42 Y52.387 E7.68377
G1 X5.069 Y52.026 E7.70304
G1 X4.78 Y51.614 E7.7223
G1 X4.559 Y51.161 E7.74159
G1 X4.413 Y50.679 E7.76086
G1 X4.342 Y50.132 E7.78197
G1 X4.325 Y49.664 E7.7999
G1 X4.325 Y20.631 E8.91099
G1 X4.334 Y19.966 E8.93644
G1 X4.381 Y19.465 E8.9557
G1 X4.506 Y18.977 E8.97497
G1 X4.707 Y18.515 E8.99426
G1 X4.979 Y18.091 E9.01353
G1 X5.314 Y17.715 E9.03281
G1 X5.704 Y17.397 E9.05206
G1 X6.14 Y17.144 E9.07136
G1 X6.61 Y16.964 E9.09062
G1 X7.103 Y16.86 E9.1099
G1 X7.741 Y16.826 E9.13435
G1 X111.838 Y16.825 E13.11814
G1 X112.346 Y16.833 E13.13758
G0 F1620 X112.536 Y16.835
G0 X113.038 Y16.882
G0 F4320 X113.07 Y16.533
G1 F1800 X113.585 Y16.659 E13.15787
G1 X114.076 Y16.861 E13.17819
G1 X114.531 Y17.135 E13.19852
G1 X114.939 Y17.474 E13.21882
G1 X115.292 Y17.87 E13.23912
G1 X115.582 Y18.315 E13.25944
G1 X115.801 Y18.798 E13.27974
G1 X115.946 Y19.309 E13.30007
G1 X116.015 Y19.911 E13.32326
G1 X116.025 Y49.323 E14.44885
G1 X116.015 Y50.04 E14.4763
G1 X115.967 Y50.569 E14.49662
G1 X115.841 Y51.084 E14.51691
G1 X115.639 Y51.575 E14.53723
G1 X115.366 Y52.03 E14.55754
G1 X115.027 Y52.438 E14.57784
G1 X114.56 Y52.845 E14.60155
G1 X114.014 Y53.241 E14.62736
G1 X112.783 Y54.1 E14.68481
G1 X110.571 Y55.738 E14.79014
G1 X108.456 Y57.398 E14.89304
G1 X106.324 Y59.172 E14.99918
G1 X104.294 Y60.96 E15.10271
G1 X102.297 Y62.821 E15.20717
G1 X100.356 Y64.737 E15.31155
G1 X98.45 Y66.727 E15.417
G1 X96.651 Y68.715 E15.51961
G1 X94.845 Y70.827 E15.62596
G1 X93.167 Y72.908 E15.72826
G1 X91.505 Y75.094 E15.83335
G1 X89.894 Y77.338 E15.93907
G1 X88.372 Y79.59 E16.04309
G1 X86.917 Y81.88 E16.14692
G1 X85.526 Y84.217 E16.251
G1 X84.194 Y86.602 E16.35555
G1 X82.936 Y89.011 E16.45955
G1 X81.732 Y91.485 E16.56485
G1 X80.601 Y93.991 E16.67007
G1 X79.564 Y96.468 E16.77284
G1 X78.572 Y99.042 E16.8784
G1 X78.004 Y100.658 E16.94396
G1 X77.809 Y101.187 E16.96553
G1 X77.589 Y101.67 E16.98585
G1 X77.299 Y102.114 E17.00614
G1 X76.945 Y102.51 E17.02647
G1 X76.536 Y102.848 E17.04677
G1 X76.081 Y103.121 E17.06708
G1 X75.59 Y103.323 E17.0874
G1 X74.819 Y103.481 E17.11752
G1 X74.17 Y103.525 E17.14241
G1 X40.157 Y103.525 E18.44409
G1 X39.459 Y103.515 E18.4708
G1 X38.93 Y103.467 E18.49113
G1 X38.415 Y103.341 E18.51142
G1 X37.924 Y103.139 E18.53174
G1 X37.469 Y102.865 E18.55207
G1 X37.061 Y102.526 E18.57237
G1 X36.708 Y102.13 E18.59267
G1 X36.418 Y101.685 E18.613
G1 X36.126 Y100.981 E18.64216
G1 X35.748 Y99.69 E18.69364
G1 X34.847 Y96.732 E18.81198
G1 X33.965 Y94.136 E18.91691
G1 X33.023 Y91.6 E19.02044
G1 X31.991 Y89.049 E19.12575
G1 X30.905 Y86.565 E19.2295
G1 X29.731 Y84.076 E19.33482
G1 X28.527 Y81.7 E19.43676
G1 X27.193 Y79.241 E19.54382
G1 X25.828 Y76.888 E19.64793
G1 X24.396 Y74.571 E19.75217
G1 X22.916 Y72.322 E19.8552
G1 X21.324 Y70.045 E19.96153
G1 X19.715 Y67.878 E20.06482
G1 X18.023 Y65.728 E20.16952
G1 X16.261 Y63.616 E20.27478
G1 X14.471 Y61.589 E20.37827
G1 X12.607 Y59.595 E20.48273
G1 X10.689 Y57.656 E20.58711
G1 X8.715 Y55.772 E20.69154
G1 X6.679 Y53.934 E20.79651
G1 X5.704 Y53.101 E20.84559
G1 X5.19 Y52.65 E20.87176
G1 X4.818 Y52.271 E20.89208
G1 X4.508 Y51.841 E20.91237
G1 X4.266 Y51.369 E20.93267
G1 X4.097 Y50.865 E20.95301
G1 X3.992 Y50.147 E20.98078
G1 X3.975 Y49.664 E20.99928
G1 X3.975 Y20.626 E22.11056
G1 X3.984 Y19.961 E22.13601
G1 X4.031 Y19.433 E22.1563
G1 X4.157 Y18.917 E22.17662
G1 X4.359 Y18.426 E22.19694
G1 X4.632 Y17.972 E22.21722
G1 X4.971 Y17.563 E22.23755
G1 X5.367 Y17.21 E22.25785
G1 X5.811 Y16.92 E22.27814
G1 X6.294 Y16.7 E22.29845
G1 X6.805 Y16.555 E22.31878
G1 X7.41 Y16.485 E22.34209
G1 X111.843 Y16.475 E26.33874
G1 X112.378 Y16.483 E26.35921
G0 F1620 X112.541 Y16.485
G0 X113.07 Y16.533
G1 F2400 E23.85921
;MESH:prototype4_bottoms.stl
G0 F4320 X111.44 Y19.36
G0 X111.44 Y21.06
G0 X111.468 Y48.968
G0 X8.375 Y49.125
;TYPE:WALL-INNER
G1 F2400 E26.35921
G1 F1800 X8.375 Y20.875 E27.44034
G1 X111.625 Y20.875 E31.39171
G1 X111.625 Y49.125 E32.47284
G1 X9.069 Y49.125 E36.39765
G0 F1620 X8.375 Y49.125
G0 F4320 X8.025 Y49.475
G1 F1800 X8.025 Y20.525 E37.50556
G1 X111.975 Y20.525 E41.48372
G1 X111.975 Y49.475 E42.59164
G1 X8.719 Y49.475 E46.54324
G0 F1620 X8.025 Y49.475
G0 F4320 X7.7 Y49.8
;TYPE:WALL-OUTER
G1 F1800 X7.7 Y20.2 E47.67603
G1 X112.3 Y20.2 E51.67907
G1 X112.3 Y49.8 E52.81186
G1 X8.394 Y49.8 E56.78833
G0 F1620 X7.7 Y49.8
G0 F4320 X7.7 Y49.6
G0 X7.975 Y49.6
G0 X8.46 Y48.785
G0 X8.715 Y48.785
;TYPE:SKIN
G1 F1800 X8.715 Y21.215 E57.84343
G1 X111.285 Y21.215 E61.76878
G1 X111.285 Y48.785 E62.82389
G1 X9.409 Y48.785 E66.72267
G0 F1620 X8.715 Y48.785
G0 F4320 X9.029 Y48.627
G1 F1800 X8.872 Y48.47 E66.73117
G0 F4320 X8.872 Y47.975
G1 F1800 X9.524 Y48.627 E66.76646
G0 F4320 X10.018 Y48.627
G1 F1800 X8.872 Y47.48 E66.82851
G0 F4320 X8.872 Y46.985
G1 F1800 X10.513 Y48.627 E66.91735
G0 F4320 X11.008 Y48.627
G1 F1800 X8.872 Y46.49 E67.03298
G0 F4320 X8.872 Y45.995
G1 F1800 X11.503 Y48.627 E67.1754
G0 F4320 X11.998 Y48.627
G1 F1800 X8.872 Y45.5 E67.34462
G0 F4320 X8.872 Y45.005
G1 F1800 X12.493 Y48.627 E67.54062
G0 F4320 X12.988 Y48.627
G1 F1800 X8.872 Y44.51 E67.76341
G0 F4320 X8.872 Y44.015
G1 F1800 X13.483 Y48.627 E68.01299
G0 F4320 X13.978 Y48.627
G1 F1800 X8.872 Y43.52 E68.28937
G0 F4320 X8.872 Y43.025
G1 F1800 X14.473 Y48.627 E68.59253
G0 F4320 X14.968 Y48.627
G1 F1800 X8.872 Y42.53 E68.92248
G0 F4320 X8.872 Y42.035
G1 F1800 X15.463 Y48.627 E69.27923
G0 F4320 X15.958 Y48.627
G1 F1800 X8.872 Y41.54 E69.66276
G0 F4320 X8.872 Y41.045
G1 F1800 X16.453 Y48.627 E70.07309
G0 F4320 X16.948 Y48.627
G1 F1800 X8.872 Y40.55 E70.5102
G0 F4320 X8.872 Y40.055
G1 F1800 X17.443 Y48.627 E70.97411
G0 F4320 X17.938 Y48.627
G1 F1800 X8.872 Y39.56 E71.46481
G0 F4320 X8.872 Y39.065
G1 F1800 X18.433 Y48.627 E71.98229
G0 F4320 X18.928 Y48.627
G1 F1800 X8.872 Y38.57 E72.52657
G0 F4320 X8.872 Y38.075
G1 F1800 X19.423 Y48.627 E73.09764
G0 F4320 X19.918 Y48.627
G1 F1800 X8.872 Y37.58 E73.69549
G0 F4320 X8.872 Y37.085
G1 F1800 X20.413 Y48.627 E74.32014
G0 F4320 X20.908 Y48.627
G1 F1800 X8.872 Y36.59 E74.97158
G0 F4320 X8.872 Y36.095
G1 F1800 X21.403 Y48.627 E75.64981
G0 F4320 X21.898 Y48.627
G1 F1800 X8.872 Y35.6 E76.35482
G0 F4320 X8.872 Y35.105
G1 F1800 X22.393 Y48.627 E77.08663
G0 F4320 X22.888 Y48.627
G1 F1800 X8.872 Y34.61 E77.84523
G0 F4320 X8.872 Y34.115
G1 F1800 X23.383 Y48.627 E78.63062
G0 F4320 X23.878 Y48.627
G1 F1800 X8.872 Y33.62 E79.4428
G0 F4320 X8.872 Y33.125
G1 F1800 X24.373 Y48.627 E80.28177
G0 F4320 X24.868 Y48.627
G1 F1800 X8.872 Y32.63 E81.14753
G0 F4320 X8.872 Y32.135
G1 F1800 X25.363 Y48.627 E82.04008
G0 F4320 X25.858 Y48.627
G1 F1800 X8.872 Y31.64 E82.95943
G0 F4320 X8.872 Y31.145
G1 F1800 X26.353 Y48.627 E83.90556
G0 F4320 X26.848 Y48.627
G1 F1800 X8.872 Y30.65 E84.87848
G0 F4320 X8.872 Y30.155
G1 F1800 X27.343 Y48.627 E85.87819
G0 F4320 X27.838 Y48.627
G1 F1800 X8.872 Y29.661 E86.90467
G0 F4320 X8.872 Y29.166
G1 F1800 X28.333 Y48.627 E87.95793
G0 F4320 X28.828 Y48.627
G1 F1800 X8.872 Y28.671 E89.03799
G0 F4320 X8.872 Y28.176
G1 F1800 X29.323 Y48.627 E90.14483
G0 F4320 X29.817 Y48.627
G1 F1800 X8.872 Y27.681 E91.27844
G0 F4320 X8.872 Y27.186
G1 F1800 X30.312 Y48.627 E92.43884
G0 F4320 X30.807 Y48.627
G1 F1800 X8.872 Y26.691 E93.62603
G0 F4320 X8.872 Y26.196
G1 F1800 X31.302 Y48.627 E94.84002
G0 F4320 X31.797 Y48.627
G1 F1800 X8.872 Y25.701 E96.08079
G0 F4320 X8.872 Y25.206
G1 F1800 X32.292 Y48.627 E97.34835
G0 F4320 X32.787 Y48.627
G1 F1800 X8.872 Y24.711 E98.6427
G0 F4320 X8.872 Y24.216
G1 F1800 X33.282 Y48.627 E99.96384
G0 F4320 X33.777 Y48.627
G1 F1800 X8.872 Y23.721 E101.31177
G0 F4320 X8.872 Y23.226
G1 F1800 X34.272 Y48.627 E102.6865
G0 F4320 X34.767 Y48.627
G1 F1800 X8.872 Y22.731 E104.08801
G0 F4320 X8.872 Y22.236
G1 F1800 X35.262 Y48.627 E105.51631
G0 F4320 X35.757 Y48.627
G1 F1800 X8.872 Y21.741 E106.97141
G0 F4320 X8.997 Y21.371
G1 F1800 X36.252 Y48.627 E108.44652
G0 F4320 X36.747 Y48.627
G1 F1800 X9.492 Y21.371 E109.92164
G0 F4320 X9.987 Y21.371
G1 F1800 X37.242 Y48.627 E111.39676
G0 F4320 X37.737 Y48.627
G1 F1800 X10.482 Y21.371 E112.87188
G0 F4320 X10.977 Y21.371
G1 F1800 X38.232 Y48.627 E114.347
G0 F4320 X38.727 Y48.627
G1 F1800 X11.472 Y21.371 E115.82212
G0 F4320 X11.967 Y21.371
G1 F1800 X39.222 Y48.627 E117.29724
G0 F4320 X39.717 Y48.627
G1 F1800 X12.462 Y21.371 E118.77236
G0 F4320 X12.957 Y21.371
G1 F1800 X40.212 Y48.627 E120.24747
G0 F4320 X40.707 Y48.627
G1 F1800 X13.451 Y21.371 E121.72262
G0 F4320 X13.946 Y21.371
G1 F1800 X41.202 Y48.627 E123.19777
G0 F4320 X41.697 Y48.627
G1 F1800 X14.441 Y21.371 E124.67291
G0 F4320 X14.936 Y21.371
G1 F1800 X42.192 Y48.627 E126.14806
G0 F4320 X42.687 Y48.627
G1 F1800 X15.431 Y21.371 E127.6232
G0 F4320 X15.926 Y21.371
G1 F1800 X43.182 Y48.627 E129.09835
G0 F4320 X43.677 Y48.627
G1 F1800 X16.421 Y21.371 E130.57349
G0 F4320 X16.916 Y21.371
G1 F1800 X44.172 Y48.627 E132.04864
G0 F4320 X44.667 Y48.627
G1 F1800 X17.411 Y21.371 E133.52379
G0 F4320 X17.906 Y21.371
G1 F1800 X45.162 Y48.627 E134.99893
G0 F4320 X45.657 Y48.627
G1 F1800 X18.401 Y21.371 E136.47408
G0 F4320 X18.896 Y21.371
G1 F1800 X46.152 Y48.627 E137.94922
G0 F4320 X46.647 Y48.627
G1 F1800 X19.391 Y21.371 E139.42437
G0 F4320 X19.886 Y21.371
G1 F1800 X47.142 Y48.627 E140.89951
G0 F4320 X47.637 Y48.627
G1 F1800 X20.381 Y21.371 E142.37466
G0 F4320 X20.876 Y21.371
G1 F1800 X48.132 Y48.627 E143.84981
G0 F4320 X48.627 Y48.627
G1 F1800 X21.371 Y21.371 E145.32495
G0 F4320 X21.866 Y21.371
G1 F1800 X49.122 Y48.627 E146.8001
G0 F4320 X49.616 Y48.627
G1 F1800 X22.361 Y21.371 E148.27522
G0 F4320 X22.856 Y21.371
G1 F1800 X50.111 Y48.627 E149.75033
G0 F4320 X50.606 Y48.627
G1 F1800 X23.351 Y21.371 E151.22545
G0 F4320 X23.846 Y21.371
G1 F1800 X51.101 Y48.627 E152.70057
G0 F4320 X51.596 Y48.627
G1 F1800 X24.341 Y21.371 E154.17569
G0 F4320 X24.836 Y21.371
G1 F1800 X52.091 Y48.627 E155.65081
G0 F4320 X52.586 Y48.627
G1 F1800 X25.331 Y21.371 E157.12593
G0 F4320 X25.826 Y21.371
G1 F1800 X53.081 Y48.627 E158.60105
G0 F4320 X53.576 Y48.627
G1 F1800 X26.321 Y21.371 E160.07617
G0 F4320 X26.816 Y21.371
G1 F1800 X54.071 Y48.627 E161.55128
G0 F4320 X54.566 Y48.627
G1 F1800 X27.311 Y21.371 E163.0264
G0 F4320 X27.806 Y21.371
G1 F1800 X55.061 Y48.627 E164.50152
G0 F4320 X55.556 Y48.627
G1 F1800 X28.301 Y21.371 E165.97664
G0 F4320 X28.796 Y21.371
G1 F1800 X56.051 Y48.627 E167.45176
G0 F4320 X56.546 Y48.627
G1 F1800 X29.291 Y21.371 E168.92688
G0 F4320 X29.786 Y21.371
G1 F1800 X57.041 Y48.627 E170.402
G0 F4320 X57.536 Y48.627
G1 F1800 X30.281 Y21.371 E171.87712
G0 F4320 X30.776 Y21.371
G1 F1800 X58.031 Y48.627 E173.35223
G0 F4320 X58.526 Y48.627
G1 F1800 X31.271 Y21.371 E174.82735
G0 F4320 X31.766 Y21.371
G1 F1800 X59.021 Y48.627 E176.30247
G0 F4320 X59.516 Y48.627
G1 F1800 X32.261 Y21.371 E177.77759
G0 F4320 X32.756 Y21.371
G1 F1800 X60.011 Y48.627 E179.25271
G0 F4320 X60.506 Y48.627
G1 F1800 X33.25 Y21.371 E180.72785
G0 F4320 X33.745 Y21.371
G1 F1800 X61.001 Y48.627 E182.203
G0 F4320 X61.496 Y48.627
G1 F1800 X34.24 Y21.371 E183.67815
G0 F4320 X34.735 Y21.371
G1 F1800 X61.991 Y48.627 E185.15329
G0 F4320 X62.486 Y48.627
G1 F1800 X35.23 Y21.371 E186.62844
G0 F4320 X35.725 Y21.371
G1 F1800 X62.981 Y48.627 E188.10358
G0 F4320 X63.476 Y48.627
G1 F1800 X36.22 Y21.371 E189.57873
G0 F4320 X36.715 Y21.371
G1 F1800 X63.971 Y48.627 E191.05387
G0 F4320 X64.466 Y48.627
G1 F1800 X37.21 Y21.371 E192.52902
G0 F4320 X37.705 Y21.371
G1 F1800 X64.961 Y48.627 E194.00417
G0 F4320 X65.456 Y48.627
G1 F1800 X38.2 Y21.371 E195.47931
G0 F4320 X38.695 Y21.371
G1 F1800 X65.951 Y48.627 E196.95446
G0 F4320 X66.446 Y48.627
G1 F1800 X39.19 Y21.371 E198.4296
G0 F4320 X39.685 Y21.371
G1 F1800 X66.941 Y48.627 E199.90475
G0 F4320 X67.436 Y48.627
G1 F1800 X40.18 Y21.371 E201.37989
G0 F4320 X40.675 Y21.371
G1 F1800 X67.931 Y48.627 E202.85504
G0 F4320 X68.426 Y48.627
G1 F1800 X41.17 Y21.371 E204.33019
G0 F4320 X41.665 Y21.371
G1 F1800 X68.92 Y48.627 E205.8053
G0 F4320 X69.415 Y48.627
G1 F1800 X42.16 Y21.371 E207.28042
G0 F4320 X42.655 Y21.371
G1 F1800 X69.91 Y48.627 E208.75554
G0 F4320 X70.405 Y48.627
G1 F1800 X43.15 Y21.371 E210.23066
G0 F4320 X43.645 Y21.371
G1 F1800 X70.9 Y48.627 E211.70578
G0 F4320 X71.395 Y48.627
G1 F1800 X44.14 Y21.371 E213.1809
G0 F4320 X44.635 Y21.371
G1 F1800 X71.89 Y48.627 E214.65602
G0 F4320 X72.385 Y48.627
G1 F1800 X45.13 Y21.371 E216.13114
G0 F4320 X45.625 Y21.371
G1 F1800 X72.88 Y48.627 E217.60625
G0 F4320 X73.375 Y48.627
G1 F1800 X46.12 Y21.371 E219.08137
G0 F4320 X46.615 Y21.371
G1 F1800 X73.87 Y48.627 E220.55649
G0 F4320 X74.365 Y48.627
G1 F1800 X47.11 Y21.371 E222.03161
G0 F4320 X47.605 Y21.371
G1 F1800 X74.86 Y48.627 E223.50673
G0 F4320 X75.355 Y48.627
G1 F1800 X48.1 Y21.371 E224.98185
G0 F4320 X48.595 Y21.371
G1 F1800 X75.85 Y48.627 E226.45697
G0 F4320 X76.345 Y48.627
G1 F1800 X49.09 Y21.371 E227.93209
G0 F4320 X49.585 Y21.371
G1 F1800 X76.84 Y48.627 E229.4072
G0 F4320 X77.335 Y48.627
G1 F1800 X50.08 Y21.371 E230.88232
