;FLAVOR:Marlin
;TIME:9657
;Filament used: 5.10573m
;Layer height: 0.13125
;MINX:17.975
;MINY:37.287
;MINZ:0.263
;MAXX:102.025
;MAXY:78.337
;MAXZ:26.987
;Generated with Cura_SteamEngine 4.6.1
M140 S65
M105
M190 S65
M104 S205
M105
M109 S205
M82 ;absolute extrusion mode
G21;(metric values)
G90;(absolute positioning)
M82;(set extruder to absolute mode)
M107;(start with the fan off)
G28;(Home the printer)
G92 E0;(Reset the extruder to 0)
G0 Z5 E5 F500;(Move up and prime the nozzle)
G0 X-1 Z0;(Move outside the printable area)
G1 Y60 E8 F500;(Draw a priming/wiping line to the rear)
G1 X-1;(Move a little closer to the print area)
G1 Y10 E16 F500;(draw more priming/wiping)
G1 E15 F250;(Small retract)
G92 E0;(Zero the extruder)
G92 E0
G92 E0
G1 F2400 E-2.5
;LAYER_COUNT:205
;LAYER:0
M107
G0 F4320 X99.038 Y37.694 Z0.263
;TYPE:SKIRT
G1 F2400 E0
G1 F1800 X99.525 Y37.82 E0.01925
G1 X99.987 Y38.022 E0.03855
G1 X100.411 Y38.293 E0.05781
G1 X100.787 Y38.629 E0.0771
G1 X101.105 Y39.019 E0.09636
G1 X101.357 Y39.455 E0.11563
G1 X101.537 Y39.925 E0.13489
G1 X101.64 Y40.418 E0.15417
G1 X101.674 Y41.053 E0.17851
G1 X101.675 Y74.115 E1.44379
G1 X101.666 Y74.842 E1.47161
G1 X101.62 Y75.344 E1.4909
G1 X101.495 Y75.832 E1.51018
G1 X101.294 Y76.294 E1.52946
G1 X101.023 Y76.718 E1.54872
G1 X100.689 Y77.094 E1.56797
G1 X100.299 Y77.413 E1.58725
G1 X99.863 Y77.666 E1.60654
G1 X99.393 Y77.847 E1.62582
G1 X98.901 Y77.951 E1.64506
G1 X98.259 Y77.986 E1.66967
G1 X22.171 Y77.987 E4.58155
G1 X21.485 Y77.978 E4.6078
G1 X20.984 Y77.931 E4.62706
G1 X20.496 Y77.806 E4.64634
G1 X20.034 Y77.605 E4.66562
G1 X19.61 Y77.334 E4.68488
G1 X19.234 Y76.999 E4.70415
G1 X18.916 Y76.609 E4.72341
G1 X18.663 Y76.173 E4.7427
G1 X18.482 Y75.703 E4.76198
G1 X18.378 Y75.21 E4.78126
G1 X18.353 Y74.874 E4.79415
G1 X18.33 Y73.851 E4.83331
G1 X18.325 Y72.005 E4.90396
G1 X18.325 Y41.438 E6.07376
G1 X18.335 Y40.773 E6.09921
G1 X18.383 Y40.272 E6.11847
G1 X18.509 Y39.784 E6.13776
G1 X18.711 Y39.323 E6.15702
G1 X18.983 Y38.899 E6.1763
G1 X19.318 Y38.524 E6.19554
G1 X19.709 Y38.206 E6.21483
G1 X20.145 Y37.954 E6.2341
G1 X20.616 Y37.775 E6.25339
G1 X21.109 Y37.671 E6.27267
G1 X21.741 Y37.638 E6.29689
G1 X97.838 Y37.637 E9.20912
G1 X98.346 Y37.645 E9.22856
G0 F1620 X98.536 Y37.647
G0 X99.038 Y37.694
G0 F4320 X99.07 Y37.345
G1 F1800 X99.585 Y37.471 E9.24885
G1 X100.076 Y37.673 E9.26917
G1 X100.531 Y37.947 E9.28949
G1 X100.939 Y38.286 E9.30979
G1 X101.292 Y38.682 E9.3301
G1 X101.582 Y39.127 E9.35042
G1 X101.801 Y39.61 E9.37072
G1 X101.946 Y40.121 E9.39105
G1 X102.015 Y40.723 E9.41424
G1 X102.025 Y74.12 E10.69234
G1 X102.016 Y74.847 E10.72016
G1 X101.969 Y75.375 E10.74045
G1 X101.844 Y75.891 E10.76077
G1 X101.643 Y76.382 E10.78107
G1 X101.37 Y76.837 E10.80138
G1 X101.032 Y77.246 E10.82168
G1 X100.636 Y77.6 E10.84201
G1 X100.192 Y77.89 E10.86231
G1 X99.709 Y78.111 E10.88263
G1 X99.199 Y78.256 E10.90293
G1 X98.59 Y78.327 E10.92639
G1 X22.167 Y78.337 E13.85109
G1 X21.481 Y78.328 E13.87735
G1 X20.952 Y78.281 E13.89767
G1 X20.437 Y78.155 E13.91796
G1 X19.946 Y77.953 E13.93828
G1 X19.491 Y77.68 E13.95859
G1 X19.082 Y77.342 E13.97889
G1 X18.728 Y76.946 E13.99922
G1 X18.438 Y76.502 E14.01952
G1 X18.218 Y76.019 E14.03983
G1 X18.073 Y75.509 E14.06012
G1 X18.003 Y74.882 E14.08426
G1 X17.98 Y73.859 E14.12342
G1 X17.975 Y72.006 E14.19434
G1 X17.975 Y41.433 E15.36437
G1 X17.985 Y40.768 E15.38982
G1 X18.033 Y40.24 E15.41011
G1 X18.16 Y39.724 E15.43044
G1 X18.363 Y39.234 E15.45074
G1 X18.637 Y38.779 E15.47107
G1 X18.976 Y38.371 E15.49137
G1 X19.372 Y38.018 E15.51167
G1 X19.817 Y37.729 E15.53198
G1 X20.3 Y37.51 E15.55227
G1 X20.811 Y37.366 E15.57259
G1 X21.411 Y37.297 E15.5957
G1 X97.843 Y37.287 E18.52075
G1 X98.378 Y37.295 E18.54123
G0 F1620 X98.541 Y37.297
G0 X99.07 Y37.345
G1 F2400 E16.04123
;MESH:prototype4_topleft.stl
G0 F4320 X91.863 Y61.672
G0 X93.523 Y61.672
G0 X93.378 Y66.69
;TYPE:WALL-INNER
G1 F2400 E18.54123
G1 F1800 X93.378 Y49.935 E19.18244
G1 X67.797 Y49.935 E20.16143
G1 X67.622 Y49.935 E20.16812
G1 X67.622 Y50.11 E20.17246
G1 X67.623 Y66.69 E20.80697
G1 X92.684 Y66.69 E21.76606
G0 F1620 X93.378 Y66.69
G1 F2400 E19.26606
G0 F4320 X89.589 Y66.835
G0 X89.589 Y65.175
G0 X67.452 Y75.452
G0 X67.452 Y73.752
G0 X22.379 Y73.937
G1 F2400 E21.76606
G1 F1800 X22.375 Y71.797 E21.84795
G1 X22.375 Y41.687 E23.00026
G1 X97.625 Y41.687 E25.88007
G1 X97.625 Y73.937 E27.11428
G1 X23.073 Y73.937 E29.96738
G0 F1620 X22.379 Y73.937
G0 F4320 X22.03 Y74.287
G1 F1800 X22.025 Y71.798 E30.06264
G1 X22.025 Y41.337 E31.22838
G1 X97.975 Y41.337 E34.13498
G1 X97.975 Y74.287 E35.39597
G1 X22.724 Y74.287 E38.27582
G0 F1620 X22.03 Y74.287
G1 F2400 E35.77582
G0 F4320 X93.028 Y73.752
G0 X93.028 Y75.452
G0 X91.576 Y65.175
G0 X91.576 Y66.835
G0 X93.028 Y66.34
G1 F2400 E38.27582
G1 F1800 X93.028 Y50.285 E38.89025
G1 X68.147 Y50.285 E39.84244
G1 X67.972 Y50.285 E39.84914
G1 X67.972 Y50.46 E39.85347
G1 X67.973 Y66.34 E40.4612
G1 X92.334 Y66.34 E41.39349
G0 F1620 X93.028 Y66.34
G0 F4320 X92.703 Y66.015
;TYPE:WALL-OUTER
G1 F1800 X92.703 Y50.61 E41.98304
G1 X68.472 Y50.61 E42.91036
G1 X68.297 Y50.61 E42.91706
G1 X68.297 Y50.785 E42.92139
G1 X68.298 Y66.015 E43.50424
G1 X92.009 Y66.015 E44.41166
G0 F1620 X92.703 Y66.015
G0 F4320 X92.703 Y65.815
G1 F2400 E41.91166
G0 F4320 X92.978 Y65.815
G0 X91.576 Y66.835
G0 X91.576 Y65.175
G0 X67.452 Y75.452
G0 X67.452 Y73.752
G0 X21.951 Y74.337
G0 X21.706 Y74.612
G1 F2400 E44.41166
G1 F1800 X21.7 Y71.799 E44.51932
G1 X21.7 Y41.012 E45.69753
G1 X98.3 Y41.012 E48.62901
G1 X98.3 Y74.612 E49.91488
G1 X22.4 Y74.612 E52.81957
G0 F1620 X21.706 Y74.612
G0 F4320 X21.706 Y74.412
G0 X21.981 Y74.412
G0 X22.719 Y73.852
G0 X22.719 Y73.597
;TYPE:SKIN
G1 F1800 X22.715 Y71.797 E52.88846
G1 X22.715 Y42.027 E54.02775
G1 X97.285 Y42.027 E56.88154
G1 X97.285 Y73.597 E58.08972
G1 X23.413 Y73.597 E60.9168
G0 F1620 X22.719 Y73.597
G1 F2400 E58.4168
G0 F4320 X22.719 Y73.852
G0 X67.508 Y73.752
G0 X67.508 Y75.452
G0 X69.137 Y64.887
G0 X67.478 Y64.888
G0 X67.508 Y66.775
G0 X67.283 Y67.03
G1 F2400 E60.9168
G1 F1800 X93.718 Y67.03 E61.92847
G1 X93.718 Y49.595 E62.5957
G1 X67.282 Y49.595 E63.60741
G1 X67.283 Y66.336 E64.24808
G0 F1620 X67.283 Y67.03
G1 F2400 E61.74808
G0 F4320 X67.508 Y66.775
G0 X69.719 Y66.835
G0 X69.719 Y65.175
G0 X99.14 Y49.764
G0 X97.44 Y49.764
G0 X97.54 Y42.68
G0 X97.127 Y42.68
G1 F2400 E64.24808
G1 F1800 X96.631 Y42.183 E64.27496
G0 F4320 X96.136 Y42.183
G1 F1800 X97.127 Y43.175 E64.32862
G0 F4320 X97.127 Y43.67
G1 F1800 X95.641 Y42.183 E64.40907
G0 F4320 X95.146 Y42.183
G1 F1800 X97.127 Y44.165 E64.51631
G0 F4320 X97.127 Y44.66
G1 F1800 X94.651 Y42.183 E64.65035
G0 F4320 X94.156 Y42.183
G1 F1800 X97.127 Y45.155 E64.81117
G0 F4320 X97.127 Y45.65
G1 F1800 X93.661 Y42.183 E64.99878
G0 F4320 X93.166 Y42.183
G1 F1800 X97.127 Y46.145 E65.21319
G0 F4320 X97.127 Y46.64
G1 F1800 X92.671 Y42.183 E65.45438
G0 F4320 X92.176 Y42.183
G1 F1800 X97.127 Y47.135 E65.72236
G0 F4320 X97.127 Y47.63
G1 F1800 X91.681 Y42.183 E66.01714
G0 F4320 X91.186 Y42.183
G1 F1800 X97.127 Y48.124 E66.33868
G0 F4320 X97.127 Y48.619
G1 F1800 X90.691 Y42.183 E66.68701
G0 F4320 X90.196 Y42.183
G1 F1800 X97.127 Y49.114 E67.06212
G0 F4320 X97.127 Y49.609
G1 F1800 X89.701 Y42.183 E67.46403
G0 F4320 X89.206 Y42.183
G1 F1800 X97.127 Y50.104 E67.89273
G0 F4320 X97.127 Y50.599
G1 F1800 X88.711 Y42.183 E68.34822
G0 F4320 X88.216 Y42.183
G1 F1800 X97.127 Y51.094 E68.8305
G0 F4320 X97.127 Y51.589
G1 F1800 X87.721 Y42.183 E69.33957
G0 F4320 X87.226 Y42.183
G1 F1800 X97.127 Y52.084 E69.87543
G0 F4320 X97.127 Y52.579
G1 F1800 X86.731 Y42.183 E70.43808
G0 F4320 X86.236 Y42.183
G1 F1800 X93.49 Y49.438 E70.83071
G0 F4320 X92.995 Y49.438
G1 F1800 X85.741 Y42.183 E71.22334
G0 F4320 X85.246 Y42.183
G1 F1800 X92.5 Y49.438 E71.61597
G0 F4320 X92.005 Y49.438
G1 F1800 X84.751 Y42.183 E72.00859
G0 F4320 X84.256 Y42.183
G1 F1800 X91.51 Y49.438 E72.40122
G0 F4320 X91.015 Y49.438
G1 F1800 X83.761 Y42.183 E72.79385
G0 F4320 X83.266 Y42.183
G1 F1800 X90.52 Y49.438 E73.18647
G0 F4320 X90.026 Y49.438
G1 F1800 X82.771 Y42.183 E73.57913
G0 F4320 X82.276 Y42.183
G1 F1800 X89.531 Y49.438 E73.97178
G0 F4320 X89.036 Y49.438
G1 F1800 X81.781 Y42.183 E74.36444
G0 F4320 X81.286 Y42.183
G1 F1800 X88.541 Y49.438 E74.75709
G0 F4320 X88.046 Y49.438
G1 F1800 X80.791 Y42.183 E75.14975
G0 F4320 X80.296 Y42.183
G1 F1800 X87.551 Y49.438 E75.5424
G0 F4320 X87.056 Y49.438
G1 F1800 X79.801 Y42.183 E75.93505
G0 F4320 X79.306 Y42.183
G1 F1800 X86.561 Y49.438 E76.32771
G0 F4320 X86.066 Y49.438
G1 F1800 X78.812 Y42.183 E76.72034
G0 F4320 X78.317 Y42.183
G1 F1800 X85.571 Y49.438 E77.11296
G0 F4320 X85.076 Y49.438
G1 F1800 X77.822 Y42.183 E77.50559
G0 F4320 X77.327 Y42.183
G1 F1800 X84.581 Y49.438 E77.89822
G0 F4320 X84.086 Y49.438
G1 F1800 X76.832 Y42.183 E78.29084
G0 F4320 X76.337 Y42.183
G1 F1800 X83.591 Y49.438 E78.68347
G0 F4320 X83.096 Y49.438
G1 F1800 X75.842 Y42.183 E79.0761
G0 F4320 X75.347 Y42.183
G1 F1800 X82.601 Y49.438 E79.46873
G0 F4320 X82.106 Y49.438
G1 F1800 X74.852 Y42.183 E79.86135
G0 F4320 X74.357 Y42.183
G1 F1800 X81.611 Y49.438 E80.25398
G0 F4320 X81.116 Y49.438
G1 F1800 X73.862 Y42.183 E80.64661
G0 F4320 X73.367 Y42.183
G1 F1800 X80.621 Y49.438 E81.03923
G0 F4320 X80.126 Y49.438
G1 F1800 X72.872 Y42.183 E81.43186
G0 F4320 X72.377 Y42.183
G1 F1800 X79.631 Y49.438 E81.82449
G0 F4320 X79.136 Y49.438
G1 F1800 X71.882 Y42.183 E82.21711
G0 F4320 X71.387 Y42.183
G1 F1800 X78.641 Y49.438 E82.60974
G0 F4320 X78.146 Y49.438
G1 F1800 X70.892 Y42.183 E83.00237
G0 F4320 X70.397 Y42.183
G1 F1800 X77.651 Y49.438 E83.395
G0 F4320 X77.156 Y49.438
G1 F1800 X69.902 Y42.183 E83.78762
G0 F4320 X69.407 Y42.183
G1 F1800 X76.661 Y49.438 E84.18025
G0 F4320 X76.166 Y49.438
G1 F1800 X68.912 Y42.183 E84.57288
G0 F4320 X68.417 Y42.183
G1 F1800 X75.671 Y49.438 E84.9655
G0 F4320 X75.176 Y49.438
G1 F1800 X67.922 Y42.183 E85.35813
G0 F4320 X67.427 Y42.183
G1 F1800 X74.681 Y49.438 E85.75076
G0 F4320 X74.186 Y49.438
G1 F1800 X66.932 Y42.183 E86.14339
G0 F4320 X66.437 Y42.183
G1 F1800 X73.691 Y49.438 E86.53601
G0 F4320 X73.196 Y49.438
G1 F1800 X65.942 Y42.183 E86.92864
G0 F4320 X65.447 Y42.183
G1 F1800 X72.701 Y49.438 E87.32127
G0 F4320 X72.206 Y49.438
G1 F1800 X64.952 Y42.183 E87.71389
G0 F4320 X64.457 Y42.183
G1 F1800 X71.711 Y49.438 E88.10652
G0 F4320 X71.216 Y49.438
G1 F1800 X63.962 Y42.183 E88.49915
G0 F4320 X63.467 Y42.183
G1 F1800 X70.721 Y49.438 E88.89178
G0 F4320 X70.227 Y49.438
G1 F1800 X62.972 Y42.183 E89.28443
G0 F4320 X62.477 Y42.183
G1 F1800 X69.732 Y49.438 E89.67708
G0 F4320 X69.237 Y49.438
G1 F1800 X61.982 Y42.183 E90.06974
G0 F4320 X61.487 Y42.183
G1 F1800 X68.742 Y49.438 E90.46239
G0 F4320 X68.247 Y49.438
G1 F1800 X60.992 Y42.183 E90.85505
G0 F4320 X60.497 Y42.183
G1 F1800 X67.752 Y49.438 E91.2477
G0 F4320 X67.257 Y49.438
G1 F1800 X60.002 Y42.183 E91.64036
G0 F4320 X59.507 Y42.183
G1 F1800 X67.124 Y49.8 E92.0526
G0 F4320 X67.124 Y50.295
G1 F1800 X59.013 Y42.183 E92.49161
G0 F4320 X58.518 Y42.183
G1 F1800 X67.124 Y50.79 E92.95741
G0 F4320 X67.124 Y51.285
G1 F1800 X58.023 Y42.183 E93.45
G0 F4320 X57.528 Y42.183
G1 F1800 X67.124 Y51.78 E93.96938
G0 F4320 X67.124 Y52.275
G1 F1800 X57.033 Y42.183 E94.51555
G0 F4320 X56.538 Y42.183
G1 F1800 X67.124 Y52.77 E95.08851
G0 F4320 X67.124 Y53.265
G1 F1800 X56.043 Y42.183 E95.68827
G0 F4320 X55.548 Y42.183
G1 F1800 X67.124 Y53.76 E96.31481
G0 F4320 X67.124 Y54.255
G1 F1800 X55.053 Y42.183 E96.96814
G0 F4320 X54.558 Y42.183
G1 F1800 X67.124 Y54.75 E97.64826
G0 F4320 X67.124 Y55.245
G1 F1800 X54.063 Y42.183 E98.35517
G0 F4320 X53.568 Y42.183
G1 F1800 X67.124 Y55.74 E99.08888
G0 F4320 X67.124 Y56.235
G1 F1800 X53.073 Y42.183 E99.84937
G0 F4320 X52.578 Y42.183
G1 F1800 X67.124 Y56.73 E100.63666
G0 F4320 X67.124 Y57.225
G1 F1800 X52.083 Y42.183 E101.45073
G0 F4320 X51.588 Y42.183
G1 F1800 X67.124 Y57.72 E102.29159
G0 F4320 X67.124 Y58.215
G1 F1800 X51.093 Y42.183 E103.15925
G0 F4320 X50.598 Y42.183
G1 F1800 X67.125 Y58.711 E104.05375
G0 F4320 X67.125 Y59.206
G1 F1800 X50.103 Y42.183 E104.97504
G0 F4320 X49.608 Y42.183
G1 F1800 X67.125 Y59.701 E105.92312
G0 F4320 X67.125 Y60.196
G1 F1800 X49.113 Y42.183 E106.89799
G0 F4320 X48.618 Y42.183
G1 F1800 X67.125 Y60.69 E107.89962
G0 F4320 X67.125 Y61.185
G1 F1800 X48.123 Y42.183 E108.92804
G0 F4320 X47.628 Y42.183
G1 F1800 X67.125 Y61.68 E109.98326
G0 F4320 X67.125 Y62.175
G1 F1800 X47.133 Y42.183 E111.06526
G0 F4320 X46.638 Y42.183
G1 F1800 X67.125 Y62.67 E112.17406
G0 F4320 X67.125 Y63.165
G1 F1800 X46.143 Y42.183 E113.30964
G0 F4320 X45.648 Y42.183
G1 F1800 X67.125 Y63.66 E114.47202
G0 F4320 X67.125 Y64.155
G1 F1800 X45.153 Y42.183 E115.66118
G0 F4320 X44.658 Y42.183
G1 F1800 X67.125 Y64.65 E116.87714
G0 F4320 X67.125 Y65.145
G1 F1800 X44.163 Y42.183 E118.11989
G0 F4320 X43.668 Y42.183
G1 F1800 X67.125 Y65.64 E119.38942
G0 F4320 X67.125 Y66.135
G1 F1800 X43.173 Y42.183 E120.68575
G0 F4320 X42.678 Y42.183
G1 F1800 X67.125 Y66.63 E122.00887
G0 F4320 X67.125 Y67.125
G1 F1800 X42.183 Y42.183 E123.35878
G0 F4320 X41.688 Y42.183
G1 F1800 X72.944 Y73.439 E125.05041
G0 F4320 X72.449 Y73.439
G1 F1800 X41.193 Y42.183 E126.74204
G0 F4320 X40.698 Y42.183
G1 F1800 X71.954 Y73.439 E128.43368
G0 F4320 X71.459 Y73.439
G1 F1800 X40.203 Y42.183 E130.12531
G0 F4320 X39.708 Y42.183
G1 F1800 X70.964 Y73.439 E131.81694
G0 F4320 X70.469 Y73.439
G1 F1800 X39.214 Y42.183 E133.50855
G0 F4320 X38.719 Y42.183
G1 F1800 X69.974 Y73.439 E135.20015
G0 F4320 X69.479 Y73.439
G1 F1800 X38.224 Y42.183 E136.89176
G0 F4320 X37.729 Y42.183
G1 F1800 X68.984 Y73.439 E138.58337
G0 F4320 X68.489 Y73.439
G1 F1800 X37.234 Y42.183 E140.27497
G0 F4320 X36.739 Y42.183
G1 F1800 X67.994 Y73.439 E141.96658
G0 F4320 X67.499 Y73.439
G1 F1800 X36.244 Y42.183 E143.65819
G0 F4320 X35.749 Y42.183
G1 F1800 X67.004 Y73.439 E145.34979
G0 F4320 X66.509 Y73.439
G1 F1800 X35.254 Y42.183 E147.0414
G0 F4320 X34.759 Y42.183
G1 F1800 X66.014 Y73.439 E148.733
G0 F4320 X65.519 Y73.439
G1 F1800 X34.264 Y42.183 E150.42461
G0 F4320 X33.769 Y42.183
G1 F1800 X65.024 Y73.439 E152.11622
G0 F4320 X64.529 Y73.439
G1 F1800 X33.274 Y42.183 E153.80782
G0 F4320 X32.779 Y42.183
G1 F1800 X64.034 Y73.439 E155.49943
G0 F4320 X63.539 Y73.439
G1 F1800 X32.284 Y42.183 E157.19104
G0 F4320 X31.789 Y42.183
G1 F1800 X63.044 Y73.439 E158.88264
G0 F4320 X62.549 Y73.439
G1 F1800 X31.294 Y42.183 E160.57425
G0 F4320 X30.799 Y42.183
G1 F1800 X62.054 Y73.439 E162.26585
G0 F4320 X61.56 Y73.439
G1 F1800 X30.304 Y42.183 E163.95749
G0 F4320 X29.809 Y42.183
G1 F1800 X61.065 Y73.439 E165.64912
G0 F4320 X60.57 Y73.439
G1 F1800 X29.314 Y42.183 E167.34075
G0 F4320 X28.819 Y42.183
G1 F1800 X60.075 Y73.439 E169.03239
G0 F4320 X59.58 Y73.439
G1 F1800 X28.324 Y42.183 E170.72402
G0 F4320 X27.829 Y42.183
G1 F1800 X59.085 Y73.439 E172.41565
G0 F4320 X58.59 Y73.439
G1 F1800 X27.334 Y42.183 E174.10729
G0 F4320 X26.839 Y42.183
G1 F1800 X58.095 Y73.439 E175.79892
G0 F4320 X57.6 Y73.439
G1 F1800 X26.344 Y42.183 E177.49055
G0 F4320 X25.849 Y42.183
G1 F1800 X57.105 Y73.439 E179.18219
G0 F4320 X56.61 Y73.439
G1 F1800 X25.354 Y42.183 E180.87382
G0 F4320 X24.859 Y42.183
G1 F1800 X56.115 Y73.439 E182.56545
G0 F4320 X55.62 Y73.439
G1 F1800 X24.364 Y42.183 E184.25709
G0 F4320 X23.869 Y42.183
G1 F1800 X55.125 Y73.439 E185.94872
G0 F4320 X54.63 Y73.439
G1 F1800 X23.374 Y42.183 E187.64035
G0 F4320 X22.879 Y42.183
G1 F1800 X54.135 Y73.439 E189.33199
G0 F4320 X53.64 Y73.439
G1 F1800 X22.872 Y42.671 E190.99721
G0 F4320 X22.872 Y43.166
G1 F1800 X53.145 Y73.439 E192.63564
G0 F4320 X52.65 Y73.439
G1 F1800 X22.872 Y43.661 E194.24728
G0 F4320 X22.872 Y44.155
G1 F1800 X52.155 Y73.439 E195.83216
G0 F4320 X51.66 Y73.439
G1 F1800 X22.872 Y44.65 E197.39025
G0 F4320 X22.872 Y45.145
G1 F1800 X51.165 Y73.439 E198.92154
G0 F4320 X50.67 Y73.439
G1 F1800 X22.872 Y45.64 E200.42605
G0 F4320 X22.872 Y46.135
G1 F1800 X50.175 Y73.439 E201.90377
G0 F4320 X49.68 Y73.439
G1 F1800 X22.872 Y46.63 E203.35469
G0 F4320 X22.872 Y47.125
G1 F1800 X49.185 Y73.439 E204.77883
G0 F4320 X48.69 Y73.439
G1 F1800 X22.872 Y47.62 E206.17617
G0 F4320 X22.872 Y48.115
