;FLAVOR:Marlin
;TIME:14016
;Filament used: 6.20523m
;Layer height: 0.13125
;MINX:18.544
;MINY:16.287
;MINZ:0.263
;MAXX:101.644
;MAXY:104.332
;MAXZ:24.891
;Generated with Cura_SteamEngine 4.6.1
M140 S65
M105
M190 S65
M104 S205
M105
M109 S205
M82 ;absolute extrusion mode
G21;(metric values)
G90;(absolute positioning)
M82;(set extruder to absolute mode)
M107;(start with the fan off)
G28;(Home the printer)
G92 E0;(Reset the extruder to 0)
G0 Z5 E5 F500;(Move up and prime the nozzle)
G0 X-1 Z0;(Move outside the printable area)
G1 Y60 E8 F500;(Draw a priming/wiping line to the rear)
G1 X-1;(Move a little closer to the print area)
G1 Y10 E16 F500;(draw more priming/wiping)
G1 E15 F250;(Small retract)
G92 E0;(Zero the extruder)
G92 E0
G92 E0
G1 F2400 E-2.5
;LAYER_COUNT:189
;LAYER:0
M107
G0 F4320 X21.03 Y17.876 Z0.263
;TYPE:SKIRT
G1 F2400 E0
G1 F1800 X21.611 Y17.352 E0.02994
G1 X22.138 Y16.994 E0.05432
G1 X22.705 Y16.705 E0.07868
G1 X23.304 Y16.489 E0.10305
G1 X23.926 Y16.35 E0.12744
G1 X24.722 Y16.287 E0.158
G1 X96.466 Y16.287 E2.90364
G1 X97.102 Y16.327 E2.92802
G1 X97.727 Y16.446 E2.95237
G1 X98.333 Y16.643 E2.97676
G1 X98.909 Y16.914 E3.00112
G1 X99.447 Y17.255 E3.0255
G1 X100.055 Y17.773 E3.05606
G1 X100.579 Y18.354 E3.08601
G1 X100.937 Y18.881 E3.11039
G1 X101.226 Y19.448 E3.13474
G1 X101.442 Y20.047 E3.15911
G1 X101.581 Y20.669 E3.1835
G1 X101.644 Y21.465 E3.21406
G1 X101.644 Y56.591 E4.55833
G1 X101.604 Y57.227 E4.58272
G1 X101.485 Y57.852 E4.60707
G1 X101.288 Y58.458 E4.63145
G1 X101.017 Y59.034 E4.65581
G1 X100.676 Y59.572 E4.68019
G1 X100.158 Y60.18 E4.71076
G1 X99.577 Y60.704 E4.7407
G1 X99.462 Y60.782 E4.74602
G1 X99.579 Y60.915 E4.7528
G1 X99.937 Y61.442 E4.77718
G1 X100.226 Y62.009 E4.80153
G1 X100.442 Y62.608 E4.8259
G1 X100.581 Y63.23 E4.85029
G1 X100.644 Y64.026 E4.88085
G1 X100.644 Y99.154 E6.2252
G1 X100.604 Y99.79 E6.24959
G1 X100.485 Y100.415 E6.27393
G1 X100.288 Y101.021 E6.29832
G1 X100.017 Y101.597 E6.32268
G1 X99.676 Y102.135 E6.34706
G1 X99.158 Y102.743 E6.37763
G1 X98.577 Y103.267 E6.40757
G1 X98.05 Y103.625 E6.43195
G1 X97.483 Y103.914 E6.45631
G1 X96.884 Y104.13 E6.48067
G1 X96.262 Y104.269 E6.50507
G1 X95.466 Y104.332 E6.53562
G1 X23.722 Y104.332 E9.28126
G1 X23.086 Y104.292 E9.30565
G1 X22.461 Y104.173 E9.33
G1 X21.855 Y103.976 E9.35438
G1 X21.279 Y103.705 E9.37875
G1 X20.741 Y103.364 E9.40312
G1 X20.133 Y102.846 E9.43369
G1 X19.609 Y102.265 E9.46363
G1 X19.251 Y101.738 E9.48801
G1 X18.962 Y101.171 E9.51237
G1 X18.746 Y100.572 E9.53674
G1 X18.607 Y99.95 E9.56113
G1 X18.544 Y99.154 E9.59169
G1 X18.544 Y64.026 E10.93603
G1 X18.584 Y63.39 E10.96042
G1 X18.703 Y62.765 E10.98477
G1 X18.9 Y62.159 E11.00916
G1 X19.171 Y61.583 E11.03352
G1 X19.512 Y61.045 E11.05789
G1 X20.03 Y60.437 E11.08846
G1 X20.611 Y59.913 E11.1184
G1 X20.726 Y59.835 E11.12372
G1 X20.609 Y59.702 E11.1305
G1 X20.251 Y59.175 E11.15488
G1 X19.962 Y58.608 E11.17924
G1 X19.746 Y58.009 E11.20361
G1 X19.607 Y57.387 E11.228
G1 X19.544 Y56.591 E11.25856
G1 X19.544 Y21.465 E12.60283
G1 X19.584 Y20.829 E12.62721
G1 X19.703 Y20.204 E12.65156
G1 X19.9 Y19.598 E12.67595
G1 X20.171 Y19.022 E12.70031
G1 X20.512 Y18.484 E12.72469
G1 X20.58 Y18.404 E12.7287
G0 F1620 X21.03 Y17.876
G0 F4320 X21.278 Y18.124
G1 F1800 X21.843 Y17.616 E12.75778
G1 X22.353 Y17.274 E12.78128
G1 X22.904 Y17.001 E12.80481
G1 X23.485 Y16.802 E12.82832
G1 X24.088 Y16.68 E12.85186
G1 X24.722 Y16.637 E12.87618
G1 X96.466 Y16.637 E15.62182
G1 X97.079 Y16.677 E15.64533
G1 X97.682 Y16.796 E15.66885
G1 X98.264 Y16.993 E15.69237
G1 X98.816 Y17.263 E15.71588
G1 X99.328 Y17.603 E15.7394
G1 X99.807 Y18.021 E15.76373
G1 X100.315 Y18.586 E15.79281
G1 X100.657 Y19.096 E15.81631
G1 X100.93 Y19.647 E15.83984
G1 X101.129 Y20.228 E15.86335
G1 X101.251 Y20.831 E15.88689
G1 X101.294 Y21.465 E15.91121
G1 X101.294 Y56.591 E17.25548
G1 X101.254 Y57.204 E17.27899
G1 X101.135 Y57.807 E17.30251
G1 X100.938 Y58.389 E17.32602
G1 X100.668 Y58.941 E17.34954
G1 X100.328 Y59.453 E17.37306
G1 X99.91 Y59.932 E17.39739
G1 X99.345 Y60.44 E17.42647
G1 X98.936 Y60.714 E17.44531
G1 X99.315 Y61.147 E17.46733
G1 X99.657 Y61.657 E17.49083
G1 X99.93 Y62.208 E17.51436
G1 X100.129 Y62.789 E17.53787
G1 X100.251 Y63.392 E17.56141
G1 X100.294 Y64.026 E17.58573
G1 X100.294 Y99.154 E18.93008
G1 X100.254 Y99.767 E18.95359
G1 X100.135 Y100.37 E18.97711
G1 X99.938 Y100.952 E19.00062
G1 X99.668 Y101.504 E19.02414
G1 X99.328 Y102.016 E19.04766
G1 X98.91 Y102.495 E19.07199
G1 X98.345 Y103.003 E19.10107
G1 X97.835 Y103.345 E19.12457
G1 X97.284 Y103.618 E19.1481
G1 X96.703 Y103.817 E19.1716
G1 X96.1 Y103.939 E19.19515
G1 X95.466 Y103.982 E19.21947
G1 X23.722 Y103.982 E21.96511
G1 X23.109 Y103.942 E21.98862
G1 X22.506 Y103.823 E22.01214
G1 X21.924 Y103.626 E22.03565
G1 X21.372 Y103.356 E22.05917
G1 X20.86 Y103.016 E22.08269
G1 X20.381 Y102.598 E22.10702
G1 X19.873 Y102.033 E22.1361
G1 X19.531 Y101.523 E22.1596
G1 X19.258 Y100.972 E22.18313
G1 X19.059 Y100.391 E22.20663
G1 X18.937 Y99.788 E22.23018
G1 X18.894 Y99.154 E22.2545
G1 X18.894 Y64.026 E23.59884
G1 X18.934 Y63.413 E23.62235
G1 X19.053 Y62.81 E23.64587
G1 X19.25 Y62.228 E23.66939
G1 X19.52 Y61.676 E23.6929
G1 X19.86 Y61.164 E23.71643
G1 X20.278 Y60.685 E23.74075
G1 X20.843 Y60.177 E23.76983
G1 X21.252 Y59.903 E23.78867
G1 X20.873 Y59.47 E23.81069
G1 X20.531 Y58.96 E23.83419
G1 X20.258 Y58.409 E23.85773
G1 X20.059 Y57.828 E23.88123
G1 X19.937 Y57.225 E23.90477
G1 X19.894 Y56.591 E23.92909
G1 X19.894 Y21.465 E25.27336
G1 X19.934 Y20.852 E25.29687
G1 X20.053 Y20.249 E25.32039
G1 X20.25 Y19.667 E25.34391
G1 X20.52 Y19.115 E25.36743
G1 X20.828 Y18.652 E25.38871
G0 F1620 X20.86 Y18.603
G0 X21.278 Y18.124
G0 F4320 X21.628 Y18.268
G1 F1800 X22.074 Y17.88 E25.41133
G1 X22.568 Y17.554 E25.43398
G1 X23.101 Y17.299 E25.45659
G1 X23.663 Y17.117 E25.4792
G1 X24.245 Y17.013 E25.50183
G1 X24.722 Y16.987 E25.52011
G1 X96.466 Y16.987 E28.26575
G1 X97.056 Y17.027 E28.28838
G1 X97.635 Y17.146 E28.311
G1 X98.193 Y17.342 E28.33363
G1 X98.719 Y17.612 E28.35626
G1 X99.204 Y17.95 E28.37888
G1 X99.663 Y18.371 E28.40272
G1 X100.051 Y18.817 E28.42534
G1 X100.377 Y19.311 E28.44799
G1 X100.632 Y19.844 E28.47061
G1 X100.814 Y20.406 E28.49321
G1 X100.918 Y20.988 E28.51584
G1 X100.944 Y21.465 E28.53412
G1 X100.944 Y56.591 E29.87839
G1 X100.904 Y57.181 E29.90102
G1 X100.785 Y57.76 E29.92364
G1 X100.589 Y58.318 E29.94628
G1 X100.319 Y58.844 E29.96891
G1 X99.981 Y59.329 E29.99153
G1 X99.56 Y59.788 E30.01536
G1 X99.114 Y60.176 E30.03799
G1 X98.62 Y60.502 E30.06064
G1 X98.343 Y60.635 E30.0724
G1 X98.663 Y60.932 E30.08911
G1 X99.051 Y61.378 E30.11173
G1 X99.377 Y61.872 E30.13438
G1 X99.632 Y62.405 E30.15699
G1 X99.814 Y62.967 E30.1796
G1 X99.918 Y63.549 E30.20223
G1 X99.944 Y64.026 E30.22051
G1 X99.944 Y99.154 E31.56485
G1 X99.904 Y99.744 E31.58749
G1 X99.785 Y100.323 E31.61011
G1 X99.589 Y100.881 E31.63274
G1 X99.319 Y101.407 E31.65537
G1 X98.981 Y101.892 E31.67799
G1 X98.56 Y102.351 E31.70183
G1 X98.114 Y102.739 E31.72445
G1 X97.62 Y103.065 E31.7471
G1 X97.087 Y103.32 E31.76971
G1 X96.525 Y103.502 E31.79232
G1 X95.943 Y103.606 E31.81495
G1 X95.466 Y103.632 E31.83323
G1 X23.722 Y103.632 E34.57887
G1 X23.132 Y103.592 E34.6015
G1 X22.553 Y103.473 E34.62412
G1 X21.995 Y103.277 E34.64675
G1 X21.469 Y103.007 E34.66938
G1 X20.984 Y102.669 E34.692
G1 X20.525 Y102.248 E34.71584
G1 X20.137 Y101.802 E34.73846
G1 X19.811 Y101.308 E34.76111
G1 X19.556 Y100.775 E34.78373
G1 X19.374 Y100.213 E34.80633
G1 X19.27 Y99.631 E34.82896
G1 X19.244 Y99.154 E34.84724
G1 X19.244 Y64.026 E36.19159
G1 X19.284 Y63.436 E36.21422
G1 X19.403 Y62.857 E36.23684
G1 X19.599 Y62.299 E36.25947
G1 X19.869 Y61.773 E36.2821
G1 X20.207 Y61.288 E36.30473
G1 X20.628 Y60.829 E36.32856
G1 X21.074 Y60.441 E36.35118
G1 X21.568 Y60.115 E36.37384
G1 X21.845 Y59.982 E36.3856
G1 X21.525 Y59.685 E36.4023
G1 X21.137 Y59.239 E36.42493
G1 X20.811 Y58.745 E36.44758
G1 X20.556 Y58.212 E36.47019
G1 X20.374 Y57.65 E36.4928
G1 X20.27 Y57.068 E36.51542
G1 X20.244 Y56.591 E36.5337
G1 X20.244 Y21.465 E37.87797
G1 X20.284 Y20.875 E37.90061
G1 X20.403 Y20.296 E37.92323
G1 X20.599 Y19.738 E37.94586
G1 X20.869 Y19.212 E37.96849
G1 X21.166 Y18.786 E37.98836
G0 F1620 X21.207 Y18.727
G0 X21.628 Y18.268
G0 F4320 X21.876 Y18.516
G1 F1800 X22.304 Y18.144 E38.01006
G1 X22.78 Y17.836 E38.03176
G1 X23.295 Y17.598 E38.05347
G1 X23.838 Y17.435 E38.07517
G1 X24.399 Y17.35 E38.09688
G1 X24.722 Y17.337 E38.10926
G1 X96.466 Y17.337 E40.85489
G1 X97.032 Y17.377 E40.87661
G1 X97.586 Y17.496 E40.89829
G1 X98.118 Y17.692 E40.91999
G1 X98.618 Y17.96 E40.9417
G1 X99.074 Y18.297 E40.9634
G1 X99.415 Y18.619 E40.98135
G1 X99.787 Y19.047 E41.00305
G1 X100.095 Y19.523 E41.02475
G1 X100.333 Y20.038 E41.04646
G1 X100.496 Y20.581 E41.06816
G1 X100.581 Y21.142 E41.08987
G1 X100.594 Y21.465 E41.10224
G1 X100.594 Y56.591 E42.44651
G1 X100.554 Y57.157 E42.46823
G1 X100.435 Y57.711 E42.48991
G1 X100.239 Y58.243 E42.51161
G1 X99.971 Y58.743 E42.53332
G1 X99.634 Y59.199 E42.55502
G1 X99.312 Y59.54 E42.57297
G1 X98.884 Y59.912 E42.59467
G1 X98.408 Y60.22 E42.61637
G1 X97.893 Y60.458 E42.63808
G1 X97.637 Y60.535 E42.64831
G1 X98.074 Y60.858 E42.66911
G1 X98.415 Y61.18 E42.68706
G1 X98.787 Y61.608 E42.70876
G1 X99.095 Y62.084 E42.73046
G1 X99.333 Y62.599 E42.75217
G1 X99.496 Y63.142 E42.77386
G1 X99.581 Y63.703 E42.79558
G1 X99.594 Y64.026 E42.80795
G1 X99.594 Y99.154 E44.1523
G1 X99.554 Y99.72 E44.17401
G1 X99.435 Y100.274 E44.1957
G1 X99.239 Y100.806 E44.21739
G1 X98.971 Y101.306 E44.2391
G1 X98.634 Y101.762 E44.2608
G1 X98.312 Y102.103 E44.27875
G1 X97.884 Y102.475 E44.30045
G1 X97.408 Y102.783 E44.32215
G1 X96.893 Y103.021 E44.34386
G1 X96.35 Y103.184 E44.36556
G1 X95.789 Y103.269 E44.38727
G1 X95.466 Y103.282 E44.39965
G1 X23.722 Y103.282 E47.14528
G1 X23.156 Y103.242 E47.167
G1 X22.602 Y103.123 E47.18868
G1 X22.07 Y102.927 E47.21038
G1 X21.57 Y102.659 E47.23209
G1 X21.114 Y102.322 E47.25379
G1 X20.773 Y102 E47.27174
G1 X20.401 Y101.572 E47.29344
G1 X20.093 Y101.096 E47.31514
G1 X19.855 Y100.581 E47.33685
G1 X19.692 Y100.038 E47.35855
G1 X19.607 Y99.477 E47.38026
G1 X19.594 Y99.154 E47.39263
G1 X19.594 Y64.026 E48.73698
G1 X19.634 Y63.46 E48.7587
G1 X19.753 Y62.906 E48.78038
G1 X19.949 Y62.374 E48.80208
G1 X20.217 Y61.874 E48.82379
G1 X20.554 Y61.418 E48.84549
G1 X20.876 Y61.077 E48.86344
G1 X21.304 Y60.705 E48.88514
G1 X21.78 Y60.397 E48.90684
G1 X22.295 Y60.159 E48.92855
G1 X22.551 Y60.082 E48.93878
G1 X22.114 Y59.759 E48.95957
G1 X21.773 Y59.437 E48.97752
G1 X21.401 Y59.009 E48.99923
G1 X21.093 Y58.533 E49.02092
G1 X20.855 Y58.018 E49.04263
G1 X20.692 Y57.475 E49.06433
G1 X20.607 Y56.914 E49.08605
G1 X20.594 Y56.591 E49.09842
G1 X20.594 Y21.465 E50.44269
G1 X20.634 Y20.899 E50.4644
G1 X20.753 Y20.345 E50.48609
G1 X20.949 Y19.813 E50.50778
G1 X21.217 Y19.313 E50.52949
G1 X21.421 Y19.037 E50.54263
G0 F1620 X21.554 Y18.857
G0 X21.876 Y18.516
G0 F4320 X22.02 Y18.866
G1 F1800 X22.534 Y18.41 E50.56893
G1 X22.992 Y18.12 E50.58967
G1 X23.487 Y17.901 E50.61039
G1 X24.01 Y17.757 E50.63115
G1 X24.722 Y17.687 E50.65853
G1 X96.466 Y17.687 E53.40416
G1 X97.006 Y17.727 E53.42489
G1 X97.535 Y17.846 E53.44564
G1 X98.04 Y18.041 E53.46635
G1 X98.512 Y18.309 E53.48713
G1 X99.065 Y18.763 E53.51451
G1 X99.521 Y19.277 E53.5408
G1 X99.811 Y19.735 E53.56155
G1 X100.03 Y20.23 E53.58226
G1 X100.174 Y20.753 E53.60302
G1 X100.244 Y21.465 E53.6304
G1 X100.244 Y56.591 E54.97467
G1 X100.204 Y57.131 E54.9954
G1 X100.085 Y57.66 E55.01615
G1 X99.89 Y58.165 E55.03686
G1 X99.622 Y58.637 E55.05764
G1 X99.168 Y59.19 E55.08502
G1 X98.654 Y59.646 E55.11131
G1 X98.196 Y59.936 E55.13206
G1 X97.701 Y60.155 E55.15278
G1 X97.178 Y60.299 E55.17354
G1 X96.466 Y60.369 E55.20091
G1 X96.366 Y60.369 E55.20474
G1 X96.535 Y60.407 E55.21137
G1 X97.04 Y60.602 E55.23209
G1 X97.512 Y60.87 E55.25286
G1 X98.065 Y61.324 E55.28024
G1 X98.521 Y61.838 E55.30654
G1 X98.811 Y62.296 E55.32728
G1 X99.03 Y62.791 E55.348
G1 X99.174 Y63.314 E55.36876
G1 X99.244 Y64.026 E55.39614
G1 X99.244 Y99.154 E56.74048
G1 X99.204 Y99.694 E56.76121
G1 X99.085 Y100.223 E56.78196
G1 X98.89 Y100.728 E56.80267
G1 X98.622 Y101.2 E56.82345
G1 X98.168 Y101.753 E56.85083
G1 X97.654 Y102.209 E56.87712
G1 X97.196 Y102.499 E56.89787
G1 X96.701 Y102.718 E56.91859
G1 X96.178 Y102.862 E56.93935
G1 X95.466 Y102.932 E56.96672
G1 X23.722 Y102.932 E59.71236
G1 X23.182 Y102.892 E59.73309
G1 X22.653 Y102.773 E59.75384
G1 X22.148 Y102.578 E59.77455
G1 X21.676 Y102.31 E59.79533
G1 X21.123 Y101.856 E59.82271
G1 X20.667 Y101.342 E59.849
G1 X20.377 Y100.884 E59.86975
G1 X20.158 Y100.389 E59.89046
G1 X20.014 Y99.866 E59.91122
G1 X19.944 Y99.154 E59.9386
G1 X19.944 Y64.026 E61.28295
G1 X19.984 Y63.486 E61.30367
G1 X20.103 Y62.957 E61.32442
G1 X20.298 Y62.452 E61.34514
G1 X20.566 Y61.98 E61.36591
G1 X21.02 Y61.427 E61.39329
G1 X21.534 Y60.971 E61.41959
G1 X21.992 Y60.681 E61.44034
G1 X22.487 Y60.462 E61.46105
G1 X23.01 Y60.318 E61.48181
G1 X23.722 Y60.248 E61.50919
G1 X23.822 Y60.248 E61.51302
G1 X23.653 Y60.21 E61.51965
G1 X23.148 Y60.015 E61.54036
G1 X22.676 Y59.747 E61.56114
G1 X22.123 Y59.293 E61.58852
G1 X21.667 Y58.779 E61.61481
G1 X21.377 Y58.321 E61.63556
G1 X21.158 Y57.826 E61.65627
G1 X21.014 Y57.303 E61.67703
G1 X20.944 Y56.591 E61.70441
G1 X20.944 Y21.465 E63.04868
G1 X20.984 Y20.925 E63.06941
G1 X21.103 Y20.396 E63.09016
G1 X21.298 Y19.891 E63.11087
G1 X21.566 Y19.419 E63.13165
G1 X21.58 Y19.402 E63.13249
G0 F1620 X22.02 Y18.866
G0 F4320 X22.268 Y19.114
G1 F1800 X22.762 Y18.676 E63.15776
G1 X23.201 Y18.405 E63.1775
G1 X23.676 Y18.206 E63.19721
G1 X24.177 Y18.082 E63.21696
G1 X24.722 Y18.037 E63.23789
G1 X96.466 Y18.037 E65.98353
G1 X96.98 Y18.077 E66.00326
G1 X97.481 Y18.196 E66.02296
G1 X97.958 Y18.391 E66.04268
G1 X98.4 Y18.657 E66.06243
G1 X98.817 Y19.011 E66.08336
G1 X99.255 Y19.505 E66.10863
G1 X99.526 Y19.944 E66.12837
G1 X99.725 Y20.419 E66.14808
G1 X99.849 Y20.92 E66.16783
G1 X99.894 Y21.465 E66.18876
G1 X99.894 Y56.591 E67.53303
G1 X99.854 Y57.105 E67.55276
G1 X99.735 Y57.606 E67.57247
G1 X99.54 Y58.083 E67.59219
G1 X99.274 Y58.525 E67.61193
G1 X98.92 Y58.942 E67.63286
G1 X98.426 Y59.38 E67.65813
G1 X97.987 Y59.651 E67.67787
G1 X97.512 Y59.85 E67.69758
G1 X97.011 Y59.974 E67.71733
G1 X96.466 Y60.019 E67.73826
G1 X24.722 Y60.019 E70.4839
G1 X24.208 Y59.979 E70.50363
G1 X23.707 Y59.86 E70.52334
G1 X23.23 Y59.665 E70.54306
G1 X22.788 Y59.399 E70.5628
G1 X22.371 Y59.045 E70.58374
G1 X21.933 Y58.551 E70.609
G1 X21.662 Y58.112 E70.62875
G1 X21.463 Y57.637 E70.64845
G1 X21.339 Y57.136 E70.66821
G1 X21.294 Y56.591 E70.68913
G1 X21.294 Y21.465 E72.0334
G1 X21.334 Y20.951 E72.05313
G1 X21.453 Y20.45 E72.07284
G1 X21.648 Y19.973 E72.09256
G1 X21.838 Y19.658 E72.10664
G0 F1620 X21.914 Y19.531
G0 X22.268 Y19.114
G0 F4320 X22.618 Y19.258
G1 F1800 X22.99 Y18.943 E72.1253
G1 X23.408 Y18.693 E72.14393
G1 X23.862 Y18.514 E72.16261
G1 X24.338 Y18.412 E72.18124
G1 X24.722 Y18.387 E72.19597
G1 X96.466 Y18.387 E74.94161
G1 X96.952 Y18.427 E74.96027
G1 X97.425 Y18.546 E74.97893
G1 X97.872 Y18.74 E74.99758
G1 X98.281 Y19.005 E75.01623
G1 X98.673 Y19.361 E75.0365
G1 X98.988 Y19.733 E75.05515
G1 X99.238 Y20.151 E75.07379
G1 X99.417 Y20.605 E75.09247
G1 X99.519 Y21.081 E75.1111
G1 X99.544 Y21.465 E75.12583
G1 X99.544 Y56.591 E76.4701
G1 X99.504 Y57.077 E76.48876
G1 X99.385 Y57.55 E76.50742
G1 X99.191 Y57.997 E76.52607
G1 X98.926 Y58.406 E76.54472
G1 X98.57 Y58.798 E76.56499
G1 X98.198 Y59.113 E76.58364
G1 X97.78 Y59.363 E76.60228
G1 X97.326 Y59.542 E76.62096
G1 X96.85 Y59.644 E76.63959
G1 X96.466 Y59.669 E76.65432
G1 X24.722 Y59.669 E79.39995
G1 X24.236 Y59.629 E79.41862
G1 X23.763 Y59.51 E79.43728
G1 X23.316 Y59.316 E79.45593
G1 X22.907 Y59.051 E79.47458
G1 X22.515 Y58.695 E79.49485
G1 X22.2 Y58.323 E79.5135
G1 X21.95 Y57.905 E79.53214
G1 X21.771 Y57.451 E79.55082
G1 X21.669 Y56.975 E79.56945
G1 X21.644 Y56.591 E79.58417
G1 X21.644 Y21.465 E80.92844
G1 X21.684 Y20.979 E80.94711
G1 X21.803 Y20.506 E80.96577
G1 X21.997 Y20.059 E80.98442
G1 X22.173 Y19.788 E80.99679
G0 F1620 X22.262 Y19.65
