;FLAVOR:Marlin
;TIME:18522
;Filament used: 9.40822m
;Layer height: 0.13125
;MINX:14.731
;MINY:12.95
;MINZ:0.263
;MAXX:105.269
;MAXY:107.05
;MAXZ:25.022
;Generated with Cura_SteamEngine 4.6.1
M140 S65
M105
M190 S65
M104 S205
M105
M109 S205
M82 ;absolute extrusion mode
G21;(metric values)
G90;(absolute positioning)
M82;(set extruder to absolute mode)
M107;(start with the fan off)
G28;(Home the printer)
G92 E0;(Reset the extruder to 0)
G0 Z5 E5 F500;(Move up and prime the nozzle)
G0 X-1 Z0;(Move outside the printable area)
G1 Y60 E8 F500;(Draw a priming/wiping line to the rear)
G1 X-1;(Move a little closer to the print area)
G1 Y10 E16 F500;(draw more priming/wiping)
G1 E15 F250;(Small retract)
G92 E0;(Zero the extruder)
G92 E0
G92 E0
G1 F2400 E-2.5
;LAYER_COUNT:190
;LAYER:0
M107
G0 F4320 X16.2 Y14.557 Z0.263
;TYPE:SKIRT
G1 F2400 E0
G1 F1800 X16.778 Y14.03 E0.02993
G1 X17.303 Y13.67 E0.0543
G1 X17.869 Y13.378 E0.07867
G1 X18.467 Y13.159 E0.10304
G1 X19.087 Y13.017 E0.12738
G1 X19.908 Y12.95 E0.15891
G1 X99.653 Y12.95 E3.21074
G1 X100.289 Y12.99 E3.23513
G1 X100.914 Y13.109 E3.25948
G1 X101.52 Y13.306 E3.28387
G1 X102.096 Y13.577 E3.30823
G1 X102.634 Y13.918 E3.3326
G1 X103.242 Y14.436 E3.36317
G1 X103.698 Y14.896 E3.38796
G1 X104.218 Y15.478 E3.41783
G1 X104.573 Y16.006 E3.44218
G1 X104.86 Y16.575 E3.46657
G1 X105.073 Y17.175 E3.49093
G1 X105.209 Y17.798 E3.51534
G1 X105.268 Y18.569 E3.54493
G1 X105.268 Y21.309 E3.64979
G1 X105.228 Y21.945 E3.67418
G1 X105.109 Y22.57 E3.69852
G1 X104.912 Y23.176 E3.72291
G1 X104.831 Y23.348 E3.73019
G1 X104.831 Y48.047 E4.67542
G1 X104.914 Y48.479 E4.69225
G1 X104.956 Y49.128 E4.71714
G1 X104.956 Y51.872 E4.82215
G1 X104.916 Y52.508 E4.84654
G1 X104.797 Y53.133 E4.87089
G1 X104.6 Y53.739 E4.89527
G1 X104.329 Y54.315 E4.91964
G1 X103.988 Y54.853 E4.94401
G1 X103.47 Y55.461 E4.97458
G1 X102.889 Y55.985 E5.00452
G1 X102.362 Y56.343 E5.0289
G1 X101.795 Y56.632 E5.05326
G1 X101.196 Y56.848 E5.07763
G1 X100.574 Y56.987 E5.10202
G1 X99.778 Y57.05 E5.13258
G1 X19.915 Y57.05 E8.18893
G1 X19.279 Y57.01 E8.21332
G1 X18.654 Y56.891 E8.23767
G1 X18.048 Y56.694 E8.26205
G1 X17.472 Y56.423 E8.28641
G1 X16.934 Y56.082 E8.31079
G1 X16.344 Y55.581 E8.34041
G1 X15.817 Y55.003 E8.37035
G1 X15.457 Y54.478 E8.39471
G1 X15.165 Y53.912 E8.41908
G1 X14.946 Y53.314 E8.44345
G1 X14.804 Y52.694 E8.46779
G1 X14.737 Y51.884 E8.4989
G1 X14.731 Y48.997 E8.60938
G1 X14.731 Y18.128 E9.79074
G1 X14.771 Y17.492 E9.81513
G1 X14.89 Y16.867 E9.83948
G1 X15.087 Y16.261 E9.86386
G1 X15.358 Y15.685 E9.88822
G1 X15.699 Y15.147 E9.9126
G1 X15.751 Y15.086 E9.91567
G0 F1620 X16.2 Y14.557
G0 F4320 X16.449 Y14.803
G1 F1800 X17.011 Y14.293 E9.94471
G1 X17.519 Y13.948 E9.96821
G1 X18.069 Y13.673 E9.99174
G1 X18.649 Y13.471 E10.01525
G1 X19.251 Y13.346 E10.03878
G1 X19.908 Y13.3 E10.06398
G1 X99.653 Y13.3 E13.11582
G1 X100.266 Y13.34 E13.13933
G1 X100.869 Y13.459 E13.16285
G1 X101.451 Y13.656 E13.18637
G1 X102.003 Y13.926 E13.20988
G1 X102.515 Y14.266 E13.2334
G1 X102.994 Y14.684 E13.25773
G1 X103.449 Y15.142 E13.28244
G1 X103.954 Y15.708 E13.31147
G1 X104.293 Y16.22 E13.33497
G1 X104.563 Y16.772 E13.35849
G1 X104.759 Y17.355 E13.38202
G1 X104.878 Y17.958 E13.40555
G1 X104.918 Y18.569 E13.42898
G1 X104.918 Y21.309 E13.53384
G1 X104.878 Y21.922 E13.55735
G1 X104.759 Y22.525 E13.58087
G1 X104.562 Y23.107 E13.60438
G1 X104.481 Y23.273 E13.61145
G1 X104.481 Y48.047 E14.55955
G1 X104.582 Y48.653 E14.58306
G1 X104.606 Y49.128 E14.60127
G1 X104.606 Y51.872 E14.70628
G1 X104.566 Y52.485 E14.72979
G1 X104.447 Y53.088 E14.75331
G1 X104.25 Y53.67 E14.77682
G1 X103.98 Y54.222 E14.80034
G1 X103.64 Y54.734 E14.82386
G1 X103.222 Y55.213 E14.84819
G1 X102.657 Y55.721 E14.87727
G1 X102.147 Y56.063 E14.90077
G1 X101.596 Y56.336 E14.9243
G1 X101.015 Y56.535 E14.9478
G1 X100.412 Y56.657 E14.97135
G1 X99.778 Y56.7 E14.99567
G1 X19.915 Y56.7 E18.05202
G1 X19.302 Y56.66 E18.07553
G1 X18.699 Y56.541 E18.09905
G1 X18.117 Y56.344 E18.12257
G1 X17.565 Y56.074 E18.14608
G1 X17.053 Y55.734 E18.1696
G1 X16.59 Y55.332 E18.19307
G1 X16.08 Y54.77 E18.22211
G1 X15.735 Y54.262 E18.24561
G1 X15.46 Y53.712 E18.26915
G1 X15.258 Y53.132 E18.29265
G1 X15.133 Y52.53 E18.31618
G1 X15.087 Y51.883 E18.341
G1 X15.081 Y48.996 E18.45149
G1 X15.081 Y18.128 E19.63281
G1 X15.121 Y17.515 E19.65632
G1 X15.24 Y16.912 E19.67984
G1 X15.437 Y16.33 E19.70335
G1 X15.707 Y15.778 E19.72687
G1 X16.003 Y15.333 E19.74732
G0 F1620 X16.047 Y15.266
G0 X16.449 Y14.803
G0 F4320 X16.799 Y14.947
G1 F1800 X17.243 Y14.555 E19.76999
G1 X17.735 Y14.228 E19.7926
G1 X18.267 Y13.969 E19.81524
G1 X18.829 Y13.785 E19.83787
G1 X19.41 Y13.678 E19.86048
G1 X19.908 Y13.65 E19.87957
G1 X99.653 Y13.65 E22.93141
G1 X100.243 Y13.69 E22.95404
G1 X100.822 Y13.809 E22.97666
G1 X101.38 Y14.005 E22.99929
G1 X101.906 Y14.275 E23.02192
G1 X102.391 Y14.613 E23.04454
G1 X102.85 Y15.034 E23.06838
G1 X102.994 Y15.199 E23.07676
G1 X103.302 Y15.491 E23.093
G1 X103.688 Y15.938 E23.1156
G1 X104.011 Y16.433 E23.13822
G1 X104.264 Y16.968 E23.16087
G1 X104.443 Y17.531 E23.18348
G1 X104.544 Y18.114 E23.20612
G1 X104.568 Y18.569 E23.22356
G1 X104.568 Y21.309 E23.32842
G1 X104.528 Y21.899 E23.35105
G1 X104.409 Y22.478 E23.37367
G1 X104.213 Y23.036 E23.39631
G1 X104.131 Y23.196 E23.40319
G1 X104.131 Y48.118 E24.35695
G1 X104.164 Y48.236 E24.36164
G1 X104.245 Y48.822 E24.38428
G1 X104.256 Y51.872 E24.501
G1 X104.216 Y52.462 E24.52364
G1 X104.097 Y53.041 E24.54626
G1 X103.901 Y53.599 E24.56889
G1 X103.631 Y54.125 E24.59152
G1 X103.293 Y54.61 E24.61414
G1 X102.872 Y55.069 E24.63798
G1 X102.426 Y55.457 E24.6606
G1 X101.932 Y55.783 E24.68325
G1 X101.399 Y56.038 E24.70586
G1 X100.837 Y56.22 E24.72847
G1 X100.255 Y56.324 E24.7511
G1 X99.778 Y56.35 E24.76938
G1 X19.915 Y56.35 E27.82573
G1 X19.325 Y56.31 E27.84836
G1 X18.746 Y56.191 E27.87098
G1 X18.188 Y55.995 E27.89362
G1 X17.662 Y55.725 E27.91624
G1 X17.177 Y55.387 E27.93887
G1 X16.734 Y54.982 E27.96184
G1 X16.342 Y54.538 E27.98451
G1 X16.015 Y54.046 E28.00711
G1 X15.756 Y53.514 E28.02976
G1 X15.572 Y52.952 E28.05239
G1 X15.465 Y52.371 E28.075
G1 X15.437 Y51.882 E28.09374
G1 X15.431 Y48.995 E28.20423
G1 X15.431 Y18.128 E29.38551
G1 X15.471 Y17.538 E29.40814
G1 X15.59 Y16.959 E29.43076
G1 X15.786 Y16.401 E29.45339
G1 X16.056 Y15.875 E29.47602
G1 X16.341 Y15.467 E29.49507
G0 F1620 X16.394 Y15.39
G0 X16.799 Y14.947
G0 F4320 X17.048 Y15.193
G1 F1800 X17.474 Y14.819 E29.51676
G1 X17.949 Y14.509 E29.53847
G1 X18.463 Y14.268 E29.56019
G1 X19.005 Y14.103 E29.58188
G1 X19.565 Y14.015 E29.60357
G1 X19.908 Y14 E29.61671
G1 X99.653 Y14 E32.66855
G1 X100.219 Y14.04 E32.69026
G1 X100.773 Y14.159 E32.71194
G1 X101.305 Y14.355 E32.73364
G1 X101.805 Y14.623 E32.75535
G1 X102.261 Y14.96 E32.77705
G1 X102.602 Y15.282 E32.795
G1 X102.803 Y15.514 E32.80675
G1 X103.053 Y15.737 E32.81957
G1 X103.423 Y16.167 E32.84128
G1 X103.728 Y16.645 E32.86298
G1 X103.964 Y17.161 E32.88469
G1 X104.124 Y17.705 E32.90639
G1 X104.207 Y18.266 E32.9281
G1 X104.218 Y21.309 E33.04455
G1 X104.178 Y21.875 E33.06627
G1 X104.059 Y22.429 E33.08795
G1 X103.863 Y22.961 E33.10965
G1 X103.781 Y23.114 E33.11629
G1 X103.781 Y48.174 E34.07534
G1 X103.843 Y48.421 E34.08508
G1 X103.906 Y49.128 E34.11225
G1 X103.906 Y51.872 E34.21726
G1 X103.866 Y52.438 E34.23898
G1 X103.747 Y52.992 E34.26066
G1 X103.551 Y53.524 E34.28236
G1 X103.283 Y54.024 E34.30407
G1 X102.946 Y54.48 E34.32577
G1 X102.624 Y54.821 E34.34372
G1 X102.196 Y55.193 E34.36542
G1 X101.72 Y55.501 E34.38712
G1 X101.205 Y55.739 E34.40883
G1 X100.662 Y55.902 E34.43052
G1 X100.101 Y55.987 E34.45224
G1 X99.778 Y56 E34.46461
G1 X19.915 Y56 E37.52096
G1 X19.349 Y55.96 E37.54268
G1 X18.795 Y55.841 E37.56436
G1 X18.263 Y55.645 E37.58606
G1 X17.763 Y55.377 E37.60777
G1 X17.307 Y55.04 E37.62947
G1 X16.98 Y54.733 E37.64664
G1 X16.606 Y54.307 E37.66833
G1 X16.296 Y53.832 E37.69004
G1 X16.055 Y53.318 E37.71176
G1 X15.89 Y52.776 E37.73344
G1 X15.802 Y52.216 E37.75514
G1 X15.787 Y51.881 E37.76797
G1 X15.781 Y48.994 E37.87846
G1 X15.781 Y18.128 E39.0597
G1 X15.821 Y17.562 E39.08141
G1 X15.94 Y17.008 E39.1031
G1 X16.136 Y16.476 E39.1248
G1 X16.404 Y15.976 E39.14651
G1 X16.595 Y15.717 E39.15882
G0 F1620 X16.741 Y15.52
G0 X17.048 Y15.193
G0 F4320 X17.195 Y15.542
G1 F1800 X17.705 Y15.083 E39.18508
G1 X18.162 Y14.791 E39.20583
G1 X18.656 Y14.57 E39.22655
G1 X19.178 Y14.423 E39.2473
G1 X19.908 Y14.35 E39.27538
G1 X99.653 Y14.35 E42.32721
G1 X100.193 Y14.39 E42.34793
G1 X100.722 Y14.509 E42.36869
G1 X101.227 Y14.704 E42.3894
G1 X101.699 Y14.972 E42.41017
G1 X102.252 Y15.426 E42.43756
G1 X102.54 Y15.744 E42.45398
G1 X102.804 Y15.983 E42.4676
G1 X103.156 Y16.395 E42.48834
G1 X103.444 Y16.855 E42.50911
G1 X103.66 Y17.351 E42.52982
G1 X103.802 Y17.874 E42.55056
G1 X103.868 Y18.569 E42.57727
G1 X103.868 Y21.309 E42.68213
G1 X103.828 Y21.849 E42.70285
G1 X103.709 Y22.378 E42.72361
G1 X103.514 Y22.883 E42.74432
G1 X103.431 Y23.029 E42.75075
G1 X103.431 Y48.209 E43.71439
G1 X103.518 Y48.602 E43.72979
G1 X103.556 Y49.128 E43.74997
G1 X103.556 Y51.872 E43.85499
G1 X103.516 Y52.412 E43.87571
G1 X103.397 Y52.941 E43.89646
G1 X103.202 Y53.446 E43.91718
G1 X102.934 Y53.918 E43.93795
G1 X102.48 Y54.471 E43.96533
G1 X101.966 Y54.927 E43.99163
G1 X101.508 Y55.217 E44.01237
G1 X101.013 Y55.436 E44.03309
G1 X100.49 Y55.58 E44.05385
G1 X99.778 Y55.65 E44.08123
G1 X19.915 Y55.65 E47.13758
G1 X19.375 Y55.61 E47.1583
G1 X18.846 Y55.491 E47.17905
G1 X18.341 Y55.296 E47.19977
G1 X17.869 Y55.028 E47.22054
G1 X17.329 Y54.586 E47.24725
G1 X16.87 Y54.076 E47.27351
G1 X16.578 Y53.619 E47.29426
G1 X16.357 Y53.125 E47.31497
G1 X16.21 Y52.603 E47.33572
G1 X16.137 Y51.881 E47.3635
G1 X16.131 Y48.994 E47.47398
G1 X16.131 Y18.128 E48.65522
G1 X16.171 Y17.588 E48.67594
G1 X16.29 Y17.059 E48.6967
G1 X16.485 Y16.554 E48.71741
G1 X16.753 Y16.082 E48.73818
G1 X16.755 Y16.079 E48.73832
G0 F1620 X17.195 Y15.542
G0 F4320 X17.443 Y15.788
G1 F1800 X17.935 Y15.348 E48.76358
G1 X18.373 Y15.076 E48.78331
G1 X18.847 Y14.874 E48.80303
G1 X19.347 Y14.748 E48.82277
G1 X19.908 Y14.7 E48.84431
G1 X99.653 Y14.7 E51.89615
G1 X100.167 Y14.74 E51.91588
G1 X100.668 Y14.859 E51.93559
G1 X101.145 Y15.054 E51.95531
G1 X101.587 Y15.32 E51.97505
G1 X102.004 Y15.674 E51.99598
G1 X102.27 Y15.967 E52.01113
G1 X102.556 Y16.229 E52.02597
G1 X102.889 Y16.623 E52.04571
G1 X103.157 Y17.063 E52.06543
G1 X103.354 Y17.539 E52.08515
G1 X103.476 Y18.04 E52.10488
G1 X103.518 Y18.569 E52.12519
G1 X103.518 Y21.309 E52.23005
G1 X103.478 Y21.823 E52.24978
G1 X103.359 Y22.324 E52.26948
G1 X103.164 Y22.801 E52.28921
G1 X103.081 Y22.939 E52.29537
G1 X103.081 Y48.236 E53.26348
G1 X103.187 Y48.777 E53.28458
G1 X103.206 Y49.128 E53.29803
G1 X103.206 Y51.872 E53.40305
G1 X103.166 Y52.386 E53.42278
G1 X103.047 Y52.887 E53.44248
G1 X102.852 Y53.364 E53.4622
G1 X102.586 Y53.806 E53.48195
G1 X102.232 Y54.223 E53.50288
G1 X101.738 Y54.661 E53.52815
G1 X101.299 Y54.932 E53.54789
G1 X100.824 Y55.131 E53.5676
G1 X100.323 Y55.255 E53.58735
G1 X99.778 Y55.3 E53.60828
G1 X19.915 Y55.3 E56.66463
G1 X19.401 Y55.26 E56.68436
G1 X18.9 Y55.141 E56.70407
G1 X18.423 Y54.946 E56.72379
G1 X17.981 Y54.68 E56.74353
G1 X17.575 Y54.338 E56.76385
G1 X17.135 Y53.846 E56.78911
G1 X16.863 Y53.408 E56.80884
G1 X16.661 Y52.934 E56.82856
G1 X16.535 Y52.434 E56.84829
G1 X16.487 Y51.88 E56.86957
G1 X16.481 Y48.993 E56.98006
G1 X16.481 Y18.128 E58.16126
G1 X16.521 Y17.614 E58.18099
G1 X16.64 Y17.113 E58.2007
G1 X16.835 Y16.636 E58.22042
G1 X17.017 Y16.334 E58.23391
G0 F1620 X17.101 Y16.194
G0 X17.443 Y15.788
G0 F4320 X17.794 Y15.932
G1 F1800 X18.164 Y15.615 E58.25256
G1 X18.581 Y15.362 E58.27122
G1 X19.034 Y15.181 E58.28989
G1 X19.51 Y15.077 E58.30854
G1 X19.908 Y15.05 E58.3238
G1 X99.653 Y15.05 E61.37564
G1 X100.139 Y15.09 E61.3943
G1 X100.612 Y15.209 E61.41297
G1 X101.059 Y15.403 E61.43162
G1 X101.468 Y15.668 E61.45027
G1 X101.86 Y16.024 E61.47053
G1 X101.999 Y16.188 E61.47876
G1 X102.307 Y16.476 E61.4949
G1 X102.62 Y16.849 E61.51353
G1 X102.869 Y17.269 E61.53222
G1 X103.045 Y17.723 E61.55085
G1 X103.145 Y18.2 E61.5695
G1 X103.168 Y18.569 E61.58365
G1 X103.168 Y21.309 E61.68851
G1 X103.128 Y21.795 E61.70718
G1 X103.009 Y22.268 E61.72584
G1 X102.815 Y22.715 E61.74449
G1 X102.731 Y22.845 E61.75041
G1 X102.731 Y48.306 E62.7248
G1 X102.781 Y48.463 E62.73111
G1 X102.856 Y49.128 E62.75672
G1 X102.856 Y51.872 E62.86173
G1 X102.816 Y52.358 E62.8804
G1 X102.697 Y52.831 E62.89906
G1 X102.503 Y53.278 E62.91771
G1 X102.238 Y53.687 E62.93636
G1 X101.882 Y54.079 E62.95662
G1 X101.51 Y54.394 E62.97528
G1 X101.092 Y54.644 E62.99392
G1 X100.638 Y54.823 E63.0126
G1 X100.162 Y54.925 E63.03123
G1 X99.778 Y54.95 E63.04595
G1 X19.915 Y54.95 E66.1023
G1 X19.429 Y54.91 E66.12097
G1 X18.956 Y54.791 E66.13963
G1 X18.509 Y54.597 E66.15828
G1 X18.1 Y54.332 E66.17693
G1 X17.719 Y53.987 E66.1966
G1 X17.402 Y53.617 E66.21525
G1 X17.149 Y53.2 E66.23391
G1 X16.968 Y52.747 E66.25258
G1 X16.864 Y52.271 E66.27123
G1 X16.837 Y51.879 E66.28627
G1 X16.831 Y48.992 E66.39675
G1 X16.831 Y18.128 E67.57792
G1 X16.871 Y17.642 E67.59658
G1 X16.99 Y17.169 E67.61524
G1 X17.184 Y16.722 E67.63389
G1 X17.351 Y16.465 E67.64562
G0 F1620 X17.449 Y16.313
G0 X17.794 Y15.932
G0 F4320 X17.941 Y16.281
G1 F1800 X18.392 Y15.882 E67.66867
G1 X18.787 Y15.651 E67.68618
G1 X19.217 Y15.493 E67.70371
G1 X19.667 Y15.411 E67.72121
G1 X99.653 Y15.4 E70.78227
G1 X100.109 Y15.44 E70.79979
G1 X100.551 Y15.558 E70.8173
G1 X100.966 Y15.752 E70.83483
G1 X101.509 Y16.169 E70.86103
G1 X101.801 Y16.498 E70.87787
G1 X102.058 Y16.722 E70.89091
G1 X102.351 Y17.074 E70.90844
G1 X102.578 Y17.472 E70.92598
G1 X102.732 Y17.903 E70.94349
G1 X102.818 Y18.569 E70.96919
G1 X102.818 Y21.309 E71.07405
G1 X102.778 Y21.765 E71.09157
G1 X102.66 Y22.207 E71.10908
G1 X102.466 Y22.622 E71.12661
G1 X102.381 Y22.733 E71.13196
G1 X102.381 Y48.357 E72.11259
G1 X102.462 Y48.65 E72.12422
G1 X102.506 Y49.128 E72.14259
G1 X102.506 Y51.872 E72.24761
G1 X102.466 Y52.328 E72.26512
G1 X102.348 Y52.77 E72.28263
G1 X102.154 Y53.185 E72.30016
G1 X101.737 Y53.728 E72.32636
G1 X101.283 Y54.125 E72.34944
G1 X100.887 Y54.354 E72.36695
G1 X100.457 Y54.511 E72.38447
G1 X99.778 Y54.6 E72.41068
G1 X19.915 Y54.6 E75.46703
G1 X19.459 Y54.56 E75.48455
G1 X19.017 Y54.442 E75.50206
G1 X18.602 Y54.248 E75.51959
G1 X18.068 Y53.84 E75.54531
G1 X17.669 Y53.389 E75.56835
G1 X17.438 Y52.994 E75.58586
G1 X17.28 Y52.564 E75.60339
G1 X17.198 Y52.114 E75.6209
G1 X17.181 Y48.991 E75.74042
G1 X17.181 Y18.128 E76.92154
G1 X17.221 Y17.672 E76.93906
G1 X17.339 Y17.23 E76.95657
G1 X17.524 Y16.834 E76.9733
G0 F1620 X17.533 Y16.815
G0 X17.941 Y16.281
G0 F4320 X18.292 Y16.424
G1 F1800 X18.618 Y16.151 E76.98957
G1 X18.991 Y15.943 E77.00591
G1 X19.395 Y15.809 E77.0222
G1 X19.908 Y15.75 E77.04196
G1 X99.653 Y15.75 E80.0938
G1 X100.077 Y15.79 E80.1101
G1 X100.487 Y15.908 E80.12643
G1 X100.867 Y16.101 E80.14274
G1 X101.262 Y16.416 E80.16207
G1 X101.533 Y16.723 E80.17774
G1 X101.81 Y16.968 E80.1919
G1 X102.08 Y17.298 E80.20821
G1 X102.284 Y17.672 E80.22452
G1 X102.414 Y18.078 E80.24083
G1 X102.468 Y18.569 E80.25974
G1 X102.468 Y21.309 E80.3646
G1 X102.428 Y21.733 E80.38089
G1 X102.31 Y22.143 E80.39722
G1 X102.117 Y22.523 E80.41353
G1 X102.031 Y22.631 E80.41882
G1 X102.031 Y48.392 E81.40469
G1 X102.136 Y48.83 E81.42193
G1 X102.156 Y49.128 E81.43336
G1 X102.156 Y51.872 E81.53837
G1 X102.116 Y52.296 E81.55467
G1 X101.998 Y52.706 E81.57099
G1 X101.805 Y53.086 E81.5873
G1 X101.49 Y53.481 E81.60664
G1 X101.058 Y53.855 E81.62851
G1 X100.685 Y54.061 E81.64481
G1 X100.28 Y54.194 E81.66113
G1 X99.778 Y54.25 E81.68046
G1 X19.915 Y54.25 E84.73681
G1 X19.491 Y54.21 E84.75311
G1 X19.081 Y54.092 E84.76944
G1 X18.701 Y53.899 E84.78575
G1 X18.211 Y53.489 E84.8102
G1 X17.938 Y53.163 E84.82647
G1 X17.73 Y52.79 E84.84282
G1 X17.596 Y52.386 E84.85911
G1 X17.537 Y51.878 E84.87868
G1 X17.531 Y48.991 E84.98916
G1 X17.531 Y18.128 E86.17029
G1 X17.571 Y17.704 E86.18659
G1 X17.689 Y17.294 E86.20291
G1 X17.857 Y16.963 E86.21712
G0 F1620 X17.882 Y16.914
G0 X18.292 Y16.424
