;FLAVOR:Marlin
;TIME:11920
;Filament used: 6.46313m
;Layer height: 0.13125
;MINX:2.5
;MINY:9.675
;MINZ:0.263
;MAXX:117.525
;MAXY:50.325
;MAXZ:26.987
;Generated with Cura_SteamEngine 4.7.0
M140 S65
M105
M190 S65
M104 S205
M105
M109 S205
M82 ;absolute extrusion mode
G21;(metric values)
G90;(absolute positioning)
M82;(set extruder to absolute mode)
M107;(start with the fan off)
G28;(Home the printer)
G92 E0;(Reset the extruder to 0)
G0 Z5 E5 F500;(Move up and prime the nozzle)
G0 X-1 Z0;(Move outside the printable area)
G1 Y60 E8 F500;(Draw a priming/wiping line to the rear)
G1 X-1;(Move a little closer to the print area)
G1 Y10 E16 F500;(draw more priming/wiping)
G1 E15 F250;(Small retract)
G92 E0;(Zero the extruder)
G92 E0
G92 E0
G1 F2400 E-2.5
;LAYER_COUNT:205
;LAYER:0
M107
G0 F4320 X5.527 Y12.805 Z0.263
;TYPE:SKIRT
G1 F2400 E0
G1 F1800 X8.081 Y11.671 E0.10694
G1 X10.537 Y10.496 E0.21114
G1 X10.839 Y10.343 E0.22409
G1 X11.456 Y10.042 E0.25037
G1 X11.95 Y9.846 E0.2707
G1 X12.466 Y9.726 E0.29098
G1 X13.223 Y9.677 E0.32001
G1 X13.33 Y9.675 E0.32411
G1 X113.343 Y9.675 E4.1516
G1 X114.041 Y9.685 E4.17831
G1 X114.57 Y9.733 E4.19864
G1 X115.085 Y9.859 E4.21893
G1 X115.576 Y10.061 E4.23925
G1 X116.031 Y10.335 E4.25958
G1 X116.439 Y10.674 E4.27988
G1 X116.792 Y11.07 E4.30018
G1 X117.082 Y11.515 E4.32051
G1 X117.301 Y11.998 E4.3408
G1 X117.446 Y12.509 E4.36113
G1 X117.515 Y13.111 E4.38432
G1 X117.525 Y13.53 E4.40036
G1 X117.525 Y46.108 E5.64712
G1 X117.516 Y46.835 E5.67494
G1 X117.469 Y47.363 E5.69523
G1 X117.344 Y47.879 E5.71555
G1 X117.143 Y48.37 E5.73585
G1 X116.87 Y48.825 E5.75616
G1 X116.532 Y49.234 E5.77646
G1 X116.136 Y49.588 E5.79679
G1 X115.692 Y49.878 E5.81708
G1 X115.209 Y50.099 E5.83741
G1 X114.699 Y50.244 E5.8577
G1 X114.094 Y50.314 E5.88101
G1 X113.632 Y50.325 E5.8987
G1 X111.678 Y50.297 E5.97348
G1 X110.29 Y50.287 E6.0266
G1 X13.657 Y50.287 E9.72474
G1 X12.955 Y50.277 E9.75161
G1 X12.426 Y50.229 E9.77194
G1 X11.911 Y50.103 E9.79223
G1 X11.51 Y49.944 E9.80874
G1 X10.592 Y49.514 E9.84753
G1 X9.694 Y49.078 E9.88574
G1 X7.207 Y47.956 E9.99015
G1 X5.916 Y47.416 E10.04371
G1 X5.329 Y47.161 E10.0682
G1 X5.173 Y47.088 E10.07479
G1 X4.696 Y46.811 E10.0959
G1 X4.125 Y46.415 E10.12249
G1 X3.629 Y45.998 E10.14729
G1 X3.53 Y45.898 E10.15268
G1 X3.186 Y45.494 E10.17298
G1 X2.907 Y45.043 E10.19328
G1 X2.698 Y44.555 E10.21359
G1 X2.565 Y44.041 E10.23391
G1 X2.506 Y43.378 E10.25939
G1 X2.5 Y42.896 E10.27783
G1 X2.5 Y41.335 E10.33757
G1 X2.51 Y40.637 E10.36429
G1 X2.53 Y40.298 E10.37728
G1 X2.601 Y39.581 E10.40486
G1 X2.833 Y36.857 E10.50948
G1 X2.985 Y34.168 E10.61256
G1 X3.063 Y31.394 E10.71876
G1 X3.063 Y28.696 E10.82201
G1 X2.985 Y25.928 E10.92798
G1 X2.83 Y23.222 E11.03171
G1 X2.649 Y21.077 E11.11409
G1 X2.649 Y21.035 E11.1157
G1 X2.525 Y19.696 E11.16716
G1 X2.5 Y18.853 E11.19944
G1 X2.5 Y17.285 E11.25945
G1 X2.51 Y16.583 E11.28631
G1 X2.558 Y16.054 E11.30664
G1 X2.684 Y15.539 E11.32693
G1 X2.886 Y15.048 E11.34725
G1 X3.16 Y14.594 E11.36754
G1 X3.499 Y14.185 E11.38787
G1 X3.985 Y13.749 E11.41286
G1 X4.263 Y13.537 E11.42624
G1 X4.702 Y13.234 E11.44665
G1 X4.909 Y13.12 E11.4557
G0 F1620 X5.325 Y12.891
G0 X5.527 Y12.805
G0 F4320 X5.678 Y13.121
G1 F1800 X8.232 Y11.987 E11.56264
G1 X10.69 Y10.811 E11.66692
G1 X10.993 Y10.657 E11.67993
G1 X11.61 Y10.356 E11.7062
G1 X12.079 Y10.172 E11.72548
G1 X12.571 Y10.064 E11.74476
G1 X13.233 Y10.026 E11.77013
G1 X113.338 Y10.025 E15.60115
G1 X114.036 Y10.035 E15.62786
G1 X114.538 Y10.082 E15.64716
G1 X115.025 Y10.208 E15.66641
G1 X115.487 Y10.41 E15.68571
G1 X115.911 Y10.681 E15.70496
G1 X116.287 Y11.017 E15.72426
G1 X116.605 Y11.407 E15.74352
G1 X116.857 Y11.843 E15.76279
G1 X117.037 Y12.313 E15.78205
G1 X117.14 Y12.806 E15.80133
G1 X117.174 Y13.441 E15.82566
G1 X117.175 Y46.103 E17.07564
G1 X117.166 Y46.83 E17.10346
G1 X117.12 Y47.332 E17.12275
G1 X116.995 Y47.82 E17.14203
G1 X116.794 Y48.282 E17.16131
G1 X116.523 Y48.706 E17.18057
G1 X116.189 Y49.082 E17.19982
G1 X115.799 Y49.401 E17.2191
G1 X115.363 Y49.654 E17.23839
G1 X114.893 Y49.835 E17.25767
G1 X114.401 Y49.939 E17.27691
G1 X113.776 Y49.974 E17.30087
G1 X113.638 Y49.975 E17.30615
G1 X111.684 Y49.947 E17.38094
G1 X110.293 Y49.937 E17.43417
G1 X13.662 Y49.937 E21.13223
G1 X12.96 Y49.927 E21.1591
G1 X12.458 Y49.88 E21.1784
G1 X11.971 Y49.754 E21.19765
G1 X11.658 Y49.627 E21.21057
G1 X10.745 Y49.199 E21.24916
G1 X9.848 Y48.764 E21.28732
G1 X7.343 Y47.633 E21.3925
G1 X6.056 Y47.095 E21.44588
G1 X5.469 Y46.84 E21.47038
G1 X4.896 Y46.523 E21.49544
G1 X4.325 Y46.127 E21.52203
G1 X3.878 Y45.752 E21.54436
G1 X3.779 Y45.652 E21.54974
G1 X3.454 Y45.267 E21.56903
G1 X3.194 Y44.836 E21.58829
G1 X3.006 Y44.369 E21.60756
G1 X2.893 Y43.878 E21.62684
G1 X2.856 Y43.365 E21.64652
G1 X2.85 Y42.892 E21.66462
G1 X2.85 Y41.34 E21.72402
G1 X2.86 Y40.642 E21.75073
G1 X2.878 Y40.332 E21.76262
G1 X2.949 Y39.615 E21.79019
G1 X3.182 Y36.871 E21.89558
G1 X3.335 Y34.162 E21.99942
G1 X3.413 Y31.404 E22.10501
G1 X3.413 Y28.686 E22.20903
G1 X3.335 Y25.933 E22.31443
G1 X3.18 Y23.207 E22.41892
G1 X2.997 Y21.047 E22.50188
G1 X2.997 Y21.005 E22.50349
G1 X2.873 Y19.664 E22.55503
G1 X2.85 Y18.849 E22.58623
G1 X2.85 Y17.29 E22.64589
G1 X2.86 Y16.588 E22.67276
G1 X2.907 Y16.086 E22.69206
G1 X3.033 Y15.599 E22.71131
G1 X3.234 Y15.137 E22.73059
G1 X3.506 Y14.713 E22.74987
G1 X3.982 Y14.211 E22.77634
G1 X4.461 Y13.825 E22.79988
G1 X4.9 Y13.522 E22.8203
G1 X5.059 Y13.434 E22.82725
G0 F1620 X5.462 Y13.213
G0 X5.678 Y13.121
G0 F4320 X6.775 Y16.3
;TYPE:SUPPORT
G1 F1800 X8.22 Y16.3 E22.88255
G1 X8.456 Y16.539 E22.89541
G1 X8.842 Y16.7 E22.91141
G1 X12.15 Y16.7 E23.03801
G1 X12.15 Y19.3 E23.13751
G1 X6.2 Y19.299 E23.36522
G1 X6.201 Y16.7 E23.46468
G1 X6.246 Y16.7 E23.4664
G0 F1620 X6.374 Y16.7
G0 X6.775 Y16.3
G0 F4320 X6.999 Y16.44
G1 F1800 X6.999 Y19.159 E23.57046
G0 F4320 X6.34 Y18.664
G1 F1800 X12.009 Y18.664 E23.78741
G0 F4320 X11.665 Y19.159
G1 F1800 X11.665 Y16.84 E23.87616
G0 F4320 X9.332 Y16.84
G1 F1800 X9.332 Y19.159 E23.96491
G0 F4320 X12.15 Y40.75
G1 F1800 X12.15 Y43.35 E24.06441
G1 X8.628 Y43.35 E24.1992
G1 X8.224 Y43.75 E24.22095
G1 X6.776 Y43.75 E24.27637
G1 X6.375 Y43.35 E24.29804
G1 X6.2 Y43.349 E24.30474
G1 X6.201 Y40.75 E24.4042
G1 X11.456 Y40.75 E24.60531
G0 F1620 X12.15 Y40.75
G0 F4320 X11.665 Y40.89
G1 F1800 X11.665 Y43.21 E24.6941
G0 F4320 X12.009 Y41.994
G1 F1800 X6.34 Y41.994 E24.91105
G0 F4320 X6.999 Y40.89
G1 F1800 X6.999 Y43.61 E25.01515
G0 F4320 X9.332 Y43.21
G1 F1800 X9.332 Y40.89 E25.10393
G1 F2400 E22.60393
;MESH:powermeterDisplay_prototype6_top_right.stl
G0 F4320 X17.638 Y25.353
G0 X15.978 Y25.353
G0 X16.123 Y22.322
;TYPE:WALL-INNER
G1 F2400 E25.10393
G1 F1800 X16.123 Y39.077 E25.74515
G1 X41.878 Y39.077 E26.73079
G1 X41.878 Y22.322 E27.372
G1 X16.817 Y22.322 E28.33108
G0 F1620 X16.123 Y22.322
G1 F2400 E25.83108
G0 F4320 X33.821 Y22.177
G0 X33.821 Y23.837
G0 X53.925 Y23.837
G0 X53.925 Y22.177
G0 X52.123 Y22.322
G1 F2400 E28.33108
G1 F1800 X52.123 Y39.077 E28.9723
G1 X77.878 Y39.077 E29.95794
G1 X77.878 Y22.322 E30.59915
G1 X52.817 Y22.322 E31.55823
G0 F1620 X52.123 Y22.322
G1 F2400 E29.05823
G0 F4320 X69.821 Y22.177
G0 X69.821 Y23.837
G0 X88.979 Y23.853
G0 X88.979 Y22.193
G0 X87.177 Y22.338
G1 F2400 E31.55823
G1 F1800 X87.177 Y39.093 E32.19945
G1 X112.932 Y39.093 E33.18509
G1 X112.932 Y22.338 E33.8263
G1 X87.871 Y22.338 E34.78539
G0 F1620 X87.177 Y22.338
G0 F4320 X113.125 Y22.338
G1 F1800 X113.125 Y39.093 E35.13897
G1 X113.125 Y45.887 E35.39897
G1 X13.875 Y45.887 E39.19727
G1 X13.875 Y14.075 E40.41471
G1 X113.125 Y14.075 E44.213
G1 X113.125 Y21.644 E44.50267
G0 F1620 X113.125 Y22.338
G0 F4320 X113.397 Y46.237
G1 F1800 X13.525 Y46.237 E48.32476
G1 X13.525 Y13.725 E49.569
G1 X113.475 Y13.725 E53.39408
G1 X113.475 Y46.237 E54.63831
G1 X113.475 Y46.275 E54.63976
G1 X113.407 Y46.275 E54.64179
G1 X113.397 Y46.237 E54.64213
G0 F4320 X112.968 Y39.25
G0 X87.649 Y38.621
G0 X87.527 Y22.688
G1 F1800 X87.527 Y38.743 E55.25656
G1 X112.582 Y38.743 E56.21541
G1 X112.582 Y22.688 E56.82983
G1 X88.221 Y22.688 E57.76213
G0 F1620 X87.527 Y22.688
G1 F2400 E55.26213
G0 F4320 X88.979 Y22.193
G0 X88.979 Y23.853
G0 X75.782 Y23.837
G0 X75.782 Y22.177
G0 X52.473 Y22.672
G1 F2400 E57.76213
G1 F1800 X52.473 Y38.727 E58.37655
G1 X77.528 Y38.727 E59.33541
G1 X77.528 Y22.672 E59.94983
G1 X53.167 Y22.672 E60.88212
G0 F1620 X52.473 Y22.672
G1 F2400 E58.38212
G0 F4320 X53.925 Y22.177
G0 X53.925 Y23.837
G0 X39.782 Y23.837
G0 X39.782 Y22.177
G0 X16.473 Y22.672
G1 F2400 E60.88212
G1 F1800 X16.473 Y38.727 E61.49655
G1 X41.528 Y38.727 E62.4554
G1 X41.528 Y22.672 E63.06982
G1 X17.167 Y22.672 E64.00212
G0 F1620 X16.473 Y22.672
G0 F4320 X16.798 Y22.997
;TYPE:WALL-OUTER
G1 F1800 X16.798 Y38.402 E64.59167
G1 X41.203 Y38.402 E65.52565
G1 X41.203 Y22.997 E66.11519
G1 X17.492 Y22.997 E67.02261
G0 F1620 X16.798 Y22.997
G0 F4320 X16.798 Y23.197
G1 F2400 E64.52261
G0 F4320 X16.523 Y23.197
G0 X41.406 Y22.794
G0 X40.375 Y23.825
G0 X53.626 Y23.825
G0 X51.958 Y22.997
G0 X52.798 Y22.997
G1 F2400 E67.02261
G1 F1800 X52.798 Y38.402 E67.61216
G1 X77.203 Y38.402 E68.54614
G1 X77.203 Y22.997 E69.13569
G1 X53.492 Y22.997 E70.04311
G0 F1620 X52.798 Y22.997
G0 F4320 X52.798 Y23.197
G1 F2400 E67.54311
G0 F4320 X52.523 Y23.197
G0 X77.406 Y22.794
G0 X76.375 Y23.825
G0 X88.979 Y23.853
G0 X88.979 Y22.193
G0 X87.649 Y22.81
G0 X87.852 Y23.013
G1 F2400 E70.04311
G1 F1800 X87.852 Y38.418 E70.63265
G1 X112.257 Y38.418 E71.56663
G1 X112.257 Y23.013 E72.15618
G1 X88.546 Y23.013 E73.0636
G0 F1620 X87.852 Y23.013
G0 F4320 X87.852 Y23.213
G0 X87.577 Y23.213
G0 X87.649 Y38.621
G0 X112.968 Y39.25
G0 X113.146 Y46.287
G0 X113.146 Y46.562
G1 F1800 X13.2 Y46.562 E76.88853
G1 X13.2 Y13.4 E78.15763
G1 X113.8 Y13.4 E82.00759
G1 X113.8 Y46.589 E83.27773
G0 F1620 X113.8 Y46.6
G0 X113.156 Y46.6
G0 X113.146 Y46.562
G0 F4320 X112.946 Y46.562
G0 X112.946 Y46.287
G0 X113.04 Y45.547
G0 X112.785 Y45.547
;TYPE:SKIN
G1 F1800 X14.215 Y45.547 E87.05
G1 X14.215 Y14.415 E88.24142
G1 X112.785 Y14.415 E92.01369
G1 X112.785 Y21.998 E92.30389
G1 X86.837 Y21.998 E93.29692
G1 X86.837 Y39.433 E93.96415
G1 X112.785 Y39.433 E94.95718
G1 X112.785 Y44.853 E95.16461
G0 F1620 X112.785 Y45.547
G1 F2400 E92.66461
G0 F4320 X113.04 Y45.547
G0 X77.963 Y45.702
G0 X77.963 Y47.402
G0 X76.076 Y37.562
G0 X76.076 Y39.222
G0 X77.963 Y39.192
G0 X78.218 Y39.417
G1 F2400 E95.16461
G1 F1800 X78.218 Y21.982 E95.83184
G1 X51.783 Y21.982 E96.84351
G1 X51.783 Y39.417 E97.51075
G1 X77.524 Y39.417 E98.49585
G0 F1620 X78.218 Y39.417
G1 F2400 E95.99585
G0 F4320 X77.963 Y39.192
G0 X60.18 Y39.222
G0 X60.18 Y37.562
G0 X40.076 Y37.562
G0 X40.076 Y39.222
G0 X41.963 Y39.192
G0 X42.218 Y39.417
G1 F2400 E98.49585
G1 F1800 X42.218 Y21.982 E99.16309
G1 X15.783 Y21.982 E100.17475
G1 X15.783 Y39.417 E100.84199
G1 X41.524 Y39.417 E101.8271
G0 F1620 X42.218 Y39.417
G1 F2400 E99.3271
G0 F4320 X41.963 Y39.192
G0 X38.089 Y39.222
G0 X38.089 Y37.562
G0 X15.952 Y47.402
G0 X15.952 Y45.702
G0 X14.701 Y45.802
G0 X14.701 Y45.389
G1 F2400 E101.8271
G1 F1800 X14.371 Y45.06 E101.84493
G0 F4320 X14.371 Y44.565
G1 F1800 X15.196 Y45.389 E101.88955
G0 F4320 X15.691 Y45.389
G1 F1800 X14.371 Y44.07 E101.96097
G0 F4320 X14.371 Y43.575
G1 F1800 X16.186 Y45.389 E102.05917
G0 F4320 X16.681 Y45.389
G1 F1800 X14.371 Y43.08 E102.18417
G0 F4320 X14.371 Y42.585
G1 F1800 X17.176 Y45.389 E102.33595
G0 F4320 X17.671 Y45.389
G1 F1800 X14.371 Y42.09 E102.51453
G0 F4320 X14.371 Y41.595
G1 F1800 X18.166 Y45.389 E102.71989
G0 F4320 X18.661 Y45.389
G1 F1800 X14.371 Y41.1 E102.95205
G0 F4320 X14.371 Y40.605
G1 F1800 X19.156 Y45.389 E103.21099
G0 F4320 X19.651 Y45.389
G1 F1800 X14.371 Y40.11 E103.49673
G0 F4320 X14.371 Y39.615
G1 F1800 X20.146 Y45.389 E103.80926
G0 F4320 X20.641 Y45.389
G1 F1800 X14.371 Y39.12 E104.14857
G0 F4320 X14.371 Y38.625
G1 F1800 X21.136 Y45.389 E104.51468
G0 F4320 X21.631 Y45.389
G1 F1800 X15.815 Y39.573 E104.82945
G0 F4320 X15.626 Y39.385
G1 F1800 X14.371 Y38.13 E104.89738
G0 F4320 X14.371 Y37.635
G1 F1800 X15.626 Y38.89 E104.9653
G0 F4320 X15.626 Y38.395
G1 F1800 X14.371 Y37.14 E105.03322
G0 F4320 X14.371 Y36.645
G1 F1800 X15.626 Y37.9 E105.10115
G0 F4320 X15.626 Y37.405
G1 F1800 X14.371 Y36.15 E105.16907
G0 F4320 X14.371 Y35.655
G1 F1800 X15.626 Y36.91 E105.23699
G0 F4320 X15.626 Y36.415
G1 F1800 X14.371 Y35.16 E105.30491
G0 F4320 X14.371 Y34.665
G1 F1800 X15.626 Y35.92 E105.37284
G0 F4320 X15.626 Y35.425
G1 F1800 X14.371 Y34.17 E105.44076
G0 F4320 X14.371 Y33.675
G1 F1800 X15.626 Y34.93 E105.50868
G0 F4320 X15.626 Y34.435
G1 F1800 X14.371 Y33.18 E105.57661
G0 F4320 X14.371 Y32.686
G1 F1800 X15.626 Y33.94 E105.6445
G0 F4320 X15.626 Y33.445
G1 F1800 X14.371 Y32.191 E105.7124
G0 F4320 X14.371 Y31.696
G1 F1800 X15.626 Y32.95 E105.78029
G0 F4320 X15.626 Y32.455
G1 F1800 X14.371 Y31.201 E105.84819
G0 F4320 X14.371 Y30.706
G1 F1800 X15.626 Y31.96 E105.91609
G0 F4320 X15.626 Y31.465
G1 F1800 X14.371 Y30.211 E105.98398
G0 F4320 X14.371 Y29.716
G1 F1800 X15.626 Y30.97 E106.05188
G0 F4320 X15.626 Y30.475
G1 F1800 X14.371 Y29.221 E106.11977
G0 F4320 X14.371 Y28.726
G1 F1800 X15.626 Y29.98 E106.18767
G0 F4320 X15.626 Y29.485
G1 F1800 X14.371 Y28.231 E106.25557
G0 F4320 X14.371 Y27.736
G1 F1800 X15.626 Y28.99 E106.32346
G0 F4320 X15.626 Y28.495
G1 F1800 X14.371 Y27.241 E106.39136
G0 F4320 X14.371 Y26.746
G1 F1800 X15.626 Y28 E106.45925
G0 F4320 X15.626 Y27.505
G1 F1800 X14.371 Y26.251 E106.52715
G0 F4320 X14.371 Y25.756
G1 F1800 X15.626 Y27.01 E106.59504
G0 F4320 X15.626 Y26.515
G1 F1800 X14.371 Y25.261 E106.66294
G0 F4320 X14.371 Y24.766
G1 F1800 X15.626 Y26.02 E106.73084
G0 F4320 X15.626 Y25.525
G1 F1800 X14.371 Y24.271 E106.79873
G0 F4320 X14.371 Y23.776
G1 F1800 X15.626 Y25.03 E106.86663
G0 F4320 X15.626 Y24.535
G1 F1800 X14.371 Y23.281 E106.93452
G0 F4320 X14.371 Y22.786
G1 F1800 X15.626 Y24.04 E107.00242
G0 F4320 X15.626 Y23.545
G1 F1800 X14.371 Y22.291 E107.07032
G0 F4320 X14.371 Y21.796
G1 F1800 X15.626 Y23.05 E107.13821
G0 F4320 X15.626 Y22.555
G1 F1800 X14.371 Y21.301 E107.20611
G0 F4320 X14.371 Y20.806
G1 F1800 X15.626 Y22.061 E107.27403
G0 F4320 X15.884 Y21.824
G1 F1800 X14.371 Y20.311 E107.35592
G0 F4320 X14.371 Y19.816
G1 F1800 X16.379 Y21.824 E107.46459
G0 F4320 X16.874 Y21.824
G1 F1800 X14.371 Y19.321 E107.60006
G0 F4320 X14.371 Y18.826
G1 F1800 X17.369 Y21.824 E107.76232
G0 F4320 X17.864 Y21.824
G1 F1800 X14.371 Y18.331 E107.95137
G0 F4320 X14.371 Y17.836
G1 F1800 X18.359 Y21.824 E108.1672
G0 F4320 X18.854 Y21.824
G1 F1800 X14.371 Y17.341 E108.40983
G0 F4320 X14.371 Y16.846
G1 F1800 X19.349 Y21.824 E108.67925
G0 F4320 X19.844 Y21.824
G1 F1800 X14.371 Y16.351 E108.97546
G0 F4320 X14.371 Y15.856
G1 F1800 X20.339 Y21.824 E109.29846
G0 F4320 X20.834 Y21.824
G1 F1800 X14.371 Y15.361 E109.64825
G0 F4320 X14.371 Y14.866
G1 F1800 X21.329 Y21.824 E110.02483
G0 F4320 X21.824 Y21.824
G1 F1800 X14.571 Y14.571 E110.41738
G0 F4320 X15.066 Y14.571
G1 F1800 X22.319 Y21.824 E110.80992
G0 F4320 X22.814 Y21.824
G1 F1800 X15.561 Y14.571 E111.20247
G0 F4320 X16.056 Y14.571
G1 F1800 X23.309 Y21.824 E111.59501
G0 F4320 X23.804 Y21.824
G1 F1800 X16.551 Y14.571 E111.98756
G0 F4320 X17.046 Y14.571
G1 F1800 X24.299 Y21.824 E112.3801
G0 F4320 X24.793 Y21.824
G1 F1800 X17.541 Y14.571 E112.77262
G0 F4320 X18.036 Y14.571
G1 F1800 X25.288 Y21.824 E113.16514
G0 F4320 X25.783 Y21.824
G1 F1800 X18.531 Y14.571 E113.55766
G0 F4320 X19.026 Y14.571
G1 F1800 X26.278 Y21.824 E113.95018
G0 F4320 X26.773 Y21.824
G1 F1800 X19.521 Y14.571 E114.3427
G0 F4320 X20.016 Y14.571
G1 F1800 X27.268 Y21.824 E114.73522
G0 F4320 X27.763 Y21.824
G1 F1800 X20.511 Y14.571 E115.12774
G0 F4320 X21.006 Y14.571
G1 F1800 X28.258 Y21.824 E115.52026
G0 F4320 X28.753 Y21.824
G1 F1800 X21.5 Y14.571 E115.9128
G0 F4320 X21.995 Y14.571
G1 F1800 X29.248 Y21.824 E116.30535
G0 F4320 X29.743 Y21.824
G1 F1800 X22.49 Y14.571 E116.69789
G0 F4320 X22.985 Y14.571
G1 F1800 X30.238 Y21.824 E117.09044
G0 F4320 X30.733 Y21.824
G1 F1800 X23.48 Y14.571 E117.48299
G0 F4320 X23.975 Y14.571
G1 F1800 X31.228 Y21.824 E117.87553
G0 F4320 X31.723 Y21.824
