;FLAVOR:Marlin
;TIME:18476
;Filament used: 9.34345m
;Layer height: 0.13125
;MINX:17.108
;MINY:14.475
;MINZ:0.263
;MAXX:102.025
;MAXY:105.515
;MAXZ:26.987
;Generated with Cura_SteamEngine 4.6.1
M140 S65
M105
M190 S65
M104 S205
M105
M109 S205
M82 ;absolute extrusion mode
G21;(metric values)
G90;(absolute positioning)
M82;(set extruder to absolute mode)
M107;(start with the fan off)
G28;(Home the printer)
G92 E0;(Reset the extruder to 0)
G0 Z5 E5 F500;(Move up and prime the nozzle)
G0 X-1 Z0;(Move outside the printable area)
G1 Y60 E8 F500;(Draw a priming/wiping line to the rear)
G1 X-1;(Move a little closer to the print area)
G1 Y10 E16 F500;(draw more priming/wiping)
G1 E15 F250;(Small retract)
G92 E0;(Zero the extruder)
G92 E0
G92 E0
G1 F2400 E-2.5
;LAYER_COUNT:205
;LAYER:0
M107
G0 F4320 X99.038 Y14.882 Z0.263
;TYPE:SKIRT
G1 F2400 E0
G1 F1800 X99.525 Y15.008 E0.01925
G1 X99.987 Y15.21 E0.03855
G1 X100.411 Y15.481 E0.05781
G1 X100.787 Y15.817 E0.0771
G1 X101.105 Y16.207 E0.09636
G1 X101.357 Y16.643 E0.11563
G1 X101.537 Y17.113 E0.13489
G1 X101.64 Y17.606 E0.15417
G1 X101.674 Y18.241 E0.17851
G1 X101.675 Y51.338 E1.44513
G1 X101.665 Y52.036 E1.47184
G1 X101.618 Y52.538 E1.49114
G1 X101.406 Y53.246 E1.51942
G1 X101.156 Y53.827 E1.54363
G1 X100.092 Y56.372 E1.64919
G1 X99.101 Y58.935 E1.75435
G1 X98.203 Y61.487 E1.85789
G1 X97.346 Y64.153 E1.96506
G1 X96.606 Y66.695 E2.06638
G1 X95.901 Y69.401 E2.1734
G1 X95.284 Y72.079 E2.27857
G1 X94.749 Y74.737 E2.38233
G1 X94.283 Y77.463 E2.48817
G1 X93.902 Y80.132 E2.59134
G1 X93.59 Y82.872 E2.69688
G1 X93.357 Y85.611 E2.80208
G1 X93.202 Y88.332 E2.90638
G1 X93.123 Y91.095 E3.01217
G1 X93.113 Y92.488 E3.06548
G1 X93.113 Y101.308 E3.40302
G1 X93.103 Y102.034 E3.4308
G1 X93.056 Y102.535 E3.45006
G1 X92.93 Y103.023 E3.46935
G1 X92.729 Y103.485 E3.48863
G1 X92.458 Y103.909 E3.50789
G1 X92.123 Y104.284 E3.52713
G1 X91.732 Y104.603 E3.54644
G1 X91.296 Y104.855 E3.56572
G1 X90.826 Y105.035 E3.58498
G1 X90.333 Y105.139 E3.60426
G1 X89.723 Y105.173 E3.62764
G1 X88.9 Y105.165 E3.65914
G1 X88.398 Y105.117 E3.67844
G1 X87.937 Y105 E3.69664
G1 X86.709 Y104.588 E3.74621
G1 X84.05 Y103.734 E3.85309
G1 X81.44 Y102.976 E3.9571
G1 X78.767 Y102.281 E4.0628
G1 X76.118 Y101.671 E4.16683
G1 X73.405 Y101.127 E4.27272
G1 X70.704 Y100.666 E4.37758
G1 X68.035 Y100.286 E4.48075
G1 X65.295 Y99.975 E4.58629
G1 X62.555 Y99.743 E4.69152
G1 X59.834 Y99.589 E4.79582
G1 X57.083 Y99.512 E4.90114
G1 X54.364 Y99.512 E5.0052
G1 X51.608 Y99.591 E5.11071
G1 X48.892 Y99.745 E5.21482
G1 X46.15 Y99.978 E5.32014
G1 X43.411 Y100.29 E5.42564
G1 X40.72 Y100.674 E5.52966
G1 X38.035 Y101.134 E5.63392
G1 X35.351 Y101.673 E5.73868
G1 X32.662 Y102.292 E5.84428
G1 X30.023 Y102.98 E5.94865
G1 X27.396 Y103.743 E6.05334
G1 X24.492 Y104.682 E6.17014
G1 X23.643 Y104.97 E6.20445
G1 X23.155 Y105.093 E6.22371
G1 X22.605 Y105.138 E6.24483
G1 X22.252 Y105.136 E6.25834
G1 X21.75 Y105.093 E6.27762
G1 X21.262 Y104.972 E6.29686
G1 X20.798 Y104.774 E6.31617
G1 X20.372 Y104.506 E6.33543
G1 X19.957 Y104.141 E6.35658
G1 X19.623 Y103.764 E6.37586
G1 X19.353 Y103.339 E6.39513
G1 X19.154 Y102.877 E6.41438
G1 X19.03 Y102.388 E6.43369
G1 X18.987 Y101.953 E6.45041
G1 X18.975 Y99.792 E6.53312
G1 X18.985 Y99.085 E6.56018
G1 X19.043 Y98.2 E6.59412
G1 X19.198 Y95.47 E6.69876
G1 X19.277 Y92.718 E6.80413
G1 X19.277 Y89.999 E6.90818
G1 X19.2 Y87.245 E7.01362
G1 X19.047 Y84.528 E7.11776
G1 X18.815 Y81.786 E7.22307
G1 X18.504 Y79.047 E7.32857
G1 X18.123 Y76.367 E7.43216
G1 X17.575 Y73.18 E7.55592
G1 X17.535 Y72.835 E7.56921
G1 X17.475 Y71.85 E7.60698
G1 X17.458 Y71.129 E7.63458
G1 X17.458 Y69.232 E7.70717
G1 X17.467 Y68.532 E7.73397
G1 X17.493 Y68.172 E7.74778
G1 X17.605 Y67.296 E7.78158
G1 X17.915 Y64.576 E7.88634
G1 X18.147 Y61.865 E7.99047
G1 X18.304 Y59.116 E8.09585
G1 X18.383 Y56.371 E8.20094
G1 X18.368 Y52.688 E8.34189
G1 X18.33 Y51.036 E8.40513
G1 X18.325 Y49.193 E8.47566
G1 X18.325 Y18.626 E9.64546
G1 X18.335 Y17.961 E9.67091
G1 X18.383 Y17.46 E9.69017
G1 X18.509 Y16.972 E9.70946
G1 X18.711 Y16.511 E9.72872
G1 X18.983 Y16.087 E9.748
G1 X19.318 Y15.712 E9.76725
G1 X19.709 Y15.394 E9.78653
G1 X20.145 Y15.142 E9.80581
G1 X20.616 Y14.963 E9.82509
G1 X21.109 Y14.859 E9.84437
G1 X21.741 Y14.826 E9.86859
G1 X97.838 Y14.825 E12.78082
G1 X98.346 Y14.833 E12.80026
G0 F1620 X98.536 Y14.835
G0 X99.038 Y14.882
G0 F4320 X99.07 Y14.533
G1 F1800 X99.585 Y14.659 E12.82055
G1 X100.076 Y14.861 E12.84087
G1 X100.531 Y15.135 E12.8612
G1 X100.939 Y15.474 E12.8815
G1 X101.292 Y15.87 E12.9018
G1 X101.582 Y16.315 E12.92213
G1 X101.801 Y16.798 E12.94242
G1 X101.946 Y17.309 E12.96275
G1 X102.015 Y17.911 E12.98594
G1 X102.025 Y51.343 E14.26538
G1 X102.015 Y52.041 E14.2921
G1 X101.967 Y52.57 E14.31242
G1 X101.841 Y53.085 E14.33271
G1 X101.478 Y53.965 E14.36914
G1 X100.422 Y56.491 E14.47392
G1 X99.422 Y59.076 E14.57999
G1 X98.534 Y61.6 E14.68239
G1 X97.696 Y64.206 E14.78715
G1 X96.925 Y66.856 E14.89277
G1 X96.245 Y69.466 E14.99599
G1 X95.635 Y72.116 E15.10006
G1 X95.088 Y74.829 E15.20597
G1 X94.631 Y77.502 E15.30975
G1 X94.244 Y80.217 E15.41471
G1 X93.938 Y82.906 E15.51828
G1 X93.706 Y85.626 E15.62275
G1 X93.552 Y88.327 E15.72629
G1 X93.472 Y91.129 E15.83356
G1 X93.463 Y92.491 E15.88569
G1 X93.463 Y101.313 E16.22331
G1 X93.453 Y102.039 E16.25109
G1 X93.405 Y102.567 E16.27138
G1 X93.279 Y103.083 E16.29171
G1 X93.077 Y103.573 E16.31199
G1 X92.804 Y104.028 E16.3323
G1 X92.466 Y104.437 E16.3526
G1 X92.069 Y104.79 E16.37294
G1 X91.625 Y105.08 E16.39323
G1 X91.142 Y105.299 E16.41353
G1 X90.631 Y105.444 E16.43385
G1 X90.042 Y105.513 E16.45655
G1 X88.895 Y105.515 E16.50045
G1 X88.366 Y105.467 E16.52077
G1 X87.826 Y105.332 E16.54207
G1 X86.572 Y104.911 E16.5927
G1 X83.956 Y104.071 E16.69785
G1 X81.355 Y103.315 E16.80151
G1 X78.669 Y102.617 E16.90771
G1 X76.039 Y102.012 E17.01099
G1 X73.352 Y101.473 E17.11587
G1 X70.665 Y101.014 E17.22019
G1 X67.982 Y100.633 E17.3239
G1 X65.229 Y100.32 E17.42994
G1 X62.538 Y100.092 E17.53329
G1 X59.84 Y99.939 E17.63671
G1 X57.074 Y99.862 E17.7426
G1 X54.374 Y99.862 E17.84593
G1 X51.601 Y99.941 E17.9521
G1 X48.909 Y100.094 E18.05529
G1 X46.185 Y100.326 E18.15991
G1 X43.496 Y100.632 E18.26348
G1 X40.759 Y101.022 E18.36929
G1 X38.094 Y101.479 E18.47277
G1 X35.43 Y102.014 E18.57675
G1 X32.753 Y102.63 E18.68188
G1 X30.108 Y103.32 E18.78649
G1 X27.501 Y104.076 E18.89037
G1 X24.557 Y105.029 E19.00879
G1 X23.755 Y105.301 E19.0412
G1 X23.241 Y105.433 E19.06151
G1 X22.603 Y105.488 E19.08602
G1 X22.25 Y105.486 E19.09953
G1 X21.721 Y105.443 E19.11984
G1 X21.205 Y105.321 E19.14013
G1 X20.712 Y105.123 E19.16046
G1 X20.255 Y104.853 E19.18078
G1 X19.824 Y104.499 E19.20212
G1 X19.361 Y103.997 E19.22826
G1 X19.071 Y103.553 E19.24855
G1 X18.851 Y103.07 E19.26886
G1 X18.706 Y102.559 E19.28919
G1 X18.637 Y101.963 E19.31215
G1 X18.625 Y99.787 E19.39543
G1 X18.635 Y99.08 E19.42249
G1 X18.694 Y98.176 E19.45716
G1 X18.848 Y95.475 E19.56069
G1 X18.927 Y92.708 E19.66663
G1 X18.927 Y90.008 E19.76996
G1 X18.85 Y87.238 E19.87601
G1 X18.698 Y84.545 E19.97923
G1 X18.47 Y81.856 E20.08251
G1 X18.157 Y79.096 E20.18881
G1 X17.774 Y76.407 E20.29276
G1 X17.23 Y73.239 E20.41577
G1 X17.186 Y72.856 E20.43052
G1 X17.126 Y71.871 E20.46829
G1 X17.108 Y71.136 E20.49643
G1 X17.108 Y69.232 E20.56929
G1 X17.117 Y68.527 E20.59628
G1 X17.145 Y68.128 E20.61158
G1 X17.257 Y67.252 E20.64538
G1 X17.567 Y64.538 E20.74992
G1 X17.8 Y61.818 E20.8544
G1 X17.954 Y59.118 E20.95789
G1 X18.033 Y56.363 E21.06337
G1 X18.018 Y52.716 E21.20294
G1 X17.98 Y51.044 E21.26695
G1 X17.975 Y49.194 E21.33774
G1 X17.975 Y18.621 E22.50777
G1 X17.985 Y17.956 E22.53322
G1 X18.033 Y17.428 E22.55351
G1 X18.16 Y16.912 E22.57385
G1 X18.363 Y16.422 E22.59415
G1 X18.637 Y15.967 E22.61447
G1 X18.976 Y15.559 E22.63478
G1 X19.372 Y15.206 E22.65508
G1 X19.817 Y14.917 E22.67538
G1 X20.3 Y14.698 E22.69568
G1 X20.811 Y14.554 E22.716
G1 X21.411 Y14.485 E22.73911
G1 X97.843 Y14.475 E25.66416
G1 X98.378 Y14.483 E25.68464
G0 F1620 X98.541 Y14.485
G0 X99.07 Y14.533
G1 F2400 E23.18464
G0 F4320 X99.136 Y17.854
G0 X99.136 Y52.146
G0 X22.35 Y68.736
;TYPE:SUPPORT
G1 F2400 E25.68464
G1 F1800 X22.35 Y72.724 E25.83726
G1 X22.117 Y72.823 E25.84694
G1 X21.915 Y72.622 E25.85785
G1 X21.529 Y72.461 E25.87386
G1 X20.868 Y72.461 E25.89915
G1 X20.868 Y71.607 E25.93183
G1 X20.807 Y71.545 E25.93516
G1 X20.808 Y68.736 E26.04266
G1 X21.84 Y68.736 E26.08216
G0 F1620 X22.35 Y68.736
G0 F4320 X22.209 Y69.99
G1 F1800 X20.947 Y69.99 E26.13045
G0 F4320 X20.997 Y68.876
G1 F1800 X20.997 Y71.538 E26.23233
G0 F4320 X21.561 Y72.323
G1 F1800 X22.209 Y72.323 E26.25713
G0 F4320 X22.35 Y99.176
G1 F1800 X22.35 Y101.796 E26.3574
G1 X22.325 Y101.796 E26.35835
G1 X22.325 Y99.362 E26.4515
G0 F1620 X22.325 Y99.201
G0 X22.35 Y99.176
G1 F2400 E23.9515
;MESH:prototype4_tops.stl
G0 F4320 X22.35 Y52.64
G0 X22.35 Y51.605
G0 X22.379 Y51.125
;TYPE:WALL-INNER
G1 F2400 E26.4515
G1 F1800 X22.375 Y48.985 E26.5334
G1 X22.375 Y18.875 E27.68571
G1 X97.625 Y18.875 E30.56552
G1 X97.625 Y51.125 E31.79973
G1 X23.073 Y51.125 E34.65283
G0 F1620 X22.379 Y51.125
G1 F2400 E32.15283
G0 F4320 X93.378 Y50.94
G0 X93.378 Y52.64
G0 X91.576 Y42.363
G0 X91.576 Y44.023
G0 X93.378 Y43.878
G1 F2400 E34.65283
G1 F1800 X93.378 Y27.123 E35.29404
G1 X67.797 Y27.123 E36.27302
G1 X67.622 Y27.123 E36.27972
G1 X67.622 Y27.298 E36.28405
G1 X67.623 Y43.878 E36.91857
G1 X92.684 Y43.878 E37.87765
G0 F1620 X93.378 Y43.878
G0 F4320 X93.028 Y43.528
G1 F1800 X93.028 Y27.473 E38.49208
G1 X68.147 Y27.473 E39.44427
G1 X67.972 Y27.473 E39.45097
G1 X67.972 Y27.648 E39.4553
G1 X67.973 Y43.528 E40.06303
G1 X92.334 Y43.528 E40.99532
G0 F1620 X93.028 Y43.528
G1 F2400 E38.49532
G0 F4320 X89.589 Y44.023
G0 X89.589 Y42.363
G0 X67.452 Y52.64
G0 X67.452 Y50.94
G0 X22.03 Y51.475
G1 F2400 E40.99532
G1 F1800 X22.025 Y48.986 E41.09058
G1 X22.025 Y18.525 E42.25632
G1 X97.975 Y18.525 E45.16292
G1 X97.975 Y51.475 E46.42392
G1 X22.724 Y51.475 E49.30377
G0 F1620 X22.03 Y51.475
G0 F4320 X21.706 Y51.8
;TYPE:WALL-OUTER
G1 F1800 X21.7 Y48.987 E49.41142
G1 X21.7 Y18.2 E50.58964
G1 X98.3 Y18.2 E53.52111
G1 X98.3 Y51.8 E54.80698
G1 X22.4 Y51.8 E57.71167
G0 F1620 X21.706 Y51.8
G0 F4320 X21.706 Y51.6
G1 F2400 E55.21167
G0 F4320 X21.981 Y51.525
G0 X92.978 Y50.94
G0 X92.978 Y52.64
G0 X91.576 Y42.363
G0 X91.576 Y44.023
G0 X92.906 Y43.406
G0 X92.703 Y43.203
G1 F2400 E57.71167
G1 F1800 X92.703 Y27.798 E58.30122
G1 X68.472 Y27.798 E59.22854
G1 X68.297 Y27.798 E59.23524
G1 X68.297 Y27.973 E59.23957
G1 X68.298 Y43.203 E59.82242
G1 X92.009 Y43.203 E60.72984
G0 F1620 X92.703 Y43.203
G0 F4320 X92.703 Y43.003
G0 X92.978 Y43.003
G0 X93.493 Y43.993
G0 X93.718 Y44.218
;TYPE:SKIN
G1 F1800 X93.718 Y26.783 E61.39708
G1 X67.282 Y26.783 E62.40878
G1 X67.283 Y44.218 E63.07602
G1 X93.024 Y44.218 E64.06113
G0 F1620 X93.718 Y44.218
G1 F2400 E61.56113
G0 F4320 X93.463 Y43.993
G0 X91.576 Y44.023
G0 X91.576 Y42.363
G0 X99.14 Y44.049
G0 X97.44 Y44.049
G0 X97.54 Y50.785
G0 X97.285 Y50.785
G1 F2400 E64.06113
G1 F1800 X22.719 Y50.785 E66.91476
G1 X22.715 Y48.985 E66.98365
G1 X22.715 Y19.215 E68.12294
G1 X97.285 Y19.215 E70.97673
G1 X97.285 Y50.091 E72.15836
G0 F1620 X97.285 Y50.785
G0 F4320 X97.54 Y50.785
G0 X97.54 Y19.911
G0 X97.127 Y19.911
G1 F1800 X96.588 Y19.372 E72.18753
G0 F4320 X96.093 Y19.372
G1 F1800 X97.127 Y20.406 E72.24349
G0 F4320 X97.127 Y20.901
G1 F1800 X95.598 Y19.372 E72.32624
G0 F4320 X95.103 Y19.372
G1 F1800 X97.127 Y21.396 E72.43579
G0 F4320 X97.127 Y21.891
G1 F1800 X94.608 Y19.372 E72.57212
G0 F4320 X94.113 Y19.372
G1 F1800 X97.127 Y22.386 E72.73524
G0 F4320 X97.127 Y22.881
G1 F1800 X93.618 Y19.372 E72.92516
G0 F4320 X93.123 Y19.372
G1 F1800 X97.127 Y23.376 E73.14186
G0 F4320 X97.127 Y23.871
G1 F1800 X92.628 Y19.372 E73.38535
G0 F4320 X92.133 Y19.372
G1 F1800 X97.127 Y24.366 E73.65564
G0 F4320 X97.127 Y24.861
G1 F1800 X91.638 Y19.372 E73.95271
G0 F4320 X91.143 Y19.372
G1 F1800 X97.127 Y25.356 E74.27658
G0 F4320 X97.127 Y25.851
G1 F1800 X90.648 Y19.372 E74.62723
G0 F4320 X90.153 Y19.372
G1 F1800 X97.127 Y26.346 E75.00468
G0 F4320 X97.127 Y26.841
G1 F1800 X89.659 Y19.372 E75.40889
G0 F4320 X89.164 Y19.372
G1 F1800 X97.127 Y27.336 E75.83989
G0 F4320 X97.127 Y27.831
G1 F1800 X88.669 Y19.372 E76.29768
G0 F4320 X88.174 Y19.372
G1 F1800 X97.127 Y28.325 E76.78223
G0 F4320 X97.127 Y28.82
G1 F1800 X87.679 Y19.372 E77.29358
G0 F4320 X87.184 Y19.372
G1 F1800 X97.127 Y29.315 E77.83171
G0 F4320 X97.127 Y29.81
G1 F1800 X86.689 Y19.372 E78.39663
G0 F4320 X86.194 Y19.372
G1 F1800 X93.446 Y26.625 E78.78915
G0 F4320 X92.952 Y26.625
G1 F1800 X85.699 Y19.372 E79.1817
G0 F4320 X85.204 Y19.372
G1 F1800 X92.457 Y26.625 E79.57424
G0 F4320 X91.962 Y26.625
G1 F1800 X84.709 Y19.372 E79.96679
G0 F4320 X84.214 Y19.372
G1 F1800 X91.467 Y26.625 E80.35934
G0 F4320 X90.972 Y26.625
G1 F1800 X83.719 Y19.372 E80.75188
G0 F4320 X83.224 Y19.372
G1 F1800 X90.477 Y26.625 E81.14443
G0 F4320 X89.982 Y26.625
G1 F1800 X82.729 Y19.372 E81.53697
G0 F4320 X82.234 Y19.372
G1 F1800 X89.487 Y26.625 E81.92952
G0 F4320 X88.992 Y26.625
G1 F1800 X81.739 Y19.372 E82.32207
G0 F4320 X81.244 Y19.372
G1 F1800 X88.497 Y26.625 E82.71461
G0 F4320 X88.002 Y26.625
G1 F1800 X80.749 Y19.372 E83.10716
G0 F4320 X80.254 Y19.372
G1 F1800 X87.507 Y26.625 E83.4997
G0 F4320 X87.012 Y26.625
G1 F1800 X79.759 Y19.372 E83.89225
G0 F4320 X79.264 Y19.372
G1 F1800 X86.517 Y26.625 E84.2848
G0 F4320 X86.022 Y26.625
G1 F1800 X78.769 Y19.372 E84.67734
G0 F4320 X78.274 Y19.372
G1 F1800 X85.527 Y26.625 E85.06989
G0 F4320 X85.032 Y26.625
G1 F1800 X77.779 Y19.372 E85.46243
G0 F4320 X77.284 Y19.372
G1 F1800 X84.537 Y26.625 E85.85498
G0 F4320 X84.042 Y26.625
G1 F1800 X76.789 Y19.372 E86.24753
G0 F4320 X76.294 Y19.372
G1 F1800 X83.547 Y26.625 E86.64007
G0 F4320 X83.052 Y26.625
G1 F1800 X75.799 Y19.372 E87.03262
G0 F4320 X75.304 Y19.372
G1 F1800 X82.557 Y26.625 E87.42516
G0 F4320 X82.062 Y26.625
G1 F1800 X74.809 Y19.372 E87.81771
G0 F4320 X74.314 Y19.372
G1 F1800 X81.567 Y26.625 E88.21025
G0 F4320 X81.072 Y26.625
G1 F1800 X73.819 Y19.372 E88.6028
G0 F4320 X73.324 Y19.372
G1 F1800 X80.577 Y26.625 E88.99535
G0 F4320 X80.082 Y26.625
G1 F1800 X72.829 Y19.372 E89.38789
G0 F4320 X72.334 Y19.372
G1 F1800 X79.587 Y26.625 E89.78044
G0 F4320 X79.092 Y26.625
G1 F1800 X71.839 Y19.372 E90.17298
G0 F4320 X71.344 Y19.372
G1 F1800 X78.597 Y26.625 E90.56553
G0 F4320 X78.102 Y26.625
G1 F1800 X70.849 Y19.372 E90.95808
G0 F4320 X70.355 Y19.372
G1 F1800 X77.607 Y26.625 E91.3506
G0 F4320 X77.112 Y26.625
G1 F1800 X69.86 Y19.372 E91.74311
G0 F4320 X69.365 Y19.372
G1 F1800 X76.617 Y26.625 E92.13563
G0 F4320 X76.122 Y26.625
G1 F1800 X68.87 Y19.372 E92.52815
G0 F4320 X68.375 Y19.372
G1 F1800 X75.627 Y26.625 E92.92067
G0 F4320 X75.132 Y26.625
G1 F1800 X67.88 Y19.372 E93.31319
G0 F4320 X67.385 Y19.372
G1 F1800 X74.637 Y26.625 E93.70571
G0 F4320 X74.142 Y26.625
G1 F1800 X66.89 Y19.372 E94.09823
G0 F4320 X66.395 Y19.372
G1 F1800 X73.647 Y26.625 E94.49075
G0 F4320 X73.153 Y26.625
G1 F1800 X65.9 Y19.372 E94.88329
G0 F4320 X65.405 Y19.372
G1 F1800 X72.658 Y26.625 E95.27584
G0 F4320 X72.163 Y26.625
G1 F1800 X64.91 Y19.372 E95.66838
G0 F4320 X64.415 Y19.372
G1 F1800 X71.668 Y26.625 E96.06093
G0 F4320 X71.173 Y26.625
G1 F1800 X63.92 Y19.372 E96.45348
G0 F4320 X63.425 Y19.372
G1 F1800 X70.678 Y26.625 E96.84602
G0 F4320 X70.183 Y26.625
G1 F1800 X62.93 Y19.372 E97.23857
G0 F4320 X62.435 Y19.372
G1 F1800 X69.688 Y26.625 E97.63111
G0 F4320 X69.193 Y26.625
G1 F1800 X61.94 Y19.372 E98.02366
G0 F4320 X61.445 Y19.372
G1 F1800 X68.698 Y26.625 E98.41621
G0 F4320 X68.203 Y26.625
G1 F1800 X60.95 Y19.372 E98.80875
G0 F4320 X60.455 Y19.372
G1 F1800 X67.708 Y26.625 E99.2013
G0 F4320 X67.213 Y26.625
G1 F1800 X59.96 Y19.372 E99.59384
G0 F4320 X59.465 Y19.372
G1 F1800 X67.124 Y27.031 E100.00836
G0 F4320 X67.124 Y27.526
G1 F1800 X58.97 Y19.372 E100.44967
G0 F4320 X58.475 Y19.372
G1 F1800 X67.124 Y28.021 E100.91777
G0 F4320 X67.124 Y28.516
G1 F1800 X57.98 Y19.372 E101.41266
G0 F4320 X57.485 Y19.372
G1 F1800 X67.124 Y29.011 E101.93434
G0 F4320 X67.124 Y29.506
G1 F1800 X56.99 Y19.372 E102.48282
