;FLAVOR:Marlin
;TIME:18647
;Filament used: 9.53209m
;Layer height: 0.13125
;MINX:15.557
;MINY:12.95
;MINZ:0.263
;MAXX:103.55
;MAXY:107.05
;MAXZ:26.987
;Generated with Cura_SteamEngine 4.6.1
M140 S65
M105
M190 S65
M104 S205
M105
M109 S205
M82 ;absolute extrusion mode
G21;(metric values)
G90;(absolute positioning)
M82;(set extruder to absolute mode)
M107;(start with the fan off)
G28;(Home the printer)
G92 E0;(Reset the extruder to 0)
G0 Z5 E5 F500;(Move up and prime the nozzle)
G0 X-1 Z0;(Move outside the printable area)
G1 Y60 E8 F500;(Draw a priming/wiping line to the rear)
G1 X-1;(Move a little closer to the print area)
G1 Y10 E16 F500;(draw more priming/wiping)
G1 E15 F250;(Small retract)
G92 E0;(Zero the extruder)
G92 E0
G92 E0
G1 F2400 E-2.5
;LAYER_COUNT:205
;LAYER:0
M107
G0 F4320 X17.418 Y15.147 Z0.263
;TYPE:SKIRT
G1 F2400 E0
G1 F1800 X17.919 Y14.557 E0.02962
G1 X18.497 Y14.03 E0.05956
G1 X19.022 Y13.67 E0.08392
G1 X19.588 Y13.378 E0.10829
G1 X20.186 Y13.159 E0.13266
G1 X20.806 Y13.017 E0.157
G1 X21.627 Y12.95 E0.18853
G1 X98.372 Y12.95 E3.12556
G1 X99.008 Y12.99 E3.14994
G1 X99.633 Y13.109 E3.17429
G1 X100.239 Y13.306 E3.19868
G1 X100.815 Y13.577 E3.22304
G1 X101.353 Y13.918 E3.24742
G1 X101.961 Y14.436 E3.27798
G1 X102.485 Y15.017 E3.30793
G1 X102.843 Y15.544 E3.33231
G1 X103.132 Y16.111 E3.35666
G1 X103.348 Y16.71 E3.38103
G1 X103.487 Y17.332 E3.40542
G1 X103.55 Y18.128 E3.43598
G1 X103.55 Y51.872 E4.72736
G1 X103.51 Y52.508 E4.75175
G1 X103.391 Y53.133 E4.7761
G1 X103.194 Y53.739 E4.80048
G1 X102.923 Y54.315 E4.82484
G1 X102.582 Y54.853 E4.84922
G1 X102.064 Y55.461 E4.87979
G1 X101.483 Y55.985 E4.90973
G1 X100.956 Y56.343 E4.93411
G1 X100.389 Y56.632 E4.95847
G1 X99.79 Y56.848 E4.98284
G1 X99.168 Y56.987 E5.00723
G1 X98.372 Y57.05 E5.03779
G1 X21.634 Y57.05 E7.97454
G1 X20.998 Y57.01 E7.99893
G1 X20.373 Y56.891 E8.02328
G1 X19.767 Y56.694 E8.04767
G1 X19.191 Y56.423 E8.07203
G1 X18.653 Y56.082 E8.09641
G1 X18.063 Y55.581 E8.12603
G1 X17.536 Y55.003 E8.15596
G1 X17.176 Y54.478 E8.18032
G1 X16.884 Y53.912 E8.2047
G1 X16.665 Y53.314 E8.22907
G1 X16.523 Y52.694 E8.25341
G1 X16.456 Y51.884 E8.28451
G1 X16.45 Y48.998 E8.39496
G1 X16.45 Y18.128 E9.57635
G1 X16.49 Y17.492 E9.60074
G1 X16.609 Y16.867 E9.62509
G1 X16.806 Y16.261 E9.64948
G1 X17.053 Y15.737 E9.67165
G0 F1620 X17.077 Y15.685
G0 X17.418 Y15.147
G0 F4320 X17.766 Y15.266
G1 F1800 X18.168 Y14.803 E9.69511
G1 X18.73 Y14.293 E9.72416
G1 X19.238 Y13.948 E9.74766
G1 X19.788 Y13.673 E9.77119
G1 X20.368 Y13.471 E9.79469
G1 X20.97 Y13.346 E9.81822
G1 X21.627 Y13.3 E9.84343
G1 X98.372 Y13.3 E12.78046
G1 X98.985 Y13.34 E12.80396
G1 X99.588 Y13.459 E12.82749
G1 X100.17 Y13.656 E12.851
G1 X100.722 Y13.926 E12.87452
G1 X101.234 Y14.266 E12.89804
G1 X101.713 Y14.684 E12.92237
G1 X102.221 Y15.249 E12.95145
G1 X102.563 Y15.759 E12.97495
G1 X102.836 Y16.31 E12.99848
G1 X103.035 Y16.891 E13.02198
G1 X103.157 Y17.494 E13.04553
G1 X103.2 Y18.128 E13.06984
G1 X103.2 Y51.872 E14.36123
G1 X103.16 Y52.485 E14.38474
G1 X103.041 Y53.088 E14.40826
G1 X102.844 Y53.67 E14.43177
G1 X102.574 Y54.222 E14.45529
G1 X102.234 Y54.734 E14.47881
G1 X101.816 Y55.213 E14.50314
G1 X101.251 Y55.721 E14.53222
G1 X100.741 Y56.063 E14.55572
G1 X100.19 Y56.336 E14.57925
G1 X99.609 Y56.535 E14.60275
G1 X99.006 Y56.657 E14.6263
G1 X98.372 Y56.7 E14.65062
G1 X21.634 Y56.7 E17.58737
G1 X21.021 Y56.66 E17.61088
G1 X20.418 Y56.541 E17.63441
G1 X19.836 Y56.344 E17.65792
G1 X19.284 Y56.074 E17.68144
G1 X18.772 Y55.734 E17.70496
G1 X18.309 Y55.332 E17.72842
G1 X17.799 Y54.77 E17.75747
G1 X17.454 Y54.262 E17.78097
G1 X17.179 Y53.712 E17.8045
G1 X16.977 Y53.132 E17.828
G1 X16.852 Y52.53 E17.85153
G1 X16.806 Y51.883 E17.87636
G1 X16.8 Y48.997 E17.98681
G1 X16.8 Y18.128 E19.16816
G1 X16.84 Y17.515 E19.19167
G1 X16.959 Y16.912 E19.21519
G1 X17.156 Y16.33 E19.23871
G1 X17.391 Y15.849 E19.25919
G0 F1620 X17.426 Y15.778
G0 X17.766 Y15.266
G0 F4320 X18.113 Y15.39
G1 F1800 X18.518 Y14.947 E19.28216
G1 X18.962 Y14.555 E19.30483
G1 X19.454 Y14.228 E19.32744
G1 X19.986 Y13.969 E19.35008
G1 X20.548 Y13.785 E19.37271
G1 X21.129 Y13.678 E19.39532
G1 X21.627 Y13.65 E19.41441
G1 X98.372 Y13.65 E22.35144
G1 X98.962 Y13.69 E22.37407
G1 X99.541 Y13.809 E22.39669
G1 X100.099 Y14.005 E22.41932
G1 X100.625 Y14.275 E22.44195
G1 X101.11 Y14.613 E22.46457
G1 X101.569 Y15.034 E22.48841
G1 X101.957 Y15.48 E22.51103
G1 X102.283 Y15.974 E22.53368
G1 X102.538 Y16.507 E22.5563
G1 X102.72 Y17.069 E22.5789
G1 X102.824 Y17.651 E22.60153
G1 X102.85 Y18.128 E22.61981
G1 X102.85 Y51.872 E23.91119
G1 X102.81 Y52.462 E23.93382
G1 X102.691 Y53.041 E23.95645
G1 X102.495 Y53.599 E23.97908
G1 X102.225 Y54.125 E24.00171
G1 X101.887 Y54.61 E24.02433
G1 X101.466 Y55.069 E24.04817
G1 X101.02 Y55.457 E24.07079
G1 X100.526 Y55.783 E24.09344
G1 X99.993 Y56.038 E24.11605
G1 X99.431 Y56.22 E24.13866
G1 X98.849 Y56.324 E24.16129
G1 X98.372 Y56.35 E24.17957
G1 X21.634 Y56.35 E27.11633
G1 X21.044 Y56.31 E27.13896
G1 X20.465 Y56.191 E27.16158
G1 X19.907 Y55.995 E27.18421
G1 X19.381 Y55.725 E27.20684
G1 X18.896 Y55.387 E27.22946
G1 X18.453 Y54.982 E27.25243
G1 X18.061 Y54.538 E27.2751
G1 X17.734 Y54.046 E27.29771
G1 X17.475 Y53.514 E27.32035
G1 X17.291 Y52.952 E27.34298
G1 X17.184 Y52.371 E27.36559
G1 X17.156 Y51.882 E27.38434
G1 X17.15 Y48.996 E27.49478
G1 X17.15 Y18.128 E28.6761
G1 X17.19 Y17.538 E28.69873
G1 X17.309 Y16.959 E28.72135
G1 X17.505 Y16.401 E28.74399
G1 X17.728 Y15.966 E28.7627
G0 F1620 X17.775 Y15.875
G0 X18.113 Y15.39
G0 F4320 X18.123 Y15.976
G1 F1800 X18.46 Y15.52 E28.78439
G1 X18.767 Y15.193 E28.80156
G1 X19.193 Y14.819 E28.82325
G1 X19.668 Y14.509 E28.84496
G1 X20.182 Y14.268 E28.86669
G1 X20.724 Y14.103 E28.88837
G1 X21.284 Y14.015 E28.91006
G1 X21.627 Y14 E28.9232
G1 X98.372 Y14 E31.86023
G1 X98.938 Y14.04 E31.88194
G1 X99.492 Y14.159 E31.90363
G1 X100.024 Y14.355 E31.92533
G1 X100.524 Y14.623 E31.94704
G1 X100.98 Y14.96 E31.96874
G1 X101.321 Y15.282 E31.98669
G1 X101.693 Y15.71 E32.00839
G1 X102.001 Y16.186 E32.03008
G1 X102.239 Y16.701 E32.0518
G1 X102.402 Y17.244 E32.07349
G1 X102.487 Y17.805 E32.09521
G1 X102.5 Y18.128 E32.10758
G1 X102.5 Y51.872 E33.39896
G1 X102.46 Y52.438 E33.42067
G1 X102.341 Y52.992 E33.44236
G1 X102.145 Y53.524 E33.46406
G1 X101.877 Y54.024 E33.48577
G1 X101.54 Y54.48 E33.50747
G1 X101.218 Y54.821 E33.52542
G1 X100.79 Y55.193 E33.54712
G1 X100.314 Y55.501 E33.56881
G1 X99.799 Y55.739 E33.59053
G1 X99.256 Y55.902 E33.61222
G1 X98.695 Y55.987 E33.63394
G1 X98.372 Y56 E33.64631
G1 X21.634 Y56 E36.58307
G1 X21.068 Y55.96 E36.60478
G1 X20.514 Y55.841 E36.62647
G1 X19.982 Y55.645 E36.64817
G1 X19.482 Y55.377 E36.66988
G1 X19.026 Y55.04 E36.69158
G1 X18.699 Y54.733 E36.70874
G1 X18.325 Y54.307 E36.73043
G1 X18.015 Y53.832 E36.75214
G1 X17.774 Y53.318 E36.77387
G1 X17.609 Y52.776 E36.79555
G1 X17.521 Y52.216 E36.81724
G1 X17.506 Y51.881 E36.83008
G1 X17.5 Y48.995 E36.94052
G1 X17.5 Y18.128 E38.1218
G1 X17.54 Y17.562 E38.14352
G1 X17.659 Y17.008 E38.1652
G1 X17.812 Y16.595 E38.18206
G0 F1620 X17.855 Y16.476
G0 X18.123 Y15.976
G0 F4320 X18.472 Y16.082
G1 F1800 X18.914 Y15.542 E38.20876
G1 X19.424 Y15.083 E38.23502
G1 X19.881 Y14.791 E38.25578
G1 X20.375 Y14.57 E38.27649
G1 X20.897 Y14.423 E38.29724
G1 X21.627 Y14.35 E38.32532
G1 X98.372 Y14.35 E41.26234
G1 X98.912 Y14.39 E41.28307
G1 X99.441 Y14.509 E41.30382
G1 X99.946 Y14.704 E41.32453
G1 X100.418 Y14.972 E41.34531
G1 X100.971 Y15.426 E41.37269
G1 X101.427 Y15.94 E41.39898
G1 X101.717 Y16.398 E41.41973
G1 X101.936 Y16.893 E41.44045
G1 X102.08 Y17.416 E41.46121
G1 X102.15 Y18.128 E41.48858
G1 X102.15 Y51.872 E42.77997
G1 X102.11 Y52.412 E42.80069
G1 X101.991 Y52.941 E42.82144
G1 X101.796 Y53.446 E42.84216
G1 X101.528 Y53.918 E42.86293
G1 X101.074 Y54.471 E42.89031
G1 X100.56 Y54.927 E42.91661
G1 X100.102 Y55.217 E42.93735
G1 X99.607 Y55.436 E42.95807
G1 X99.084 Y55.58 E42.97883
G1 X98.372 Y55.65 E43.00621
G1 X21.634 Y55.65 E45.94297
G1 X21.094 Y55.61 E45.96369
G1 X20.565 Y55.491 E45.98444
G1 X20.06 Y55.296 E46.00516
G1 X19.588 Y55.028 E46.02593
G1 X19.048 Y54.586 E46.05263
G1 X18.589 Y54.076 E46.07889
G1 X18.297 Y53.619 E46.09965
G1 X18.076 Y53.125 E46.12036
G1 X17.929 Y52.603 E46.14111
G1 X17.856 Y51.881 E46.16888
G1 X17.85 Y48.995 E46.27933
G1 X17.85 Y18.128 E47.46061
G1 X17.89 Y17.588 E47.48133
G1 X18.009 Y17.059 E47.50208
G1 X18.15 Y16.695 E47.51702
G0 F1620 X18.204 Y16.554
G0 X18.472 Y16.082
G0 F4320 X18.82 Y16.194
G1 F1800 X19.162 Y15.788 E47.53734
G1 X19.654 Y15.348 E47.5626
G1 X20.092 Y15.076 E47.58233
G1 X20.566 Y14.874 E47.60205
G1 X21.066 Y14.748 E47.62178
G1 X21.627 Y14.7 E47.64333
G1 X98.372 Y14.7 E50.58035
G1 X98.886 Y14.74 E50.60008
G1 X99.387 Y14.859 E50.61979
G1 X99.864 Y15.054 E50.63951
G1 X100.306 Y15.32 E50.65925
G1 X100.723 Y15.674 E50.68019
G1 X101.161 Y16.168 E50.70545
G1 X101.432 Y16.607 E50.7252
G1 X101.631 Y17.082 E50.74491
G1 X101.755 Y17.583 E50.76466
G1 X101.8 Y18.128 E50.78559
G1 X101.8 Y51.872 E52.07697
G1 X101.76 Y52.386 E52.0967
G1 X101.641 Y52.887 E52.1164
G1 X101.446 Y53.364 E52.13613
G1 X101.18 Y53.806 E52.15587
G1 X100.826 Y54.223 E52.1768
G1 X100.332 Y54.661 E52.20207
G1 X99.893 Y54.932 E52.22181
G1 X99.418 Y55.131 E52.24152
G1 X98.917 Y55.255 E52.26127
G1 X98.372 Y55.3 E52.2822
G1 X21.634 Y55.3 E55.21896
G1 X21.12 Y55.26 E55.23869
G1 X20.619 Y55.141 E55.2584
G1 X20.142 Y54.946 E55.27812
G1 X19.7 Y54.68 E55.29786
G1 X19.294 Y54.338 E55.31818
G1 X18.854 Y53.846 E55.34344
G1 X18.582 Y53.408 E55.36317
G1 X18.38 Y52.934 E55.38289
G1 X18.254 Y52.434 E55.40262
G1 X18.206 Y51.88 E55.4239
G1 X18.2 Y48.994 E55.53435
G1 X18.2 Y18.128 E56.71559
G1 X18.24 Y17.614 E56.73532
G1 X18.359 Y17.113 E56.75502
G1 X18.487 Y16.801 E56.76793
G0 F1620 X18.554 Y16.636
G0 X18.82 Y16.194
G0 F4320 X19.168 Y16.313
G1 F1800 X19.513 Y15.932 E56.7876
G1 X19.883 Y15.615 E56.80625
G1 X20.3 Y15.362 E56.82491
G1 X20.753 Y15.181 E56.84358
G1 X21.229 Y15.077 E56.86223
G1 X21.627 Y15.05 E56.87749
G1 X98.372 Y15.05 E59.81452
G1 X98.858 Y15.09 E59.83318
G1 X99.331 Y15.209 E59.85185
G1 X99.778 Y15.403 E59.8705
G1 X100.187 Y15.668 E59.88915
G1 X100.579 Y16.024 E59.90941
G1 X100.894 Y16.396 E59.92807
G1 X101.144 Y16.814 E59.94671
G1 X101.323 Y17.268 E59.96538
G1 X101.425 Y17.744 E59.98401
G1 X101.45 Y18.128 E59.99874
G1 X101.45 Y51.872 E61.29012
G1 X101.41 Y52.358 E61.30878
G1 X101.291 Y52.831 E61.32745
G1 X101.097 Y53.278 E61.3461
G1 X100.832 Y53.687 E61.36475
G1 X100.476 Y54.079 E61.38501
G1 X100.104 Y54.394 E61.40367
G1 X99.686 Y54.644 E61.42231
G1 X99.232 Y54.823 E61.44098
G1 X98.756 Y54.925 E61.45961
G1 X98.372 Y54.95 E61.47434
G1 X21.634 Y54.95 E64.4111
G1 X21.148 Y54.91 E64.42976
G1 X20.675 Y54.791 E64.44843
G1 X20.228 Y54.597 E64.46708
G1 X19.819 Y54.332 E64.48573
G1 X19.438 Y53.987 E64.5054
G1 X19.121 Y53.617 E64.52404
G1 X18.868 Y53.2 E64.54271
G1 X18.687 Y52.747 E64.56138
G1 X18.583 Y52.271 E64.58002
G1 X18.556 Y51.879 E64.59506
G1 X18.55 Y48.993 E64.70551
G1 X18.55 Y18.128 E65.88671
G1 X18.59 Y17.642 E65.90537
G1 X18.709 Y17.169 E65.92404
G1 X18.821 Y16.911 E65.9348
G0 F1620 X18.903 Y16.722
G0 X19.168 Y16.313
G0 F4320 X19.252 Y16.815
G1 F1800 X19.66 Y16.281 E65.96052
G1 X20.111 Y15.882 E65.98356
G1 X20.506 Y15.651 E66.00108
G1 X20.936 Y15.493 E66.01861
G1 X21.386 Y15.411 E66.03611
G1 X98.372 Y15.4 E68.98236
G1 X98.828 Y15.44 E68.99988
G1 X99.27 Y15.558 E69.01739
G1 X99.685 Y15.752 E69.03492
G1 X100.228 Y16.169 E69.06112
G1 X100.625 Y16.623 E69.0842
G1 X100.854 Y17.019 E69.10171
G1 X101.011 Y17.449 E69.11923
G1 X101.1 Y18.128 E69.14544
G1 X101.1 Y51.872 E70.43682
G1 X101.06 Y52.328 E70.45433
G1 X100.942 Y52.77 E70.47184
G1 X100.748 Y53.185 E70.48937
G1 X100.331 Y53.728 E70.51558
G1 X99.877 Y54.125 E70.53866
G1 X99.481 Y54.354 E70.55616
G1 X99.051 Y54.511 E70.57368
G1 X98.372 Y54.6 E70.59989
G1 X21.634 Y54.6 E73.53665
G1 X21.178 Y54.56 E73.55417
G1 X20.736 Y54.442 E73.57167
G1 X20.321 Y54.248 E73.5892
G1 X19.787 Y53.84 E73.61492
G1 X19.388 Y53.389 E73.63797
G1 X19.157 Y52.994 E73.65548
G1 X18.999 Y52.564 E73.67301
G1 X18.917 Y52.114 E73.69052
G1 X18.9 Y48.992 E73.81
G1 X18.9 Y18.128 E74.99116
G1 X18.94 Y17.672 E75.00868
G1 X18.998 Y17.458 E75.01716
G0 F1620 X19.058 Y17.23
G0 X19.252 Y16.815
G0 F4320 X19.601 Y16.914
G1 F1800 X20.011 Y16.424 E75.04161
G1 X20.337 Y16.151 E75.05789
G1 X20.71 Y15.943 E75.07423
G1 X21.114 Y15.809 E75.09052
G1 X21.627 Y15.75 E75.11028
G1 X98.372 Y15.75 E78.04731
G1 X98.796 Y15.79 E78.06361
G1 X99.206 Y15.908 E78.07994
G1 X99.586 Y16.101 E78.09625
G1 X99.981 Y16.416 E78.11558
G1 X100.355 Y16.848 E78.13745
G1 X100.561 Y17.221 E78.15376
G1 X100.694 Y17.626 E78.17007
G1 X100.75 Y18.128 E78.1894
G1 X100.75 Y51.872 E79.48078
G1 X100.71 Y52.296 E79.49708
G1 X100.592 Y52.706 E79.51341
G1 X100.399 Y53.086 E79.52972
G1 X100.084 Y53.481 E79.54905
G1 X99.652 Y53.855 E79.57092
G1 X99.279 Y54.061 E79.58723
G1 X98.874 Y54.194 E79.60354
G1 X98.372 Y54.25 E79.62287
G1 X21.634 Y54.25 E82.55963
G1 X21.21 Y54.21 E82.57593
G1 X20.8 Y54.092 E82.59226
G1 X20.42 Y53.899 E82.60857
G1 X19.93 Y53.489 E82.63302
G1 X19.657 Y53.163 E82.64929
G1 X19.449 Y52.79 E82.66564
G1 X19.315 Y52.386 E82.68192
G1 X19.256 Y51.878 E82.7015
G1 X19.25 Y48.992 E82.81194
G1 X19.25 Y18.128 E83.99311
G1 X19.29 Y17.704 E84.00941
G1 X19.334 Y17.551 E84.0155
G0 F1620 X19.408 Y17.294
G0 X19.601 Y16.914
G0 F4320 X19.949 Y17.022
G1 F1800 X20.259 Y16.67 E84.03345
G1 X20.562 Y16.422 E84.04843
G1 X20.909 Y16.239 E84.06345
G1 X21.285 Y16.131 E84.07842
G1 X21.627 Y16.1 E84.09156
G1 X98.372 Y16.1 E87.02859
G1 X98.762 Y16.14 E87.04359
G1 X99.136 Y16.258 E87.0586
G1 X99.478 Y16.449 E87.07359
G1 X99.836 Y16.767 E87.09192
G1 X100.084 Y17.071 E87.10693
G1 X100.264 Y17.418 E87.12189
G1 X100.371 Y17.796 E87.13692
G1 X100.4 Y18.128 E87.14968
G1 X100.4 Y51.872 E88.44106
G1 X100.36 Y52.262 E88.45606
G1 X100.242 Y52.636 E88.47107
G1 X100.051 Y52.978 E88.48606
G1 X99.733 Y53.336 E88.50439
G1 X99.429 Y53.584 E88.5194
G1 X99.082 Y53.764 E88.53436
G1 X98.704 Y53.871 E88.5494
G1 X98.372 Y53.9 E88.56215
G1 X21.634 Y53.9 E91.49891
G1 X21.244 Y53.86 E91.51391
G1 X20.87 Y53.742 E91.52892
G1 X20.528 Y53.551 E91.54391
G1 X20.176 Y53.241 E91.56186
G1 X19.928 Y52.938 E91.57685
G1 X19.745 Y52.591 E91.59186
G1 X19.637 Y52.215 E91.60683
G1 X19.606 Y51.877 E91.61982
G1 X19.6 Y48.991 E91.73027
G1 X19.6 Y18.128 E92.91139
G1 X19.64 Y17.738 E92.9264
G1 X19.667 Y17.653 E92.92981
G0 F1620 X19.758 Y17.364
G0 X19.949 Y17.022
G0 F4320 X20.406 Y17.02
G1 F1800 X20.784 Y16.695 E92.94889
G1 X21.103 Y16.54 E92.96246
G1 X21.448 Y16.46 E92.97601
G1 X98.372 Y16.45 E95.91989
G1 X98.724 Y16.49 E95.93345
G1 X99.058 Y16.607 E95.94699
G1 X99.486 Y16.911 E95.96708
G1 X99.81 Y17.292 E95.98622
G1 X99.963 Y17.611 E95.99976
G1 X100.05 Y18.128 E96.01983
G1 X100.05 Y51.872 E97.31121
G1 X100.01 Y52.224 E97.32477
G1 X99.893 Y52.558 E97.33831
G1 X99.589 Y52.986 E97.3584
G1 X99.208 Y53.31 E97.37754
G1 X98.889 Y53.463 E97.39108
G1 X98.372 Y53.55 E97.41114
G1 X21.634 Y53.55 E100.3479
G1 X21.282 Y53.51 E100.36146
G1 X20.948 Y53.393 E100.375
G1 X20.526 Y53.094 E100.3948
G1 X20.201 Y52.716 E100.41388
G1 X20.046 Y52.397 E100.42745
G1 X19.956 Y51.876 E100.44768
G1 X19.95 Y48.99 E100.55813
G1 X19.95 Y18.128 E101.73922
G1 X19.99 Y17.776 E101.75277
G1 X20.049 Y17.609 E101.75955
G0 F1620 X20.107 Y17.442
G0 X20.406 Y17.02
G0 F4320 X20.457 Y17.528
G1 F1800 X20.655 Y17.266 E101.77212
G1 X20.757 Y17.163 E101.77767
G1 X21.003 Y16.971 E101.78961
G1 X21.29 Y16.847 E101.80158
G1 X21.627 Y16.8 E101.8146
G1 X98.372 Y16.8 E104.75162
G1 X98.682 Y16.84 E104.76359
G1 X98.972 Y16.957 E104.77555
G1 X99.238 Y17.159 E104.78834
G1 X99.341 Y17.262 E104.79391
G1 X99.532 Y17.509 E104.80586
G1 X99.654 Y17.797 E104.81783
G1 X99.7 Y18.128 E104.83062
G1 X99.7 Y51.872 E106.122
G1 X99.66 Y52.182 E106.13396
G1 X99.543 Y52.472 E106.14593
G1 X99.341 Y52.738 E106.15871
G1 X99.238 Y52.841 E106.16429
G1 X98.991 Y53.032 E106.17623
G1 X98.703 Y53.154 E106.1882
G1 X98.372 Y53.2 E106.20099
G1 X21.634 Y53.2 E109.13775
G1 X21.324 Y53.16 E109.14971
G1 X21.034 Y53.043 E109.16168
