;FLAVOR:Marlin
;TIME:6908
;Filament used: 3.41881m
;Layer height: 0.13125
;MINX:35.475
;MINY:39.625
;MINZ:0.263
;MAXX:84.525
;MAXY:80.375
;MAXZ:31.965
;Generated with Cura_SteamEngine 4.7.1
M140 S65
M105
M190 S65
M104 S215
M105
M109 S215
M82 ;absolute extrusion mode
G21;(metric values)
G90;(absolute positioning)
M82;(set extruder to absolute mode)
M107;(start with the fan off)
G28;(Home the printer)
G92 E0;(Reset the extruder to 0)
G0 Z5 E5 F500;(Move up and prime the nozzle)
G0 X-1 Z0;(Move outside the printable area)
G1 Y60 E8 F500;(Draw a priming/wiping line to the rear)
G1 X-1;(Move a little closer to the print area)
G1 Y10 E16 F500;(draw more priming/wiping)
G1 E15 F250;(Small retract)
G92 E0;(Zero the extruder)
G92 E0
G92 E0
G1 F2400 E-3
;LAYER_COUNT:243
;LAYER:0
M107
G0 F4320 X36.471 Y40.713 Z0.263
;TYPE:SKIRT
G1 F2400 E0
G1 F1800 X36.867 Y40.36 E0.0203
G1 X37.311 Y40.07 E0.0406
G1 X37.794 Y39.85 E0.06091
G1 X38.305 Y39.705 E0.08124
G1 X38.91 Y39.635 E0.10454
G1 X39.33 Y39.625 E0.12062
G1 X80.343 Y39.625 E1.69019
G1 X81.041 Y39.635 E1.7169
G1 X81.57 Y39.683 E1.73723
G1 X82.085 Y39.809 E1.75752
G1 X82.576 Y40.011 E1.77784
G1 X83.031 Y40.285 E1.79817
G1 X83.439 Y40.624 E1.81847
G1 X83.792 Y41.02 E1.83877
G1 X84.082 Y41.465 E1.8591
G1 X84.301 Y41.948 E1.87939
G1 X84.446 Y42.459 E1.89972
G1 X84.515 Y43.061 E1.92291
G1 X84.525 Y43.48 E1.93895
G1 X84.525 Y76.158 E3.18953
G1 X84.516 Y76.885 E3.21736
G1 X84.469 Y77.413 E3.23764
G1 X84.344 Y77.929 E3.25796
G1 X84.143 Y78.42 E3.27827
G1 X83.87 Y78.875 E3.29857
G1 X83.532 Y79.284 E3.31888
G1 X83.136 Y79.638 E3.33921
G1 X82.692 Y79.928 E3.3595
G1 X82.209 Y80.149 E3.37983
G1 X81.699 Y80.294 E3.40012
G1 X81.09 Y80.365 E3.42359
G1 X80.67 Y80.375 E3.43966
G1 X39.662 Y80.375 E5.00904
G1 X38.964 Y80.366 E5.03575
G1 X38.435 Y80.319 E5.05608
G1 X37.919 Y80.193 E5.0764
G1 X37.428 Y79.992 E5.09671
G1 X36.973 Y79.719 E5.11701
G1 X36.564 Y79.381 E5.13732
G1 X36.211 Y78.985 E5.15762
G1 X35.921 Y78.541 E5.17792
G1 X35.701 Y78.058 E5.19823
G1 X35.555 Y77.547 E5.21857
G1 X35.485 Y76.936 E5.2421
G1 X35.475 Y76.508 E5.25849
G1 X35.475 Y43.776 E6.51114
G1 X35.484 Y43.111 E6.53659
G1 X35.531 Y42.583 E6.55688
G1 X35.657 Y42.067 E6.5772
G1 X35.859 Y41.576 E6.59752
G1 X36.048 Y41.261 E6.61158
G0 F1620 X36.132 Y41.122
G0 X36.471 Y40.713
G0 F4320 X36.814 Y40.865
G1 F1800 X37.204 Y40.547 E6.63084
G1 X37.64 Y40.294 E6.65013
G1 X38.11 Y40.114 E6.66939
G1 X38.603 Y40.01 E6.68867
G1 X39.241 Y39.976 E6.71312
G1 X80.338 Y39.975 E8.2859
G1 X81.036 Y39.985 E8.31262
G1 X81.538 Y40.032 E8.33192
G1 X82.025 Y40.158 E8.35117
G1 X82.487 Y40.36 E8.37046
G1 X82.911 Y40.631 E8.38972
G1 X83.287 Y40.967 E8.40902
G1 X83.605 Y41.357 E8.42828
G1 X83.857 Y41.793 E8.44755
G1 X84.037 Y42.263 E8.46681
G1 X84.14 Y42.756 E8.48608
G1 X84.174 Y43.391 E8.51042
G1 X84.175 Y76.153 E9.76422
G1 X84.166 Y76.88 E9.79204
G1 X84.12 Y77.382 E9.81134
G1 X83.995 Y77.87 E9.83062
G1 X83.794 Y78.332 E9.8499
G1 X83.523 Y78.756 E9.86915
G1 X83.189 Y79.132 E9.8884
G1 X82.799 Y79.451 E9.90768
G1 X82.363 Y79.704 E9.92698
G1 X81.893 Y79.885 E9.94625
G1 X81.401 Y79.989 E9.96549
G1 X80.759 Y80.024 E9.9901
G1 X39.666 Y80.025 E11.56273
G1 X38.968 Y80.016 E11.58944
G1 X38.467 Y79.969 E11.6087
G1 X37.979 Y79.844 E11.62798
G1 X37.517 Y79.644 E11.64724
G1 X37.093 Y79.372 E11.66652
G1 X36.716 Y79.038 E11.6858
G1 X36.398 Y78.647 E11.70509
G1 X36.145 Y78.212 E11.72434
G1 X35.964 Y77.742 E11.74362
G1 X35.86 Y77.249 E11.7629
G1 X35.826 Y76.594 E11.788
G1 X35.825 Y43.781 E13.04375
G1 X35.834 Y43.116 E13.06921
G1 X35.881 Y42.615 E13.08846
G1 X36.006 Y42.127 E13.10774
G1 X36.207 Y41.665 E13.12702
G1 X36.376 Y41.402 E13.13899
G0 F1620 X36.479 Y41.241
G0 X36.814 Y40.865
G1 F2400 E10.13899
;MESH:powermeterDisplay_prototype7_topleft.stl
G0 F4320 X44.555 Y50.659
G0 X44.008 Y49.052
G0 X44.991 Y49.058
;TYPE:WALL-INNER
G1 F2400 E13.13899
G1 F1800 X44.235 Y49.177 E13.16827
G1 X44.063 Y49.211 E13.17498
G1 X43.273 Y49.613 E13.20891
G1 X42.633 Y50.253 E13.24355
G1 X42.223 Y51.056 E13.27805
G1 X42.081 Y51.95 E13.31269
G1 X42.197 Y52.685 E13.34117
G1 X42.231 Y52.857 E13.34788
G1 X42.633 Y53.647 E13.3818
G1 X43.273 Y54.287 E13.41644
G1 X44.079 Y54.697 E13.45105
G1 X44.783 Y54.808 E13.47832
G1 X44.959 Y54.84 E13.48517
G1 X45.864 Y54.697 E13.52023
G1 X46.667 Y54.287 E13.55474
G1 X47.307 Y53.647 E13.58937
G1 X47.717 Y52.841 E13.62398
G1 X47.824 Y52.154 E13.65059
G1 X47.862 Y51.97 E13.65778
G1 X47.743 Y51.215 E13.68703
G1 X47.709 Y51.043 E13.69374
G1 X47.307 Y50.253 E13.72766
G1 X46.667 Y49.613 E13.7623
G1 X45.861 Y49.203 E13.79691
G1 X45.676 Y49.174 E13.80407
G0 F1620 X45.157 Y49.093
G0 X44.991 Y49.058
G1 F2400 E10.80407
G0 F4320 X47.443 Y50.154
G0 X46.067 Y51.154
G0 X68.872 Y54.155
G0 X67.497 Y53.154
G0 X69.991 Y52.058
G1 F2400 E13.80407
G1 F1800 X69.235 Y52.177 E13.83336
G1 X69.063 Y52.211 E13.84007
G1 X68.273 Y52.613 E13.87399
G1 X67.633 Y53.253 E13.90863
G1 X67.223 Y54.059 E13.94324
G1 X67.116 Y54.746 E13.96985
G1 X67.078 Y54.93 E13.97704
G1 X67.197 Y55.685 E14.00629
G1 X67.231 Y55.857 E14.013
G1 X67.633 Y56.647 E14.04692
G1 X68.273 Y57.287 E14.08156
G1 X69.078 Y57.697 E14.11613
G1 X69.97 Y57.837 E14.15069
G1 X70.862 Y57.697 E14.18524
G1 X71.667 Y57.287 E14.21981
G1 X72.307 Y56.647 E14.25445
G1 X72.717 Y55.841 E14.28906
G1 X72.824 Y55.154 E14.31567
G1 X72.862 Y54.97 E14.32286
G1 X72.743 Y54.215 E14.35211
G1 X72.709 Y54.043 E14.35882
G1 X72.307 Y53.253 E14.39274
G1 X71.667 Y52.613 E14.42738
G1 X70.861 Y52.203 E14.46199
G1 X70.676 Y52.174 E14.46915
G0 F1620 X70.157 Y52.093
G0 X69.991 Y52.058
G1 F2400 E11.46915
G0 F4320 X71.393 Y52.991
G0 X71.929 Y53.527
G0 X72.289 Y54.296
G0 X72.375 Y55.051
G0 X71.766 Y57.423
G0 X70.764 Y56.049
G0 X81.64 Y57.423
G0 X79.94 Y57.423
G0 X80.125 Y75.975
G1 F2400 E14.46915
G1 F1800 X39.875 Y75.975 E16.00952
G1 X39.875 Y44.025 E17.23224
G1 X80.125 Y44.025 E18.77261
G1 X80.125 Y75.281 E19.96877
G0 F1620 X80.125 Y75.975
G0 F4320 X80.475 Y76.325
G1 F1800 X39.525 Y76.325 E21.53593
G1 X39.525 Y43.675 E22.78544
G1 X80.475 Y43.675 E24.35259
G1 X80.475 Y75.631 E25.57555
G0 F1620 X80.475 Y76.325
G1 F2400 E22.57555
G0 F4320 X79.94 Y52.414
G0 X81.64 Y52.414
G0 X71.067 Y54.154
G0 X72.443 Y53.154
G0 X69.982 Y52.414
G1 F2400 E25.57555
G1 F1800 X69.296 Y52.522 E25.60212
G1 X69.178 Y52.545 E25.60673
G1 X68.481 Y52.9 E25.63666
G1 X67.92 Y53.461 E25.66702
G1 X67.56 Y54.168 E25.69739
G1 X67.459 Y54.817 E25.72252
G1 X67.434 Y54.938 E25.72725
G1 X67.542 Y55.624 E25.75383
G1 X67.565 Y55.742 E25.75843
G1 X67.92 Y56.439 E25.78836
G1 X68.481 Y57 E25.81872
G1 X69.187 Y57.36 E25.84905
G1 X69.97 Y57.483 E25.87939
G1 X70.753 Y57.36 E25.90972
G1 X71.459 Y57 E25.94005
G1 X72.02 Y56.439 E25.97041
G1 X72.38 Y55.732 E26.00077
G1 X72.481 Y55.083 E26.02591
G1 X72.506 Y54.962 E26.03064
G1 X72.398 Y54.276 E26.05721
G1 X72.375 Y54.158 E26.06181
G1 X72.02 Y53.461 E26.09175
G1 X71.459 Y52.9 E26.12211
G1 X70.752 Y52.54 E26.15247
G1 X70.667 Y52.526 E26.15577
G0 F1620 X70.093 Y52.437
G0 X69.982 Y52.414
G1 F2400 E23.15577
G0 F4320 X67.497 Y53.154
G0 X68.872 Y54.155
G0 X46.26 Y51.535
G0 X47.868 Y50.988
G0 X46.393 Y49.991
G0 X44.982 Y49.414
G1 F2400 E26.15577
G1 F1800 X44.296 Y49.522 E26.18235
G1 X44.178 Y49.545 E26.18695
G1 X43.481 Y49.9 E26.21688
G1 X42.92 Y50.461 E26.24724
G1 X42.56 Y51.166 E26.27754
G1 X42.435 Y51.95 E26.30792
G1 X42.542 Y52.624 E26.33404
G1 X42.565 Y52.742 E26.33864
G1 X42.92 Y53.439 E26.36857
G1 X43.481 Y54 E26.39894
G1 X44.188 Y54.36 E26.4293
G1 X44.837 Y54.462 E26.45444
G1 X44.963 Y54.485 E26.45934
G1 X45.754 Y54.36 E26.48999
G1 X46.459 Y54 E26.52028
G1 X47.02 Y53.439 E26.55065
G1 X47.38 Y52.732 E26.58101
G1 X47.481 Y52.083 E26.60615
G1 X47.506 Y51.962 E26.61087
G1 X47.398 Y51.276 E26.63745
G1 X47.375 Y51.158 E26.64205
G1 X47.02 Y50.461 E26.67199
G1 X46.459 Y49.9 E26.70235
G1 X45.752 Y49.54 E26.73271
G1 X45.667 Y49.526 E26.73601
G0 F1620 X45.093 Y49.437
G0 X44.982 Y49.414
G0 F4320 X45.718 Y49.646
G0 X46.393 Y49.991
G0 X46.929 Y50.527
G0 X47.445 Y52.01
G0 X47.176 Y51.954
;TYPE:WALL-OUTER
G1 F1800 X47.078 Y51.332 E26.76011
G1 X47.065 Y51.265 E26.76272
G1 X46.754 Y50.654 E26.78895
G1 X46.266 Y50.166 E26.81537
G1 X45.651 Y49.853 E26.84178
G1 X45.037 Y49.757 E26.86556
G1 X44.974 Y49.744 E26.86802
G1 X44.352 Y49.842 E26.89212
G1 X44.285 Y49.855 E26.89473
G1 X43.674 Y50.166 E26.92097
G1 X43.186 Y50.654 E26.94738
G1 X42.873 Y51.268 E26.97375
G1 X42.764 Y51.95 E27.00018
G1 X42.862 Y52.568 E27.02413
G1 X42.875 Y52.635 E27.02674
G1 X43.186 Y53.246 E27.05298
G1 X43.674 Y53.734 E27.07939
G1 X44.289 Y54.047 E27.1058
G1 X44.896 Y54.142 E27.12931
G1 X44.967 Y54.155 E27.13208
G1 X45.652 Y54.047 E27.15861
G1 X46.266 Y53.734 E27.18499
G1 X46.754 Y53.246 E27.2114
G1 X47.063 Y52.639 E27.23747
G0 F1620 X47.067 Y52.631
G0 X47.163 Y52.017
G0 X47.176 Y51.954
G0 F4320 X47.145 Y51.757
G1 F2400 E24.23747
G0 F4320 X47.416 Y51.716
G0 X46.325 Y51.944
G0 X68.615 Y54.956
G0 X66.909 Y54.926
G0 X67.764 Y54.946
G1 F2400 E27.23747
G1 F1800 X67.862 Y55.568 E27.26157
G1 X67.875 Y55.635 E27.26418
G1 X68.186 Y56.246 E27.29041
G1 X68.674 Y56.734 E27.31683
G1 X69.288 Y57.047 E27.3432
G1 X69.97 Y57.154 E27.36962
G1 X70.652 Y57.047 E27.39604
G1 X71.266 Y56.734 E27.42241
G1 X71.754 Y56.246 E27.44883
G1 X72.067 Y55.631 E27.47523
G1 X72.163 Y55.017 E27.49902
G1 X72.176 Y54.954 E27.50148
G1 X72.078 Y54.332 E27.52558
G1 X72.065 Y54.265 E27.52819
G1 X71.754 Y53.654 E27.55443
G1 X71.266 Y53.166 E27.58084
G1 X70.651 Y52.853 E27.60725
G1 X70.037 Y52.757 E27.63103
G1 X69.974 Y52.744 E27.63349
G1 X69.352 Y52.842 E27.65759
G1 X69.285 Y52.855 E27.6602
G1 X68.674 Y53.166 E27.68644
G1 X68.186 Y53.654 E27.71285
G1 X67.877 Y54.261 E27.73892
G0 F1620 X67.873 Y54.269
G0 X67.777 Y54.883
G0 X67.764 Y54.946
G0 F4320 X67.795 Y55.143
G1 F2400 E24.73892
G0 F4320 X67.524 Y55.184
G0 X68.011 Y56.373
G0 X68.547 Y56.909
G0 X70.914 Y57.856
G0 X70.39 Y56.239
G0 X81.64 Y57.856
G0 X79.94 Y57.856
G0 X80.525 Y76.405
G0 X80.8 Y76.65
G1 F2400 E27.73892
G1 F1800 X39.2 Y76.65 E29.33095
G1 X39.2 Y43.35 E30.60534
G1 X80.8 Y43.35 E32.19737
G1 X80.8 Y75.956 E33.4452
G0 F1620 X80.8 Y76.65
G0 F4320 X80.6 Y76.65
G0 X80.6 Y76.375
G0 X80.04 Y75.635
G0 X79.785 Y75.635
;TYPE:SKIN
G1 F1800 X40.215 Y75.635 E34.95954
G1 X40.215 Y44.365 E36.15624
G1 X79.785 Y44.365 E37.67058
G1 X79.785 Y74.941 E38.84072
G0 F1620 X79.785 Y75.635
G1 F2400 E35.84072
G0 F4320 X80.04 Y75.635
G0 X79.94 Y57.778
G0 X81.64 Y57.778
G0 X71.068 Y55.745
G0 X72.443 Y56.746
G0 X70.89 Y57.778
G0 X70.969 Y58.025
G1 F2400 E38.84072
G1 F1800 X71.869 Y57.565 E38.8794
G1 X72.585 Y56.849 E38.91815
G1 X73.045 Y55.946 E38.95694
G1 X73.159 Y55.215 E38.98525
G1 X73.208 Y54.978 E38.99451
G1 X73.078 Y54.155 E39.0264
G1 X73.033 Y53.931 E39.03514
G1 X72.585 Y53.051 E39.07293
G1 X71.869 Y52.335 E39.11169
G1 X70.967 Y51.875 E39.15043
G1 X70.209 Y51.757 E39.17979
G1 X70 Y51.712 E39.18797
G1 X69.175 Y51.842 E39.21994
G1 X68.951 Y51.887 E39.22868
G1 X68.071 Y52.335 E39.26647
G1 X67.355 Y53.051 E39.30522
G1 X66.895 Y53.954 E39.34401
G1 X66.781 Y54.685 E39.37232
G1 X66.732 Y54.922 E39.38158
G1 X66.862 Y55.745 E39.41347
G1 X66.907 Y55.969 E39.42221
G1 X67.355 Y56.849 E39.46
G1 X68.071 Y57.565 E39.49875
G1 X68.971 Y58.025 E39.53743
G1 X69.97 Y58.181 E39.57613
G1 X70.284 Y58.132 E39.58829
G0 F1620 X70.969 Y58.025
G1 F2400 E36.58829
G0 F4320 X70.89 Y57.778
G0 X69.221 Y57.254
G0 X67.072 Y55.912
G0 X68.679 Y55.365
G0 X46.258 Y52.37
G0 X47.876 Y52.893
G0 X47.378 Y53.698
G0 X47.585 Y53.849
G1 F2400 E39.58829
G1 F1800 X48.045 Y52.946 E39.62707
G1 X48.159 Y52.215 E39.65539
G1 X48.208 Y51.978 E39.66465
G1 X48.078 Y51.155 E39.69654
G1 X48.033 Y50.931 E39.70528
G1 X47.585 Y50.051 E39.74307
G1 X46.869 Y49.335 E39.78182
G1 X45.967 Y48.875 E39.82057
G1 X45.209 Y48.757 E39.84993
G1 X45 Y48.712 E39.85811
G1 X44.175 Y48.842 E39.89007
G1 X43.951 Y48.887 E39.89882
G1 X43.071 Y49.335 E39.93661
G1 X42.355 Y50.051 E39.97536
G1 X41.896 Y50.949 E40.01395
G1 X41.737 Y51.95 E40.05274
G1 X41.862 Y52.745 E40.08354
G1 X41.907 Y52.969 E40.09228
G1 X42.355 Y53.849 E40.13008
G1 X43.071 Y54.565 E40.16883
G1 X43.972 Y55.025 E40.20754
G1 X44.73 Y55.144 E40.23691
G1 X44.955 Y55.184 E40.24565
G1 X45.971 Y55.025 E40.28501
G1 X46.869 Y54.565 E40.32362
G1 X47.094 Y54.34 E40.3358
G0 F1620 X47.585 Y53.849
G1 F2400 E37.3358
G0 F4320 X47.378 Y53.698
G0 X46.766 Y54.422
G0 X45.764 Y53.049
G0 X46.766 Y77.49
G0 X46.766 Y75.79
G0 X40.829 Y75.89
G0 X40.829 Y75.477
G1 F2400 E40.3358
G1 F1800 X40.372 Y75.02 E40.36053
G0 F4320 X40.372 Y74.525
G1 F1800 X41.324 Y75.477 E40.41205
G0 F4320 X41.819 Y75.477
G1 F1800 X40.372 Y74.03 E40.49037
G0 F4320 X40.372 Y73.535
G1 F1800 X42.313 Y75.477 E40.59545
G0 F4320 X42.808 Y75.477
G1 F1800 X40.372 Y73.04 E40.72731
G0 F4320 X40.372 Y72.545
G1 F1800 X43.303 Y75.477 E40.88597
G0 F4320 X43.798 Y75.477
G1 F1800 X40.372 Y72.05 E41.07142
G0 F4320 X40.372 Y71.555
G1 F1800 X44.293 Y75.477 E41.28366
G0 F4320 X44.788 Y75.477
G1 F1800 X40.372 Y71.06 E41.52269
G0 F4320 X40.372 Y70.565
G1 F1800 X45.283 Y75.477 E41.78851
G0 F4320 X45.778 Y75.477
G1 F1800 X40.372 Y70.07 E42.08112
G0 F4320 X40.372 Y69.575
G1 F1800 X46.273 Y75.477 E42.40052
G0 F4320 X46.768 Y75.477
G1 F1800 X40.372 Y69.08 E42.74671
G0 F4320 X40.372 Y68.585
G1 F1800 X47.263 Y75.477 E43.11969
G0 F4320 X47.758 Y75.477
G1 F1800 X40.372 Y68.09 E43.51946
G0 F4320 X40.372 Y67.595
G1 F1800 X48.253 Y75.477 E43.94602
G0 F4320 X48.748 Y75.477
G1 F1800 X40.372 Y67.1 E44.39938
G0 F4320 X40.372 Y66.605
G1 F1800 X49.243 Y75.477 E44.87952
G0 F4320 X49.738 Y75.477
G1 F1800 X40.372 Y66.11 E45.38645
G0 F4320 X40.372 Y65.615
G1 F1800 X50.233 Y75.477 E45.92017
G0 F4320 X50.728 Y75.477
G1 F1800 X40.372 Y65.12 E46.48069
G0 F4320 X40.372 Y64.626
G1 F1800 X51.223 Y75.477 E47.06796
G0 F4320 X51.718 Y75.477
G1 F1800 X40.372 Y64.131 E47.68203
G0 F4320 X40.372 Y63.636
G1 F1800 X52.213 Y75.477 E48.32289
G0 F4320 X52.708 Y75.477
G1 F1800 X40.372 Y63.141 E48.99053
G0 F4320 X40.372 Y62.646
G1 F1800 X53.203 Y75.477 E49.68497
G0 F4320 X53.698 Y75.477
G1 F1800 X40.372 Y62.151 E50.4062
G0 F4320 X40.372 Y61.656
G1 F1800 X54.193 Y75.477 E51.15422
G0 F4320 X54.688 Y75.477
G1 F1800 X40.372 Y61.161 E51.92903
G0 F4320 X40.372 Y60.666
G1 F1800 X55.183 Y75.477 E52.73063
G0 F4320 X55.678 Y75.477
G1 F1800 X40.372 Y60.171 E53.55902
G0 F4320 X40.372 Y59.676
G1 F1800 X56.173 Y75.477 E54.4142
G0 F4320 X56.668 Y75.477
G1 F1800 X40.372 Y59.181 E55.29617
G0 F4320 X40.372 Y58.686
G1 F1800 X57.163 Y75.477 E56.20493
G0 F4320 X57.658 Y75.477
G1 F1800 X40.372 Y58.191 E57.14048
G0 F4320 X40.372 Y57.696
G1 F1800 X58.153 Y75.477 E58.10282
G0 F4320 X58.648 Y75.477
G1 F1800 X40.372 Y57.201 E59.09195
G0 F4320 X40.372 Y56.706
G1 F1800 X59.143 Y75.477 E60.10787
G0 F4320 X59.638 Y75.477
G1 F1800 X40.372 Y56.211 E61.15058
G0 F4320 X40.372 Y55.716
G1 F1800 X60.133 Y75.477 E62.22008
G0 F4320 X60.628 Y75.477
G1 F1800 X40.372 Y55.221 E63.31638
G0 F4320 X40.372 Y54.726
G1 F1800 X61.123 Y75.477 E64.43946
G0 F4320 X61.617 Y75.477
G1 F1800 X40.372 Y54.231 E65.58931
G0 F4320 X40.372 Y53.736
G1 F1800 X62.112 Y75.477 E66.76594
G0 F4320 X62.607 Y75.477
G1 F1800 X40.372 Y53.241 E67.96937
G0 F4320 X40.372 Y52.746
G1 F1800 X63.102 Y75.477 E69.19959
G0 F4320 X63.597 Y75.477
G1 F1800 X40.372 Y52.251 E70.45659
G0 F4320 X40.372 Y51.756
G1 F1800 X41.884 Y53.268 E70.53843
G1 X41.946 Y53.33
G0 F4320 X41.675 Y52.564
G1 F1800 X40.372 Y51.261 E70.60895
G0 F4320 X40.372 Y50.766
G1 F1800 X41.582 Y51.977 E70.67446
G0 F4320 X41.642 Y51.542
G1 F1800 X40.372 Y50.271 E70.74322
G0 F4320 X40.372 Y49.776
G1 F1800 X41.711 Y51.116 E70.81572
G0 F4320 X41.828 Y50.737
G1 F1800 X40.372 Y49.281 E70.89452
G0 F4320 X40.372 Y48.786
G1 F1800 X41.995 Y50.409 E70.98236
G0 F4320 X42.162 Y50.082
G1 F1800 X40.372 Y48.291 E71.07927
G0 F4320 X40.372 Y47.796
G1 F1800 X42.379 Y49.804 E71.18792
G0 F4320 X42.627 Y49.556
G1 F1800 X40.372 Y47.301 E71.30996
G0 F4320 X40.372 Y46.806
G1 F1800 X42.874 Y49.309 E71.4454
G0 F4320 X43.168 Y49.108
G1 F1800 X40.372 Y46.311 E71.59675
G0 F4320 X40.372 Y45.816
G1 F1800 X43.496 Y48.94 E71.76583
G0 F4320 X43.824 Y48.774
G1 F1800 X40.372 Y45.322 E71.95266
