;FLAVOR:Marlin
;TIME:5652
;Filament used: 2.76065m
;Layer height: 0.13125
;MINX:3.975
;MINY:41.475
;MINZ:0.263
;MAXX:116.025
;MAXY:78.525
;MAXZ:5.372
;Generated with Cura_SteamEngine 4.6.1
M140 S65
M105
M190 S65
M104 S205
M105
M109 S205
M82 ;absolute extrusion mode
G21;(metric values)
G90;(absolute positioning)
M82;(set extruder to absolute mode)
M107;(start with the fan off)
G28;(Home the printer)
G92 E0;(Reset the extruder to 0)
G0 Z5 E5 F500;(Move up and prime the nozzle)
G0 X-1 Z0;(Move outside the printable area)
G1 Y60 E8 F500;(Draw a priming/wiping line to the rear)
G1 X-1;(Move a little closer to the print area)
G1 Y10 E16 F500;(draw more priming/wiping)
G1 E15 F250;(Small retract)
G92 E0;(Zero the extruder)
G92 E0
G92 E0
G1 F2400 E-2.5
;LAYER_COUNT:40
;LAYER:0
M107
G0 F4320 X113.038 Y41.882 Z0.263
;TYPE:SKIRT
G1 F2400 E0
G1 F1800 X113.525 Y42.008 E0.01925
G1 X113.987 Y42.21 E0.03855
G1 X114.411 Y42.481 E0.05781
G1 X114.787 Y42.817 E0.0771
G1 X115.105 Y43.207 E0.09636
G1 X115.357 Y43.643 E0.11563
G1 X115.537 Y44.113 E0.13489
G1 X115.64 Y44.606 E0.15417
G1 X115.674 Y45.241 E0.17851
G1 X115.675 Y74.303 E1.29071
G1 X115.666 Y75.03 E1.31853
G1 X115.62 Y75.532 E1.33782
G1 X115.495 Y76.02 E1.3571
G1 X115.294 Y76.482 E1.37638
G1 X115.023 Y76.906 E1.39564
G1 X114.689 Y77.282 E1.41489
G1 X114.299 Y77.601 E1.43417
G1 X113.863 Y77.854 E1.45346
G1 X113.393 Y78.035 E1.47274
G1 X112.901 Y78.139 E1.49198
G1 X112.259 Y78.174 E1.51659
G1 X8.166 Y78.175 E5.50022
G1 X7.468 Y78.166 E5.52693
G1 X6.967 Y78.119 E5.54619
G1 X6.479 Y77.994 E5.56547
G1 X6.017 Y77.794 E5.58474
G1 X5.593 Y77.522 E5.60401
G1 X5.216 Y77.188 E5.62329
G1 X4.898 Y76.797 E5.64258
G1 X4.645 Y76.362 E5.66184
G1 X4.464 Y75.892 E5.68111
G1 X4.36 Y75.399 E5.70039
G1 X4.326 Y74.744 E5.72549
G1 X4.325 Y45.631 E6.83965
G1 X4.334 Y44.966 E6.8651
G1 X4.381 Y44.465 E6.88436
G1 X4.506 Y43.977 E6.90363
G1 X4.707 Y43.515 E6.92292
G1 X4.979 Y43.091 E6.94219
G1 X5.314 Y42.715 E6.96147
G1 X5.704 Y42.397 E6.98072
G1 X6.14 Y42.144 E7.00002
G1 X6.61 Y41.964 E7.01928
G1 X7.103 Y41.86 E7.03856
G1 X7.741 Y41.826 E7.06301
G1 X111.838 Y41.825 E11.0468
G1 X112.346 Y41.833 E11.06624
G0 F1620 X112.536 Y41.835
G0 X113.038 Y41.882
G0 F4320 X113.07 Y41.533
G1 F1800 X113.585 Y41.659 E11.08653
G1 X114.076 Y41.861 E11.10685
G1 X114.531 Y42.135 E11.12718
G1 X114.939 Y42.474 E11.14748
G1 X115.292 Y42.87 E11.16778
G1 X115.582 Y43.315 E11.18811
G1 X115.801 Y43.798 E11.2084
G1 X115.946 Y44.309 E11.22873
G1 X116.015 Y44.911 E11.25192
G1 X116.025 Y74.308 E12.37694
G1 X116.016 Y75.035 E12.40476
G1 X115.969 Y75.563 E12.42505
G1 X115.844 Y76.079 E12.44537
G1 X115.643 Y76.57 E12.46567
G1 X115.37 Y77.025 E12.48598
G1 X115.032 Y77.434 E12.50629
G1 X114.636 Y77.788 E12.52661
G1 X114.192 Y78.078 E12.54691
G1 X113.709 Y78.299 E12.56724
G1 X113.199 Y78.444 E12.58753
G1 X112.59 Y78.515 E12.61099
G1 X8.162 Y78.525 E16.60744
G1 X7.464 Y78.516 E16.63416
G1 X6.935 Y78.469 E16.65448
G1 X6.419 Y78.343 E16.67481
G1 X5.928 Y78.142 E16.69512
G1 X5.473 Y77.869 E16.71542
G1 X5.064 Y77.531 E16.73573
G1 X4.711 Y77.135 E16.75603
G1 X4.421 Y76.691 E16.77632
G1 X4.201 Y76.208 E16.79664
G1 X4.055 Y75.697 E16.81697
G1 X3.985 Y75.086 E16.84051
G1 X3.975 Y45.626 E17.96794
G1 X3.984 Y44.961 E17.9934
G1 X4.031 Y44.433 E18.01368
G1 X4.157 Y43.917 E18.03401
G1 X4.359 Y43.426 E18.05433
G1 X4.632 Y42.972 E18.0746
G1 X4.971 Y42.563 E18.09493
G1 X5.367 Y42.21 E18.11523
G1 X5.811 Y41.92 E18.13553
G1 X6.294 Y41.7 E18.15584
G1 X6.805 Y41.555 E18.17617
G1 X7.41 Y41.485 E18.19948
G1 X111.843 Y41.475 E22.19612
G1 X112.378 Y41.483 E22.2166
G0 F1620 X112.541 Y41.485
G0 X113.07 Y41.533
G1 F2400 E19.7166
;MESH:prototype5_bottomleft.stl
G0 F4320 X111.44 Y44.36
G0 X111.44 Y46.06
G0 X111.468 Y73.968
G0 X8.375 Y74.125
;TYPE:WALL-INNER
G1 F2400 E22.2166
G1 F1800 X8.375 Y45.875 E23.29772
G1 X111.625 Y45.875 E27.2491
G1 X111.625 Y74.125 E28.33022
G1 X9.069 Y74.125 E32.25503
G0 F1620 X8.375 Y74.125
G0 F4320 X8.025 Y74.475
G1 F1800 X8.025 Y45.525 E33.36295
G1 X111.975 Y45.525 E37.34111
G1 X111.975 Y74.475 E38.44902
G1 X8.719 Y74.475 E42.40062
G0 F1620 X8.025 Y74.475
G0 F4320 X7.7 Y74.8
;TYPE:WALL-OUTER
G1 F1800 X7.7 Y45.2 E43.53342
G1 X112.3 Y45.2 E47.53645
G1 X112.3 Y74.8 E48.66924
G1 X8.394 Y74.8 E52.64572
G0 F1620 X7.7 Y74.8
G0 F4320 X7.7 Y74.6
G0 X7.975 Y74.6
G0 X8.46 Y73.785
G0 X8.715 Y73.785
;TYPE:SKIN
G1 F1800 X8.715 Y46.215 E53.70082
G1 X111.285 Y46.215 E57.62617
G1 X111.285 Y73.785 E58.68127
G1 X9.409 Y73.785 E62.58006
G0 F1620 X8.715 Y73.785
G0 F4320 X9.28 Y73.627
G1 F1800 X8.872 Y73.218 E62.60217
G0 F4320 X8.872 Y72.723
G1 F1800 X9.775 Y73.627 E62.65107
G0 F4320 X10.27 Y73.627
G1 F1800 X8.872 Y72.228 E62.72676
G0 F4320 X8.872 Y71.733
G1 F1800 X10.765 Y73.627 E62.82924
G0 F4320 X11.26 Y73.627
G1 F1800 X8.872 Y71.238 E62.95851
G0 F4320 X8.872 Y70.743
G1 F1800 X11.755 Y73.627 E63.11457
G0 F4320 X12.25 Y73.627
G1 F1800 X8.872 Y70.248 E63.29742
G0 F4320 X8.872 Y69.753
G1 F1800 X12.745 Y73.627 E63.50706
G0 F4320 X13.24 Y73.627
G1 F1800 X8.872 Y69.258 E63.74349
G0 F4320 X8.872 Y68.764
G1 F1800 X13.735 Y73.627 E64.00669
G0 F4320 X14.23 Y73.627
G1 F1800 X8.872 Y68.269 E64.29667
G0 F4320 X8.872 Y67.774
G1 F1800 X14.725 Y73.627 E64.61345
G0 F4320 X15.22 Y73.627
G1 F1800 X8.872 Y67.279 E64.95701
G0 F4320 X8.872 Y66.784
G1 F1800 X15.715 Y73.627 E65.32737
G0 F4320 X16.21 Y73.627
G1 F1800 X8.872 Y66.289 E65.72451
G0 F4320 X8.872 Y65.794
G1 F1800 X16.705 Y73.627 E66.14845
G0 F4320 X17.2 Y73.627
G1 F1800 X8.872 Y65.299 E66.59918
G0 F4320 X8.872 Y64.804
G1 F1800 X17.695 Y73.627 E67.07669
G0 F4320 X18.19 Y73.627
G1 F1800 X8.872 Y64.309 E67.581
G0 F4320 X8.872 Y63.814
G1 F1800 X18.685 Y73.627 E68.1121
G0 F4320 X19.18 Y73.627
G1 F1800 X8.872 Y63.319 E68.66999
G0 F4320 X8.872 Y62.824
G1 F1800 X19.675 Y73.627 E69.25467
G0 F4320 X20.17 Y73.627
G1 F1800 X8.872 Y62.329 E69.86614
G0 F4320 X8.872 Y61.834
G1 F1800 X20.665 Y73.627 E70.50439
G0 F4320 X21.16 Y73.627
G1 F1800 X8.872 Y61.339 E71.16944
G0 F4320 X8.872 Y60.844
G1 F1800 X21.655 Y73.627 E71.86128
G0 F4320 X22.15 Y73.627
G1 F1800 X8.872 Y60.349 E72.57991
G0 F4320 X8.872 Y59.854
G1 F1800 X22.645 Y73.627 E73.32533
G0 F4320 X23.14 Y73.627
G1 F1800 X8.872 Y59.359 E74.09755
G0 F4320 X8.872 Y58.864
G1 F1800 X23.635 Y73.627 E74.89655
G0 F4320 X24.13 Y73.627
G1 F1800 X8.872 Y58.369 E75.72234
G0 F4320 X8.872 Y57.874
G1 F1800 X24.624 Y73.627 E76.57489
G0 F4320 X25.119 Y73.627
G1 F1800 X8.872 Y57.379 E77.45424
G0 F4320 X8.872 Y56.884
G1 F1800 X25.614 Y73.627 E78.36037
G0 F4320 X26.109 Y73.627
G1 F1800 X8.872 Y56.389 E79.2933
G0 F4320 X8.872 Y55.894
G1 F1800 X26.604 Y73.627 E80.25302
G0 F4320 X27.099 Y73.627
G1 F1800 X8.872 Y55.399 E81.23952
G0 F4320 X8.872 Y54.904
G1 F1800 X27.594 Y73.627 E82.25282
G0 F4320 X28.089 Y73.627
G1 F1800 X8.872 Y54.409 E83.29291
G0 F4320 X8.872 Y53.914
G1 F1800 X28.584 Y73.627 E84.35978
G0 F4320 X29.079 Y73.627
G1 F1800 X8.872 Y53.419 E85.45345
G0 F4320 X8.872 Y52.924
G1 F1800 X29.574 Y73.627 E86.57391
G0 F4320 X30.069 Y73.627
G1 F1800 X8.872 Y52.429 E87.72116
G0 F4320 X8.872 Y51.934
G1 F1800 X30.564 Y73.627 E88.8952
G0 F4320 X31.059 Y73.627
G1 F1800 X8.872 Y51.439 E90.09603
G0 F4320 X8.872 Y50.944
G1 F1800 X31.554 Y73.627 E91.32364
G0 F4320 X32.049 Y73.627
G1 F1800 X8.872 Y50.449 E92.57805
G0 F4320 X8.872 Y49.954
G1 F1800 X32.544 Y73.627 E93.85925
G0 F4320 X33.039 Y73.627
G1 F1800 X8.872 Y49.459 E95.16724
G0 F4320 X8.872 Y48.965
G1 F1800 X33.534 Y73.627 E96.502
G0 F4320 X34.029 Y73.627
G1 F1800 X8.872 Y48.47 E97.86354
G0 F4320 X8.872 Y47.975
G1 F1800 X34.524 Y73.627 E99.25188
G0 F4320 X35.019 Y73.627
G1 F1800 X8.872 Y47.48 E100.667
G0 F4320 X8.872 Y46.985
G1 F1800 X35.514 Y73.627 E102.10892
G0 F4320 X36.009 Y73.627
G1 F1800 X8.872 Y46.49 E103.57762
G0 F4320 X9.248 Y46.372
G1 F1800 X36.504 Y73.627 E105.05274
G0 F4320 X36.999 Y73.627
G1 F1800 X9.743 Y46.372 E106.52786
G0 F4320 X10.238 Y46.372
G1 F1800 X37.494 Y73.627 E108.00298
G0 F4320 X37.989 Y73.627
G1 F1800 X10.733 Y46.372 E109.4781
G0 F4320 X11.228 Y46.372
G1 F1800 X38.484 Y73.627 E110.95321
G0 F4320 X38.979 Y73.627
G1 F1800 X11.723 Y46.372 E112.42833
G0 F4320 X12.218 Y46.372
G1 F1800 X39.474 Y73.627 E113.90345
G0 F4320 X39.969 Y73.627
G1 F1800 X12.713 Y46.372 E115.37857
G0 F4320 X13.208 Y46.372
G1 F1800 X40.464 Y73.627 E116.85369
G0 F4320 X40.959 Y73.627
G1 F1800 X13.703 Y46.372 E118.32881
G0 F4320 X14.198 Y46.372
G1 F1800 X41.454 Y73.627 E119.80393
G0 F4320 X41.949 Y73.627
G1 F1800 X14.693 Y46.372 E121.27905
G0 F4320 X15.188 Y46.372
G1 F1800 X42.444 Y73.627 E122.75416
G0 F4320 X42.939 Y73.627
G1 F1800 X15.683 Y46.372 E124.22928
G0 F4320 X16.178 Y46.372
G1 F1800 X43.434 Y73.627 E125.7044
G0 F4320 X43.929 Y73.627
G1 F1800 X16.673 Y46.372 E127.17952
G0 F4320 X17.168 Y46.372
G1 F1800 X44.423 Y73.627 E128.65461
G0 F4320 X44.918 Y73.627
G1 F1800 X17.663 Y46.372 E130.1297
G0 F4320 X18.158 Y46.372
G1 F1800 X45.413 Y73.627 E131.6048
G0 F4320 X45.908 Y73.627
G1 F1800 X18.653 Y46.372 E133.07989
G0 F4320 X19.148 Y46.372
G1 F1800 X46.403 Y73.627 E134.55498
G0 F4320 X46.898 Y73.627
G1 F1800 X19.643 Y46.372 E136.03007
G0 F4320 X20.138 Y46.372
G1 F1800 X47.393 Y73.627 E137.50516
G0 F4320 X47.888 Y73.627
G1 F1800 X20.633 Y46.372 E138.98025
G0 F4320 X21.128 Y46.372
G1 F1800 X48.383 Y73.627 E140.45535
G0 F4320 X48.878 Y73.627
G1 F1800 X21.623 Y46.372 E141.93044
G0 F4320 X22.118 Y46.372
G1 F1800 X49.373 Y73.627 E143.40553
G0 F4320 X49.868 Y73.627
G1 F1800 X22.613 Y46.372 E144.88062
G0 F4320 X23.108 Y46.372
G1 F1800 X50.363 Y73.627 E146.35571
G0 F4320 X50.858 Y73.627
G1 F1800 X23.603 Y46.372 E147.8308
G0 F4320 X24.098 Y46.372
G1 F1800 X51.353 Y73.627 E149.30589
G0 F4320 X51.848 Y73.627
G1 F1800 X24.593 Y46.372 E150.78099
G0 F4320 X25.088 Y46.372
G1 F1800 X52.343 Y73.627 E152.25608
G0 F4320 X52.838 Y73.627
G1 F1800 X25.583 Y46.372 E153.73117
G0 F4320 X26.078 Y46.372
G1 F1800 X53.333 Y73.627 E155.20626
G0 F4320 X53.828 Y73.627
G1 F1800 X26.573 Y46.372 E156.68135
G0 F4320 X27.068 Y46.372
G1 F1800 X54.323 Y73.627 E158.15644
G0 F4320 X54.818 Y73.627
G1 F1800 X27.563 Y46.372 E159.63154
G0 F4320 X28.057 Y46.372
G1 F1800 X55.313 Y73.627 E161.10665
G0 F4320 X55.808 Y73.627
G1 F1800 X28.552 Y46.372 E162.58177
G0 F4320 X29.047 Y46.372
G1 F1800 X56.303 Y73.627 E164.05689
G0 F4320 X56.798 Y73.627
G1 F1800 X29.542 Y46.372 E165.53201
G0 F4320 X30.037 Y46.372
G1 F1800 X57.293 Y73.627 E167.00713
G0 F4320 X57.788 Y73.627
G1 F1800 X30.532 Y46.372 E168.48225
G0 F4320 X31.027 Y46.372
G1 F1800 X58.283 Y73.627 E169.95737
G0 F4320 X58.778 Y73.627
G1 F1800 X31.522 Y46.372 E171.43249
G0 F4320 X32.017 Y46.372
G1 F1800 X59.273 Y73.627 E172.9076
G0 F4320 X59.768 Y73.627
G1 F1800 X32.512 Y46.372 E174.38272
G0 F4320 X33.007 Y46.372
G1 F1800 X60.263 Y73.627 E175.85784
G0 F4320 X60.758 Y73.627
G1 F1800 X33.502 Y46.372 E177.33296
G0 F4320 X33.997 Y46.372
G1 F1800 X61.253 Y73.627 E178.80808
G0 F4320 X61.748 Y73.627
G1 F1800 X34.492 Y46.372 E180.2832
G0 F4320 X34.987 Y46.372
G1 F1800 X62.243 Y73.627 E181.75832
G0 F4320 X62.738 Y73.627
G1 F1800 X35.482 Y46.372 E183.23344
G0 F4320 X35.977 Y46.372
G1 F1800 X63.233 Y73.627 E184.70855
G0 F4320 X63.727 Y73.627
G1 F1800 X36.472 Y46.372 E186.18365
G0 F4320 X36.967 Y46.372
G1 F1800 X64.222 Y73.627 E187.65874
G0 F4320 X64.717 Y73.627
G1 F1800 X37.462 Y46.372 E189.13383
G0 F4320 X37.957 Y46.372
G1 F1800 X65.212 Y73.627 E190.60892
G0 F4320 X65.707 Y73.627
G1 F1800 X38.452 Y46.372 E192.08401
G0 F4320 X38.947 Y46.372
G1 F1800 X66.202 Y73.627 E193.5591
G0 F4320 X66.697 Y73.627
G1 F1800 X39.442 Y46.372 E195.0342
G0 F4320 X39.937 Y46.372
G1 F1800 X67.192 Y73.627 E196.50929
G0 F4320 X67.687 Y73.627
G1 F1800 X40.432 Y46.372 E197.98438
G0 F4320 X40.927 Y46.372
G1 F1800 X68.182 Y73.627 E199.45947
G0 F4320 X68.677 Y73.627
G1 F1800 X41.422 Y46.372 E200.93456
G0 F4320 X41.917 Y46.372
G1 F1800 X69.172 Y73.627 E202.40965
G0 F4320 X69.667 Y73.627
G1 F1800 X42.412 Y46.372 E203.88475
G0 F4320 X42.907 Y46.372
G1 F1800 X70.162 Y73.627 E205.35984
G0 F4320 X70.657 Y73.627
G1 F1800 X43.402 Y46.372 E206.83493
G0 F4320 X43.897 Y46.372
G1 F1800 X71.152 Y73.627 E208.31002
G0 F4320 X71.647 Y73.627
G1 F1800 X44.392 Y46.372 E209.78511
G0 F4320 X44.887 Y46.372
G1 F1800 X72.142 Y73.627 E211.2602
G0 F4320 X72.637 Y73.627
G1 F1800 X45.382 Y46.372 E212.73529
G0 F4320 X45.877 Y46.372
G1 F1800 X73.132 Y73.627 E214.21039
G0 F4320 X73.627 Y73.627
G1 F1800 X46.372 Y46.372 E215.68548
G0 F4320 X46.867 Y46.372
G1 F1800 X74.122 Y73.627 E217.16057
G0 F4320 X74.617 Y73.627
G1 F1800 X47.362 Y46.372 E218.63566
G0 F4320 X47.856 Y46.372
G1 F1800 X75.112 Y73.627 E220.11078
G0 F4320 X75.607 Y73.627
G1 F1800 X48.351 Y46.372 E221.5859
G0 F4320 X48.846 Y46.372
G1 F1800 X76.102 Y73.627 E223.06102
G0 F4320 X76.597 Y73.627
G1 F1800 X49.341 Y46.372 E224.53614
G0 F4320 X49.836 Y46.372
G1 F1800 X77.092 Y73.627 E226.01125
G0 F4320 X77.587 Y73.627
G1 F1800 X50.331 Y46.372 E227.48637
G0 F4320 X50.826 Y46.372
G1 F1800 X78.082 Y73.627 E228.96149
G0 F4320 X78.577 Y73.627
G1 F1800 X51.321 Y46.372 E230.43661
G0 F4320 X51.816 Y46.372
G1 F1800 X79.072 Y73.627 E231.91173
G0 F4320 X79.567 Y73.627
G1 F1800 X52.311 Y46.372 E233.38685
G0 F4320 X52.806 Y46.372
G1 F1800 X80.062 Y73.627 E234.86197
G0 F4320 X80.557 Y73.627
G1 F1800 X53.301 Y46.372 E236.33709
G0 F4320 X53.796 Y46.372
G1 F1800 X81.052 Y73.627 E237.8122
G0 F4320 X81.547 Y73.627
G1 F1800 X54.291 Y46.372 E239.28732
G0 F4320 X54.786 Y46.372
G1 F1800 X82.042 Y73.627 E240.76244
G0 F4320 X82.537 Y73.627
G1 F1800 X55.281 Y46.372 E242.23756
G0 F4320 X55.776 Y46.372
G1 F1800 X83.032 Y73.627 E243.71268
G0 F4320 X83.526 Y73.627
G1 F1800 X56.271 Y46.372 E245.18777
G0 F4320 X56.766 Y46.372
G1 F1800 X84.021 Y73.627 E246.66286
G0 F4320 X84.516 Y73.627
G1 F1800 X57.261 Y46.372 E248.13795
G0 F4320 X57.756 Y46.372
G1 F1800 X85.011 Y73.627 E249.61305
G0 F4320 X85.506 Y73.627
G1 F1800 X58.251 Y46.372 E251.08814
G0 F4320 X58.746 Y46.372
G1 F1800 X86.001 Y73.627 E252.56323
G0 F4320 X86.496 Y73.627
G1 F1800 X59.241 Y46.372 E254.03832
G0 F4320 X59.736 Y46.372
G1 F1800 X86.991 Y73.627 E255.51341
G0 F4320 X87.486 Y73.627
G1 F1800 X60.231 Y46.372 E256.9885
G0 F4320 X60.726 Y46.372
G1 F1800 X87.981 Y73.627 E258.4636
G0 F4320 X88.476 Y73.627
G1 F1800 X61.221 Y46.372 E259.93869
G0 F4320 X61.716 Y46.372
G1 F1800 X88.971 Y73.627 E261.41378
G0 F4320 X89.466 Y73.627
G1 F1800 X62.211 Y46.372 E262.88887
G0 F4320 X62.706 Y46.372
G1 F1800 X89.961 Y73.627 E264.36396
G0 F4320 X90.456 Y73.627
G1 F1800 X63.201 Y46.372 E265.83905
G0 F4320 X63.696 Y46.372
G1 F1800 X90.951 Y73.627 E267.31415
G0 F4320 X91.446 Y73.627
G1 F1800 X64.191 Y46.372 E268.78924
G0 F4320 X64.686 Y46.372
G1 F1800 X91.941 Y73.627 E270.26433
G0 F4320 X92.436 Y73.627
G1 F1800 X65.181 Y46.372 E271.73942
G0 F4320 X65.676 Y46.372
G1 F1800 X92.931 Y73.627 E273.21451
G0 F4320 X93.426 Y73.627
G1 F1800 X66.171 Y46.372 E274.6896
G0 F4320 X66.666 Y46.372
G1 F1800 X93.921 Y73.627 E276.16469
G0 F4320 X94.416 Y73.627
G1 F1800 X67.161 Y46.372 E277.63979
G0 F4320 X67.655 Y46.372
G1 F1800 X94.911 Y73.627 E279.11491
G0 F4320 X95.406 Y73.627
G1 F1800 X68.15 Y46.372 E280.59002
G0 F4320 X68.645 Y46.372
G1 F1800 X95.901 Y73.627 E282.06514
G0 F4320 X96.396 Y73.627
G1 F1800 X69.14 Y46.372 E283.54026
G0 F4320 X69.635 Y46.372
G1 F1800 X96.891 Y73.627 E285.01538
G0 F4320 X97.386 Y73.627
G1 F1800 X70.13 Y46.372 E286.4905
G0 F4320 X70.625 Y46.372
G1 F1800 X97.881 Y73.627 E287.96562
G0 F4320 X98.376 Y73.627
G1 F1800 X71.12 Y46.372 E289.44074
G0 F4320 X71.615 Y46.372
G1 F1800 X98.871 Y73.627 E290.91585
G0 F4320 X99.366 Y73.627
G1 F1800 X72.11 Y46.372 E292.39097
G0 F4320 X72.605 Y46.372
G1 F1800 X99.861 Y73.627 E293.86609
G0 F4320 X100.356 Y73.627
G1 F1800 X73.1 Y46.372 E295.34121
G0 F4320 X73.595 Y46.372
G1 F1800 X100.851 Y73.627 E296.81633
G0 F4320 X101.346 Y73.627
G1 F1800 X74.09 Y46.372 E298.29145
G0 F4320 X74.585 Y46.372
G1 F1800 X101.841 Y73.627 E299.76657
G0 F4320 X102.336 Y73.627
G1 F1800 X75.08 Y46.372 E301.24169
G0 F4320 X75.575 Y46.372
G1 F1800 X102.831 Y73.627 E302.7168
G0 F4320 X103.325 Y73.627
G1 F1800 X76.07 Y46.372 E304.1919
