;FLAVOR:Marlin
;TIME:19043
;Filament used: 9.49053m
;Layer height: 0.13125
;MINX:2.5
;MINY:19.425
;MINZ:0.263
;MAXX:117.525
;MAXY:100.575
;MAXZ:26.987
;Generated with Cura_SteamEngine 4.7.0
M140 S65
M105
M190 S65
M104 S205
M105
M109 S205
M82 ;absolute extrusion mode
G21;(metric values)
G90;(absolute positioning)
M82;(set extruder to absolute mode)
M107;(start with the fan off)
G28;(Home the printer)
G92 E0;(Reset the extruder to 0)
G0 Z5 E5 F500;(Move up and prime the nozzle)
G0 X-1 Z0;(Move outside the printable area)
G1 Y60 E8 F500;(Draw a priming/wiping line to the rear)
G1 X-1;(Move a little closer to the print area)
G1 Y10 E16 F500;(draw more priming/wiping)
G1 E15 F250;(Small retract)
G92 E0;(Zero the extruder)
G92 E0
G92 E0
G1 F2400 E-2.5
;LAYER_COUNT:205
;LAYER:0
M107
G0 F4320 X6.627 Y21.478 Z0.263
;TYPE:SKIRT
G1 F2400 E0
G1 F1800 X7.097 Y21.331 E0.01885
G1 X9.635 Y20.456 E0.12159
G1 X11.767 Y19.658 E0.20871
G1 X12.277 Y19.51 E0.22903
G1 X12.895 Y19.437 E0.25284
G1 X13.33 Y19.425 E0.2695
G1 X113.343 Y19.425 E4.09699
G1 X114.041 Y19.435 E4.1237
G1 X114.57 Y19.483 E4.14403
G1 X115.085 Y19.609 E4.16432
G1 X115.576 Y19.811 E4.18464
G1 X116.031 Y20.085 E4.20497
G1 X116.439 Y20.424 E4.22527
G1 X116.792 Y20.82 E4.24557
G1 X117.082 Y21.265 E4.2659
G1 X117.301 Y21.748 E4.28619
G1 X117.446 Y22.259 E4.30652
G1 X117.515 Y22.861 E4.32971
G1 X117.525 Y23.28 E4.34575
G1 X117.525 Y55.993 E5.59767
G1 X117.515 Y56.694 E5.6245
G1 X117.467 Y57.223 E5.64483
G1 X117.341 Y57.738 E5.66512
G1 X117.139 Y58.229 E5.68544
G1 X116.865 Y58.684 E5.70577
G1 X116.526 Y59.092 E5.72607
G1 X116.127 Y59.447 E5.74651
G1 X115.926 Y59.6 E5.75617
G1 X113.759 Y61.301 E5.8616
G1 X111.629 Y63.073 E5.96764
G1 X109.595 Y64.864 E6.07135
G1 X107.598 Y66.724 E6.17579
G1 X105.658 Y68.639 E6.28012
G1 X103.752 Y70.628 E6.38554
G1 X101.953 Y72.616 E6.48815
G1 X100.188 Y74.679 E6.59205
G1 X98.453 Y76.829 E6.69778
G1 X96.816 Y78.979 E6.8012
G1 X95.207 Y81.22 E6.90678
G1 X93.678 Y83.481 E7.01123
G1 X92.212 Y85.791 E7.11594
G1 X90.808 Y88.145 E7.22083
G1 X89.502 Y90.482 E7.32329
G1 X88.219 Y92.939 E7.42936
G1 X87.035 Y95.373 E7.53295
G1 X85.901 Y97.882 E7.63832
G1 X85.665 Y98.425 E7.66098
G1 X85.429 Y98.875 E7.68042
G1 X85.416 Y98.896 E7.68137
G1 X85.104 Y99.325 E7.70167
G1 X84.73 Y99.702 E7.72199
G1 X84.305 Y100.019 E7.74228
G1 X83.836 Y100.269 E7.76262
G1 X83.336 Y100.445 E7.78291
G1 X82.814 Y100.544 E7.80324
G1 X82.199 Y100.574 E7.82681
G1 X41.085 Y100.575 E9.40024
G1 X40.404 Y100.565 E9.4263
G1 X39.876 Y100.517 E9.44659
G1 X39.36 Y100.39 E9.46693
G1 X38.87 Y100.188 E9.48721
G1 X38.427 Y99.923 E9.50697
G1 X38.4 Y99.904 E9.50823
G1 X37.991 Y99.567 E9.52851
G1 X37.636 Y99.172 E9.54884
G1 X37.345 Y98.728 E9.56915
G1 X36.997 Y97.952 E9.6017
G1 X35.917 Y95.472 E9.70522
G1 X34.738 Y92.965 E9.81124
G1 X33.532 Y90.573 E9.91376
G1 X32.214 Y88.136 E10.01979
G1 X30.859 Y85.793 E10.12337
G1 X29.418 Y83.455 E10.22847
G1 X27.923 Y81.174 E10.33285
G1 X26.36 Y78.934 E10.43738
G1 X24.754 Y76.763 E10.54072
G1 X23.046 Y74.588 E10.64656
G1 X21.311 Y72.5 E10.75045
G1 X19.512 Y70.459 E10.85457
G1 X17.648 Y68.459 E10.9592
G1 X15.744 Y66.526 E11.06304
G1 X13.76 Y64.628 E11.16811
G1 X11.737 Y62.797 E11.27254
G1 X9.661 Y61.021 E11.37709
G1 X7.553 Y59.318 E11.4808
G1 X5.309 Y57.612 E11.58868
G1 X4.562 Y57.06 E11.62422
G1 X4.145 Y56.704 E11.64521
G1 X3.771 Y56.327 E11.66553
G1 X3.43 Y55.921 E11.68582
G1 X3.057 Y55.261 E11.71483
G1 X2.963 Y55.04 E11.72402
G1 X2.755 Y54.511 E11.74578
G1 X2.599 Y54.004 E11.76608
G1 X2.514 Y53.36 E11.79094
G1 X2.5 Y52.666 E11.8175
G1 X2.5 Y49.134 E11.95267
G1 X2.51 Y48.437 E11.97935
G1 X2.519 Y48.239 E11.98693
G1 X2.599 Y47.113 E12.03013
G1 X2.64 Y46.635 E12.04849
G1 X2.796 Y43.937 E12.15192
G1 X2.876 Y41.171 E12.25782
G1 X2.879 Y38.47 E12.36119
G1 X2.804 Y35.735 E12.46589
G1 X2.65 Y32.957 E12.57237
G1 X2.539 Y31.591 E12.62482
G1 X2.507 Y30.984 E12.64808
G1 X2.5 Y30.5 E12.66661
G1 X2.5 Y26.93 E12.80323
G1 X2.511 Y26.221 E12.83037
G1 X2.56 Y25.693 E12.85066
G1 X2.697 Y25.147 E12.8722
G1 X2.904 Y24.535 E12.89693
G1 X3.111 Y24.046 E12.91725
G1 X3.43 Y23.52 E12.94079
G1 X3.75 Y23.097 E12.96109
G1 X4.181 Y22.662 E12.98453
G1 X4.587 Y22.321 E13.00482
G1 X5.04 Y22.045 E13.02512
G1 X5.536 Y21.838 E13.04569
G1 X5.968 Y21.695 E13.0631
G0 F1620 X6.627 Y21.478
G0 F4320 X6.732 Y21.812
G1 F1800 X7.206 Y21.664 E13.0821
G1 X9.761 Y20.782 E13.18555
G1 X11.89 Y19.986 E13.27253
G1 X12.374 Y19.848 E13.29179
G1 X12.905 Y19.786 E13.31225
G1 X13.33 Y19.775 E13.32852
G1 X113.338 Y19.775 E17.15582
G1 X114.036 Y19.785 E17.18254
G1 X114.538 Y19.832 E17.20183
G1 X115.025 Y19.958 E17.22108
G1 X115.487 Y20.16 E17.24038
G1 X115.911 Y20.431 E17.25964
G1 X116.287 Y20.767 E17.27894
G1 X116.605 Y21.157 E17.29819
G1 X116.857 Y21.593 E17.31747
G1 X117.037 Y22.063 E17.33673
G1 X117.14 Y22.556 E17.356
G1 X117.174 Y23.191 E17.38034
G1 X117.175 Y55.988 E18.63548
G1 X117.165 Y56.689 E18.66231
G1 X117.118 Y57.191 E18.6816
G1 X116.992 Y57.678 E18.70085
G1 X116.791 Y58.14 E18.72014
G1 X116.519 Y58.564 E18.73941
G1 X116.183 Y58.94 E18.75871
G1 X115.71 Y59.325 E18.78205
G1 X113.508 Y61.053 E18.88917
G1 X111.422 Y62.789 E18.99303
G1 X109.355 Y64.609 E19.09843
G1 X107.361 Y66.466 E19.20271
G1 X105.407 Y68.396 E19.30781
G1 X103.522 Y70.363 E19.41208
G1 X101.676 Y72.402 E19.51734
G1 X99.916 Y74.459 E19.62094
G1 X98.165 Y76.629 E19.72765
G1 X96.524 Y78.783 E19.83128
G1 X94.927 Y81.009 E19.93613
G1 X93.373 Y83.308 E20.04232
G1 X91.922 Y85.594 E20.14594
G1 X90.526 Y87.934 E20.25022
G1 X89.169 Y90.361 E20.35663
G1 X87.907 Y92.779 E20.46102
G1 X86.721 Y95.218 E20.56481
G1 X85.58 Y97.743 E20.67085
G1 X85.344 Y98.286 E20.69351
G1 X85.119 Y98.712 E20.71194
G1 X84.82 Y99.118 E20.73124
G1 X84.462 Y99.472 E20.75051
G1 X84.052 Y99.764 E20.76977
G1 X83.601 Y99.988 E20.78904
G1 X83.12 Y100.138 E20.80832
G1 X82.509 Y100.215 E20.83189
G1 X82.1 Y100.225 E20.84755
G1 X41.09 Y100.225 E22.417
G1 X40.409 Y100.215 E22.44306
G1 X39.908 Y100.167 E22.46232
G1 X39.42 Y100.041 E22.48161
G1 X38.959 Y99.84 E22.50086
G1 X38.602 Y99.618 E22.51695
G1 X38.214 Y99.296 E22.53624
G1 X37.882 Y98.917 E22.55553
G1 X37.615 Y98.491 E22.57477
G1 X37.32 Y97.817 E22.60292
G1 X36.221 Y95.296 E22.70817
G1 X35.068 Y92.844 E22.81187
G1 X33.824 Y90.378 E22.91757
G1 X32.527 Y87.979 E23.02194
G1 X31.154 Y85.603 E23.12696
G1 X29.703 Y83.25 E23.23275
G1 X28.223 Y80.992 E23.33607
G1 X26.648 Y78.736 E23.44137
G1 X25.014 Y76.527 E23.54652
G1 X23.342 Y74.397 E23.65015
G1 X21.562 Y72.256 E23.7567
G1 X19.784 Y70.237 E23.85966
G1 X17.889 Y68.204 E23.96602
G1 X15.988 Y66.275 E24.06967
G1 X14.009 Y64.381 E24.1745
G1 X11.969 Y62.535 E24.27979
G1 X9.881 Y60.749 E24.38494
G1 X7.753 Y59.03 E24.48963
G1 X5.521 Y57.333 E24.59694
G1 X4.77 Y56.778 E24.63267
G1 X4.382 Y56.447 E24.65219
G1 X4.021 Y56.083 E24.67181
G1 X3.699 Y55.696 E24.69108
G1 X3.378 Y55.123 E24.71621
G1 X3.289 Y54.912 E24.72498
G1 X3.081 Y54.383 E24.74673
G1 X2.935 Y53.901 E24.766
G1 X2.863 Y53.346 E24.78742
G1 X2.85 Y52.662 E24.8136
G1 X2.85 Y49.139 E24.94843
G1 X2.86 Y48.442 E24.9751
G1 X2.868 Y48.264 E24.98192
G1 X2.948 Y47.143 E25.02493
G1 X2.987 Y46.686 E25.04249
G1 X3.146 Y43.932 E25.14806
G1 X3.226 Y41.181 E25.25338
G1 X3.229 Y38.46 E25.35751
G1 X3.154 Y35.705 E25.46299
G1 X3.003 Y32.995 E25.56686
G1 X2.888 Y31.569 E25.62161
G1 X2.857 Y30.973 E25.64445
G1 X2.85 Y30.496 E25.66271
G1 X2.85 Y26.936 E25.79895
G1 X2.861 Y26.227 E25.82608
G1 X2.909 Y25.725 E25.84538
G1 X3.028 Y25.259 E25.86379
G1 X3.235 Y24.647 E25.88851
G1 X3.434 Y24.184 E25.9078
G1 X3.725 Y23.709 E25.92912
G1 X4.18 Y23.151 E25.95667
G1 X4.425 Y22.912 E25.96977
G1 X4.812 Y22.59 E25.98904
G1 X5.245 Y22.334 E26.00829
G1 X5.646 Y22.17 E26.02487
G1 X6.073 Y22.029 E26.04208
G0 F1620 X6.732 Y21.812
G0 F4320 X6.712 Y25.35
;TYPE:SUPPORT
G1 F1800 X8.087 Y25.35 E26.0947
G1 X9.088 Y26.35 E26.14885
G1 X12.15 Y26.35 E26.26603
G1 X12.15 Y30.95 E26.44207
G1 X6.2 Y30.949 E26.66978
G1 X6.2 Y26.351 E26.84574
G1 X6.457 Y26.093 E26.85968
G1 X6.457 Y25.939 E26.86557
G0 F1620 X6.457 Y25.605
G0 X6.712 Y25.35
G0 F4320 X6.999 Y25.49
G1 F1800 X6.999 Y30.809 E27.06913
G0 F4320 X6.339 Y30.329
G1 F1800 X12.009 Y30.329 E27.28612
G0 F4320 X11.665 Y30.809
G1 F1800 X11.665 Y26.49 E27.45141
G0 F4320 X12.009 Y27.996
G1 F1800 X6.339 Y27.996 E27.6684
G0 F4320 X6.597 Y25.663
G1 F1800 X8.201 Y25.663 E27.72978
G0 F4320 X9.332 Y26.49
G1 F1800 X9.332 Y30.809 E27.89507
G0 F4320 X12.15 Y48.55
G1 F1800 X12.15 Y53.15 E28.07111
G1 X8.998 Y53.15 E28.19174
G1 X8.089 Y54.05 E28.2407
G1 X6.713 Y54.05 E28.29335
G1 X6.458 Y53.795 E28.30716
G1 X6.458 Y53.408 E28.32197
G1 X6.2 Y53.149 E28.33596
G1 X6.201 Y48.55 E28.51196
G1 X11.456 Y48.55 E28.71307
G0 F1620 X12.15 Y48.55
G0 F4320 X12.009 Y48.993
G1 F1800 X6.34 Y48.993 E28.93002
G0 F4320 X6.999 Y48.69
G1 F1800 X6.999 Y53.91 E29.12979
G0 F4320 X6.597 Y53.659
G1 F1800 X8.283 Y53.659 E29.19431
G0 F4320 X9.332 Y53.01
G1 F1800 X9.332 Y48.69 E29.35964
G0 F4320 X11.665 Y48.69
G1 F1800 X11.665 Y53.01 E29.52497
G0 F4320 X12.009 Y51.326
G1 F1800 X6.34 Y51.326 E29.74192
G1 F2400 E27.24192
;MESH:powermeterDisplay_prototype6_top.stl
G0 F4320 X12.854 Y57.286
G0 X39.79 Y63.745
G0 X40.825 Y63.745
G0 X81.398 Y64.382
G0 X81.555 Y96.175
;TYPE:WALL-INNER
G1 F2400 E29.74192
G1 F1800 X41.305 Y96.175 E31.28228
G1 X41.305 Y64.225 E32.50501
G1 X81.555 Y64.225 E34.04537
G1 X81.555 Y95.481 E35.24154
G0 F1620 X81.555 Y96.175
G0 F4320 X81.905 Y96.525
G1 F1800 X40.955 Y96.525 E36.80869
G1 X40.955 Y63.875 E38.05821
G1 X81.905 Y63.875 E39.62536
G1 X81.905 Y95.831 E40.84831
G0 F1620 X81.905 Y96.525
G0 F4320 X82.23 Y96.85
;TYPE:WALL-OUTER
G1 F1800 X40.63 Y96.85 E42.44034
G1 X40.63 Y63.55 E43.71473
G1 X82.23 Y63.55 E45.30676
G1 X82.23 Y96.156 E46.55459
G0 F1620 X82.23 Y96.85
G0 F4320 X82.03 Y96.85
G0 X82.03 Y96.575
G0 X81.47 Y95.835
G0 X81.215 Y95.835
;TYPE:SKIN
G1 F1800 X41.645 Y95.835 E48.06893
G1 X41.645 Y64.565 E49.26564
G1 X81.215 Y64.565 E50.77998
G1 X81.215 Y95.141 E51.95012
G0 F1620 X81.215 Y95.835
G0 F4320 X81.47 Y95.835
G0 X81.398 Y64.382
G0 X80.561 Y64.31
G0 X80.561 Y64.722
G1 F1800 X81.058 Y65.219 E51.97702
G0 F4320 X81.058 Y65.714
G1 F1800 X80.066 Y64.722 E52.03071
G0 F4320 X79.571 Y64.722
G1 F1800 X81.058 Y66.209 E52.11119
G0 F4320 X81.058 Y66.704
G1 F1800 X79.076 Y64.722 E52.21845
G0 F4320 X78.581 Y64.722
G1 F1800 X81.058 Y67.199 E52.35251
G0 F4320 X81.058 Y67.694
G1 F1800 X78.086 Y64.722 E52.51337
G0 F4320 X77.591 Y64.722
G1 F1800 X81.058 Y68.189 E52.70101
G0 F4320 X81.058 Y68.684
G1 F1800 X77.096 Y64.722 E52.91544
G0 F4320 X76.601 Y64.722
G1 F1800 X81.058 Y69.179 E53.15666
G0 F4320 X81.058 Y69.674
G1 F1800 X76.106 Y64.722 E53.42467
G0 F4320 X75.611 Y64.722
G1 F1800 X81.058 Y70.169 E53.71947
G0 F4320 X81.058 Y70.664
G1 F1800 X75.116 Y64.722 E54.04106
G0 F4320 X74.621 Y64.722
G1 F1800 X81.058 Y71.158 E54.38942
G0 F4320 X81.058 Y71.653
G1 F1800 X74.126 Y64.722 E54.76456
G0 F4320 X73.631 Y64.722
G1 F1800 X81.058 Y72.148 E55.1665
G0 F4320 X81.058 Y72.643
G1 F1800 X73.136 Y64.722 E55.59523
G0 F4320 X72.641 Y64.722
G1 F1800 X81.058 Y73.138 E56.05074
G0 F4320 X81.058 Y73.633
G1 F1800 X72.146 Y64.722 E56.53305
G0 F4320 X71.651 Y64.722
G1 F1800 X81.058 Y74.128 E57.04215
G0 F4320 X81.058 Y74.623
G1 F1800 X71.156 Y64.722 E57.57804
G0 F4320 X70.661 Y64.722
G1 F1800 X81.058 Y75.118 E58.14071
G0 F4320 X81.058 Y75.613
G1 F1800 X70.166 Y64.722 E58.73018
G0 F4320 X69.671 Y64.722
G1 F1800 X81.058 Y76.108 E59.34644
G0 F4320 X81.058 Y76.603
G1 F1800 X69.176 Y64.722 E59.98949
G0 F4320 X68.681 Y64.722
G1 F1800 X81.058 Y77.098 E60.65933
G0 F4320 X81.058 Y77.593
G1 F1800 X68.187 Y64.722 E61.35593
G0 F4320 X67.692 Y64.722
G1 F1800 X81.058 Y78.088 E62.07932
G0 F4320 X81.058 Y78.583
G1 F1800 X67.197 Y64.722 E62.82951
G0 F4320 X66.702 Y64.722
G1 F1800 X81.058 Y79.078 E63.60648
G0 F4320 X81.058 Y79.573
G1 F1800 X66.207 Y64.722 E64.41025
G0 F4320 X65.712 Y64.722
G1 F1800 X81.058 Y80.068 E65.2408
G0 F4320 X81.058 Y80.563
G1 F1800 X65.217 Y64.722 E66.09814
G0 F4320 X64.722 Y64.722
G1 F1800 X81.058 Y81.058 E66.98228
G0 F4320 X81.058 Y81.553
G1 F1800 X64.227 Y64.722 E67.8932
G0 F4320 X63.732 Y64.722
G1 F1800 X81.058 Y82.048 E68.83092
G0 F4320 X81.058 Y82.543
G1 F1800 X63.237 Y64.722 E69.79543
G0 F4320 X62.742 Y64.722
G1 F1800 X81.058 Y83.038 E70.78672
G0 F4320 X81.058 Y83.533
G1 F1800 X62.247 Y64.722 E71.80481
G0 F4320 X61.752 Y64.722
G1 F1800 X81.058 Y84.028 E72.84969
G0 F4320 X81.058 Y84.523
G1 F1800 X61.256 Y64.721 E73.92141
G0 F4320 X60.761 Y64.721
G1 F1800 X81.058 Y85.018 E75.01992
G0 F4320 X81.058 Y85.513
G1 F1800 X60.266 Y64.721 E76.14522
G0 F4320 X59.771 Y64.721
G1 F1800 X81.058 Y86.008 E77.29731
G0 F4320 X81.058 Y86.503
G1 F1800 X59.276 Y64.721 E78.4762
G0 F4320 X58.781 Y64.721
G1 F1800 X81.058 Y86.998 E79.68187
G0 F4320 X81.058 Y87.493
G1 F1800 X58.286 Y64.721 E80.91433
G0 F4320 X57.791 Y64.721
G1 F1800 X81.058 Y87.988 E82.17359
G0 F4320 X81.058 Y88.483
G1 F1800 X57.296 Y64.721 E83.45963
G0 F4320 X56.801 Y64.721
G1 F1800 X81.058 Y88.978 E84.77246
G0 F4320 X81.058 Y89.473
G1 F1800 X56.306 Y64.721 E86.11209
G0 F4320 X55.811 Y64.721
G1 F1800 X81.058 Y89.968 E87.4785
G0 F4320 X81.058 Y90.462
G1 F1800 X55.316 Y64.721 E88.87168
G0 F4320 X54.821 Y64.721
G1 F1800 X81.058 Y90.957 E90.29165
G0 F4320 X81.058 Y91.452
G1 F1800 X54.327 Y64.721 E91.73838
G0 F4320 X53.832 Y64.721
G1 F1800 X81.058 Y91.947 E93.2119
G0 F4320 X81.058 Y92.442
G1 F1800 X53.337 Y64.721 E94.71222
G0 F4320 X52.842 Y64.721
G1 F1800 X81.058 Y92.937 E96.23932
G0 F4320 X81.058 Y93.432
G1 F1800 X52.347 Y64.721 E97.79321
G0 F4320 X51.852 Y64.721
G1 F1800 X81.058 Y93.927 E99.3739
G0 F4320 X81.058 Y94.422
G1 F1800 X51.357 Y64.721 E100.98137
G0 F4320 X50.862 Y64.721
G1 F1800 X81.058 Y94.917 E102.61563
G0 F4320 X81.058 Y95.412
G1 F1800 X50.367 Y64.721 E104.27669
G0 F4320 X49.872 Y64.721
G1 F1800 X80.827 Y95.677 E105.95206
G0 F4320 X80.332 Y95.677
G1 F1800 X49.377 Y64.721 E107.62743
G0 F4320 X48.882 Y64.721
G1 F1800 X79.838 Y95.677 E109.30282
G0 F4320 X79.343 Y95.677
G1 F1800 X48.387 Y64.721 E110.97822
G0 F4320 X47.892 Y64.721
G1 F1800 X78.848 Y95.677 E112.65362
G0 F4320 X78.353 Y95.677
G1 F1800 X47.397 Y64.721 E114.32901
G0 F4320 X46.902 Y64.721
G1 F1800 X77.858 Y95.677 E116.00441
G0 F4320 X77.363 Y95.677
G1 F1800 X46.407 Y64.721 E117.67981
G0 F4320 X45.912 Y64.721
G1 F1800 X76.868 Y95.677 E119.3552
G0 F4320 X76.373 Y95.677
G1 F1800 X45.417 Y64.721 E121.0306
G0 F4320 X44.922 Y64.721
G1 F1800 X75.878 Y95.677 E122.706
G0 F4320 X75.383 Y95.677
G1 F1800 X44.427 Y64.721 E124.38139
G0 F4320 X43.932 Y64.721
G1 F1800 X74.888 Y95.677 E126.05679
G0 F4320 X74.393 Y95.677
G1 F1800 X43.437 Y64.721 E127.73219
G0 F4320 X42.942 Y64.721
G1 F1800 X73.898 Y95.677 E129.40758
G0 F4320 X73.403 Y95.677
G1 F1800 X42.447 Y64.721 E131.08298
G0 F4320 X41.952 Y64.721
G1 F1800 X72.908 Y95.677 E132.75838
G0 F4320 X72.413 Y95.677
G1 F1800 X41.802 Y65.065 E134.41513
G0 F4320 X41.802 Y65.56
G1 F1800 X71.918 Y95.677 E136.04509
G0 F4320 X71.423 Y95.677
G1 F1800 X41.802 Y66.055 E137.64826
G0 F4320 X41.802 Y66.55
G1 F1800 X70.928 Y95.677 E139.22464
G0 F4320 X70.433 Y95.677
G1 F1800 X41.802 Y67.045 E140.77423
G0 F4320 X41.802 Y67.54
G1 F1800 X69.938 Y95.677 E142.29703
G0 F4320 X69.443 Y95.677
G1 F1800 X41.802 Y68.035 E143.79304
G0 F4320 X41.802 Y68.53
G1 F1800 X68.948 Y95.677 E145.26226
G0 F4320 X68.453 Y95.677
G1 F1800 X41.802 Y69.025 E146.70469
G0 F4320 X41.802 Y69.52
G1 F1800 X67.958 Y95.677 E148.12033
G0 F4320 X67.463 Y95.677
G1 F1800 X41.802 Y70.015 E149.50918
G0 F4320 X41.802 Y70.51
G1 F1800 X66.968 Y95.677 E150.87124
G0 F4320 X66.473 Y95.677
G1 F1800 X41.802 Y71.005 E152.2065
G0 F4320 X41.802 Y71.5
G1 F1800 X65.978 Y95.677 E153.51498
G0 F4320 X65.483 Y95.677
G1 F1800 X41.802 Y71.995 E154.79667
G0 F4320 X41.802 Y72.49
G1 F1800 X64.988 Y95.677 E156.05156
G0 F4320 X64.493 Y95.677
G1 F1800 X41.802 Y72.985 E157.27967
G0 F4320 X41.802 Y73.48
G1 F1800 X63.998 Y95.677 E158.48099
G0 F4320 X63.503 Y95.677
G1 F1800 X41.802 Y73.975 E159.65551
G0 F4320 X41.802 Y74.47
G1 F1800 X63.008 Y95.677 E160.80325
G0 F4320 X62.513 Y95.677
