;FLAVOR:Marlin
;TIME:6389
;Filament used: 3.00467m
;Layer height: 0.13125
;MINX:35.475
;MINY:9.625
;MINZ:0.263
;MAXX:84.525
;MAXY:50.375
;MAXZ:26.987
;Generated with Cura_SteamEngine 4.7.0
M140 S65
M105
M190 S65
M104 S205
M105
M109 S205
M82 ;absolute extrusion mode
G21;(metric values)
G90;(absolute positioning)
M82;(set extruder to absolute mode)
M107;(start with the fan off)
G28;(Home the printer)
G92 E0;(Reset the extruder to 0)
G0 Z5 E5 F500;(Move up and prime the nozzle)
G0 X-1 Z0;(Move outside the printable area)
G1 Y60 E8 F500;(Draw a priming/wiping line to the rear)
G1 X-1;(Move a little closer to the print area)
G1 Y10 E16 F500;(draw more priming/wiping)
G1 E15 F250;(Small retract)
G92 E0;(Zero the extruder)
G92 E0
G92 E0
G1 F2400 E-2.5
;LAYER_COUNT:205
;LAYER:0
M107
G0 F4320 X35.657 Y12.067 Z0.263
;TYPE:SKIRT
G1 F2400 E0
G1 F1800 X35.859 Y11.576 E0.02032
G1 X36.132 Y11.122 E0.04059
G1 X36.471 Y10.713 E0.06092
G1 X36.867 Y10.36 E0.08122
G1 X37.311 Y10.07 E0.10152
G1 X37.794 Y9.85 E0.12183
G1 X38.305 Y9.705 E0.14216
G1 X38.91 Y9.635 E0.16547
G1 X39.33 Y9.625 E0.18154
G1 X80.343 Y9.625 E1.75111
G1 X81.041 Y9.635 E1.77783
G1 X81.57 Y9.683 E1.79815
G1 X82.085 Y9.809 E1.81844
G1 X82.576 Y10.011 E1.83876
G1 X83.031 Y10.285 E1.85909
G1 X83.439 Y10.624 E1.87939
G1 X83.792 Y11.02 E1.89969
G1 X84.082 Y11.465 E1.92002
G1 X84.301 Y11.948 E1.94031
G1 X84.446 Y12.459 E1.96064
G1 X84.515 Y13.061 E1.98383
G1 X84.525 Y13.48 E1.99987
G1 X84.525 Y46.158 E3.25046
G1 X84.516 Y46.885 E3.27828
G1 X84.469 Y47.413 E3.29857
G1 X84.344 Y47.929 E3.31889
G1 X84.143 Y48.42 E3.33919
G1 X83.87 Y48.875 E3.3595
G1 X83.532 Y49.284 E3.3798
G1 X83.136 Y49.638 E3.40013
G1 X82.692 Y49.928 E3.42042
G1 X82.209 Y50.149 E3.44075
G1 X81.699 Y50.294 E3.46104
G1 X81.09 Y50.365 E3.48451
G1 X80.67 Y50.375 E3.50059
G1 X39.662 Y50.375 E5.06996
G1 X38.964 Y50.366 E5.09667
G1 X38.435 Y50.319 E5.117
G1 X37.919 Y50.193 E5.13733
G1 X37.428 Y49.992 E5.15763
G1 X36.973 Y49.719 E5.17794
G1 X36.564 Y49.381 E5.19824
G1 X36.211 Y48.985 E5.21854
G1 X35.921 Y48.541 E5.23884
G1 X35.701 Y48.058 E5.25915
G1 X35.555 Y47.547 E5.27949
G1 X35.485 Y46.936 E5.30303
G1 X35.475 Y46.508 E5.31941
G1 X35.475 Y13.776 E6.57206
G1 X35.484 Y13.111 E6.59751
G1 X35.517 Y12.745 E6.61158
G0 F1620 X35.531 Y12.583
G0 X35.657 Y12.067
G0 F4320 X36.006 Y12.127
G1 F1800 X36.207 Y11.665 E6.63086
G1 X36.479 Y11.241 E6.65014
G1 X36.814 Y10.865 E6.66941
G1 X37.204 Y10.547 E6.68867
G1 X37.64 Y10.294 E6.70796
G1 X38.11 Y10.114 E6.72722
G1 X38.603 Y10.01 E6.7465
G1 X39.241 Y9.976 E6.77095
G1 X80.338 Y9.975 E8.34373
G1 X81.036 Y9.985 E8.37045
G1 X81.538 Y10.032 E8.38974
G1 X82.025 Y10.158 E8.40899
G1 X82.487 Y10.36 E8.42829
G1 X82.911 Y10.631 E8.44755
G1 X83.287 Y10.967 E8.46685
G1 X83.605 Y11.357 E8.4861
G1 X83.857 Y11.793 E8.50538
G1 X84.037 Y12.263 E8.52464
G1 X84.14 Y12.756 E8.54391
G1 X84.174 Y13.391 E8.56825
G1 X84.175 Y46.153 E9.82205
G1 X84.166 Y46.88 E9.84987
G1 X84.12 Y47.382 E9.86916
G1 X83.995 Y47.87 E9.88844
G1 X83.794 Y48.332 E9.90772
G1 X83.523 Y48.756 E9.92698
G1 X83.189 Y49.132 E9.94623
G1 X82.799 Y49.451 E9.96551
G1 X82.363 Y49.704 E9.9848
G1 X81.893 Y49.885 E10.00408
G1 X81.401 Y49.989 E10.02332
G1 X80.759 Y50.024 E10.04793
G1 X39.666 Y50.025 E11.62055
G1 X38.968 Y50.016 E11.64727
G1 X38.467 Y49.969 E11.66653
G1 X37.979 Y49.844 E11.68581
G1 X37.517 Y49.644 E11.70507
G1 X37.093 Y49.372 E11.72435
G1 X36.716 Y49.038 E11.74363
G1 X36.398 Y48.647 E11.76291
G1 X36.145 Y48.212 E11.78217
G1 X35.964 Y47.742 E11.80145
G1 X35.86 Y47.249 E11.82073
G1 X35.826 Y46.594 E11.84583
G1 X35.825 Y13.781 E13.10158
G1 X35.834 Y13.116 E13.12703
G1 X35.864 Y12.805 E13.13899
G0 F1620 X35.881 Y12.615
G0 X36.006 Y12.127
G1 F2400 E10.63899
;MESH:powermeterDisplay_prototype6_top_left.stl
G0 F4320 X38.36 Y14.21
G0 X40.06 Y14.21
G0 X40.032 Y45.818
G0 X80.125 Y45.975
;TYPE:WALL-INNER
G1 F2400 E13.13899
G1 F1800 X39.875 Y45.975 E14.67935
G1 X39.875 Y14.025 E15.90208
G1 X80.125 Y14.025 E17.44244
G1 X80.125 Y45.281 E18.63861
G0 F1620 X80.125 Y45.975
G0 F4320 X80.475 Y46.325
G1 F1800 X39.525 Y46.325 E20.20576
G1 X39.525 Y13.675 E21.45528
G1 X80.475 Y13.675 E23.02243
G1 X80.475 Y45.631 E24.24539
G0 F1620 X80.475 Y46.325
G0 F4320 X80.8 Y46.65
;TYPE:WALL-OUTER
G1 F1800 X39.2 Y46.65 E25.83742
G1 X39.2 Y13.35 E27.1118
G1 X80.8 Y13.35 E28.70383
G1 X80.8 Y45.956 E29.95166
G0 F1620 X80.8 Y46.65
G0 F4320 X80.6 Y46.65
G0 X80.6 Y46.375
G0 X80.04 Y45.635
G0 X79.785 Y45.635
;TYPE:SKIN
G1 F1800 X40.215 Y45.635 E31.46601
G1 X40.215 Y14.365 E32.66271
G1 X79.785 Y14.365 E34.17705
G1 X79.785 Y44.941 E35.34719
G0 F1620 X79.785 Y45.635
G0 F4320 X80.04 Y45.635
G0 X80.04 Y14.785
G0 X79.627 Y14.785
G1 F1800 X79.364 Y14.522 E35.36142
G0 F4320 X78.869 Y14.522
G1 F1800 X79.627 Y15.28 E35.40245
G0 F4320 X79.627 Y15.775
G1 F1800 X78.374 Y14.522 E35.47026
G0 F4320 X77.879 Y14.522
G1 F1800 X79.627 Y16.27 E35.56487
G0 F4320 X79.627 Y16.765
G1 F1800 X77.384 Y14.522 E35.68626
G0 F4320 X76.889 Y14.522
G1 F1800 X79.627 Y17.26 E35.83445
G0 F4320 X79.627 Y17.755
G1 F1800 X76.394 Y14.522 E36.00943
G0 F4320 X75.899 Y14.522
G1 F1800 X79.627 Y18.25 E36.21119
G0 F4320 X79.627 Y18.745
G1 F1800 X75.404 Y14.522 E36.43975
G0 F4320 X74.909 Y14.522
G1 F1800 X79.627 Y19.24 E36.6951
G0 F4320 X79.627 Y19.735
G1 F1800 X74.414 Y14.522 E36.97723
G0 F4320 X73.919 Y14.522
G1 F1800 X79.627 Y20.23 E37.28616
G0 F4320 X79.627 Y20.725
G1 F1800 X73.424 Y14.522 E37.62188
G0 F4320 X72.929 Y14.522
G1 F1800 X79.627 Y21.22 E37.98439
G0 F4320 X79.627 Y21.715
G1 F1800 X72.434 Y14.522 E38.37369
G0 F4320 X71.939 Y14.522
G1 F1800 X79.627 Y22.21 E38.78977
G0 F4320 X79.627 Y22.705
G1 F1800 X71.444 Y14.522 E39.23265
G0 F4320 X70.949 Y14.522
G1 F1800 X79.627 Y23.2 E39.70232
G0 F4320 X79.627 Y23.695
G1 F1800 X70.454 Y14.522 E40.19878
G0 F4320 X69.959 Y14.522
G1 F1800 X79.627 Y24.19 E40.72203
G0 F4320 X79.627 Y24.685
G1 F1800 X69.464 Y14.522 E41.27207
G0 F4320 X68.969 Y14.522
G1 F1800 X79.627 Y25.18 E41.84891
G0 F4320 X79.627 Y25.675
G1 F1800 X68.474 Y14.522 E42.45253
G0 F4320 X67.979 Y14.522
G1 F1800 X79.627 Y26.17 E43.08294
G0 F4320 X79.627 Y26.664
G1 F1800 X67.484 Y14.522 E43.74011
G0 F4320 X66.989 Y14.522
G1 F1800 X79.627 Y27.159 E44.42408
G0 F4320 X79.627 Y27.654
G1 F1800 X66.494 Y14.522 E45.13483
G0 F4320 X65.999 Y14.522
G1 F1800 X79.627 Y28.149 E45.87238
G0 F4320 X79.627 Y28.644
G1 F1800 X65.504 Y14.522 E46.63672
G0 F4320 X65.009 Y14.522
G1 F1800 X79.627 Y29.139 E47.42784
G0 F4320 X79.627 Y29.634
G1 F1800 X64.515 Y14.522 E48.24573
G0 F4320 X64.02 Y14.522
G1 F1800 X79.627 Y30.129 E49.09041
G0 F4320 X79.627 Y30.624
G1 F1800 X63.525 Y14.522 E49.96188
G0 F4320 X63.03 Y14.522
G1 F1800 X79.627 Y31.119 E50.86014
G0 F4320 X79.627 Y31.614
G1 F1800 X62.535 Y14.522 E51.78519
G0 F4320 X62.04 Y14.522
G1 F1800 X79.627 Y32.109 E52.73704
G0 F4320 X79.627 Y32.604
G1 F1800 X61.545 Y14.522 E53.71567
G0 F4320 X61.05 Y14.522
G1 F1800 X79.627 Y33.099 E54.72109
G0 F4320 X79.627 Y33.594
G1 F1800 X60.555 Y14.522 E55.7533
G0 F4320 X60.06 Y14.522
G1 F1800 X79.627 Y34.089 E56.8123
G0 F4320 X79.627 Y34.584
G1 F1800 X59.565 Y14.522 E57.8981
G0 F4320 X59.07 Y14.522
G1 F1800 X79.627 Y35.079 E59.01068
G0 F4320 X79.627 Y35.574
G1 F1800 X58.575 Y14.522 E60.15005
G0 F4320 X58.08 Y14.522
G1 F1800 X79.627 Y36.069 E61.31622
G0 F4320 X79.627 Y36.564
G1 F1800 X57.585 Y14.522 E62.50917
G0 F4320 X57.09 Y14.522
G1 F1800 X79.627 Y37.059 E63.72892
G0 F4320 X79.627 Y37.554
G1 F1800 X56.595 Y14.522 E64.97545
G0 F4320 X56.1 Y14.522
G1 F1800 X79.627 Y38.049 E66.24878
G0 F4320 X79.627 Y38.544
G1 F1800 X55.605 Y14.522 E67.54889
G0 F4320 X55.11 Y14.522
G1 F1800 X79.627 Y39.039 E68.8758
G0 F4320 X79.627 Y39.534
G1 F1800 X54.615 Y14.522 E70.22949
G0 F4320 X54.12 Y14.522
G1 F1800 X79.627 Y40.029 E71.60998
G0 F4320 X79.627 Y40.524
G1 F1800 X53.625 Y14.522 E73.01726
G0 F4320 X53.13 Y14.522
G1 F1800 X79.627 Y41.019 E74.45133
G0 F4320 X79.627 Y41.514
G1 F1800 X52.635 Y14.522 E75.91218
G0 F4320 X52.14 Y14.522
G1 F1800 X79.627 Y42.009 E77.39983
G0 F4320 X79.627 Y42.504
G1 F1800 X51.645 Y14.522 E78.91427
G0 F4320 X51.15 Y14.522
G1 F1800 X79.627 Y42.999 E80.4555
G0 F4320 X79.627 Y43.494
G1 F1800 X50.655 Y14.522 E82.02352
G0 F4320 X50.16 Y14.522
G1 F1800 X79.627 Y43.989 E83.61833
G0 F4320 X79.627 Y44.484
G1 F1800 X49.665 Y14.522 E85.23993
G0 F4320 X49.17 Y14.522
G1 F1800 X79.627 Y44.979 E86.88832
G0 F4320 X79.627 Y45.474
G1 F1800 X48.675 Y14.522 E88.5635
G0 F4320 X48.18 Y14.522
G1 F1800 X79.135 Y45.477 E90.23884
G0 F4320 X78.64 Y45.477
G1 F1800 X47.685 Y14.522 E91.91418
G0 F4320 X47.19 Y14.522
G1 F1800 X78.145 Y45.477 E93.58952
G0 F4320 X77.65 Y45.477
G1 F1800 X46.695 Y14.522 E95.26487
G0 F4320 X46.2 Y14.522
G1 F1800 X77.155 Y45.477 E96.94021
G0 F4320 X76.66 Y45.477
G1 F1800 X45.705 Y14.522 E98.61555
G0 F4320 X45.21 Y14.522
G1 F1800 X76.166 Y45.477 E100.29092
G0 F4320 X75.671 Y45.477
G1 F1800 X44.716 Y14.522 E101.96626
G0 F4320 X44.221 Y14.522
G1 F1800 X75.176 Y45.477 E103.64161
G0 F4320 X74.681 Y45.477
G1 F1800 X43.726 Y14.522 E105.31695
G0 F4320 X43.231 Y14.522
G1 F1800 X74.186 Y45.477 E106.99229
G0 F4320 X73.691 Y45.477
G1 F1800 X42.736 Y14.522 E108.66763
G0 F4320 X42.241 Y14.522
G1 F1800 X73.196 Y45.477 E110.34298
G0 F4320 X72.701 Y45.477
G1 F1800 X41.746 Y14.522 E112.01832
G0 F4320 X41.251 Y14.522
G1 F1800 X72.206 Y45.477 E113.69366
G0 F4320 X71.711 Y45.477
G1 F1800 X40.756 Y14.522 E115.369
G0 F4320 X40.37 Y14.632
G1 F1800 X71.216 Y45.477 E117.03842
G0 F4320 X70.721 Y45.477
G1 F1800 X40.37 Y15.127 E118.68105
G0 F4320 X40.37 Y15.622
G1 F1800 X70.226 Y45.477 E120.29688
G0 F4320 X69.731 Y45.477
G1 F1800 X40.37 Y16.117 E121.88593
G0 F4320 X40.37 Y16.612
G1 F1800 X69.236 Y45.477 E123.44818
G0 F4320 X68.741 Y45.477
G1 F1800 X40.37 Y17.107 E124.98365
G0 F4320 X40.37 Y17.602
G1 F1800 X68.246 Y45.477 E126.49232
G0 F4320 X67.751 Y45.477
G1 F1800 X40.37 Y18.096 E127.97423
G0 F4320 X40.37 Y18.591
G1 F1800 X67.256 Y45.477 E129.42935
G0 F4320 X66.761 Y45.477
G1 F1800 X40.37 Y19.086 E130.85768
G0 F4320 X40.37 Y19.581
G1 F1800 X66.266 Y45.477 E132.25922
G0 F4320 X65.771 Y45.477
G1 F1800 X40.37 Y20.076 E133.63397
G0 F4320 X40.37 Y20.571
G1 F1800 X65.276 Y45.477 E134.98193
G0 F4320 X64.781 Y45.477
G1 F1800 X40.37 Y21.066 E136.3031
G0 F4320 X40.37 Y21.561
G1 F1800 X64.286 Y45.477 E137.59748
G0 F4320 X63.791 Y45.477
G1 F1800 X40.37 Y22.056 E138.86507
G0 F4320 X40.37 Y22.551
G1 F1800 X63.296 Y45.477 E140.10587
G0 F4320 X62.801 Y45.477
G1 F1800 X40.37 Y23.046 E141.31987
G0 F4320 X40.37 Y23.541
G1 F1800 X62.306 Y45.477 E142.50709
G0 F4320 X61.811 Y45.477
G1 F1800 X40.37 Y24.036 E143.66752
G0 F4320 X40.37 Y24.531
G1 F1800 X61.316 Y45.477 E144.80115
G0 F4320 X60.821 Y45.477
G1 F1800 X40.37 Y25.026 E145.908
G0 F4320 X40.37 Y25.521
G1 F1800 X60.326 Y45.477 E146.98806
G0 F4320 X59.831 Y45.477
G1 F1800 X40.37 Y26.016 E148.04132
G0 F4320 X40.37 Y26.511
G1 F1800 X59.336 Y45.477 E149.0678
G0 F4320 X58.841 Y45.477
G1 F1800 X40.37 Y27.006 E150.06748
G0 F4320 X40.37 Y27.501
G1 F1800 X58.346 Y45.477 E151.04038
G0 F4320 X57.851 Y45.477
G1 F1800 X40.37 Y27.996 E151.98648
G0 F4320 X40.37 Y28.491
G1 F1800 X57.356 Y45.477 E152.9058
G0 F4320 X56.861 Y45.477
G1 F1800 X40.37 Y28.986 E153.79832
G0 F4320 X40.37 Y29.481
G1 F1800 X56.367 Y45.477 E154.66408
G0 F4320 X55.872 Y45.477
G1 F1800 X40.37 Y29.976 E155.50305
G0 F4320 X40.371 Y30.472
G1 F1800 X55.377 Y45.477 E156.31518
G0 F4320 X54.882 Y45.477
G1 F1800 X40.371 Y30.967 E157.10051
G0 F4320 X40.371 Y31.462
G1 F1800 X54.387 Y45.477 E157.85906
G0 F4320 X53.892 Y45.477
G1 F1800 X40.371 Y31.956 E158.59084
G0 F4320 X40.371 Y32.451
G1 F1800 X53.397 Y45.477 E159.29583
G0 F4320 X52.902 Y45.477
G1 F1800 X40.371 Y32.946 E159.97403
G0 F4320 X40.371 Y33.441
G1 F1800 X52.407 Y45.477 E160.62544
G0 F4320 X51.912 Y45.477
G1 F1800 X40.371 Y33.936 E161.25006
G0 F4320 X40.371 Y34.431
G1 F1800 X51.417 Y45.477 E161.84789
G0 F4320 X50.922 Y45.477
G1 F1800 X40.371 Y34.926 E162.41893
G0 F4320 X40.371 Y35.421
G1 F1800 X50.427 Y45.477 E162.96318
G0 F4320 X49.932 Y45.477
G1 F1800 X40.371 Y35.916 E163.48064
G0 F4320 X40.371 Y36.411
G1 F1800 X49.437 Y45.477 E163.97131
G0 F4320 X48.942 Y45.477
G1 F1800 X40.371 Y36.906 E164.43519
G0 F4320 X40.371 Y37.401
G1 F1800 X48.447 Y45.477 E164.87228
G0 F4320 X47.952 Y45.477
G1 F1800 X40.371 Y37.896 E165.28258
G0 F4320 X40.371 Y38.391
G1 F1800 X47.457 Y45.477 E165.66608
G0 F4320 X46.962 Y45.477
G1 F1800 X40.371 Y38.886 E166.0228
G0 F4320 X40.371 Y39.381
G1 F1800 X46.467 Y45.477 E166.35273
G0 F4320 X45.972 Y45.477
G1 F1800 X40.371 Y39.876 E166.65586
G0 F4320 X40.371 Y40.371
G1 F1800 X45.477 Y45.477 E166.93221
G0 F4320 X44.982 Y45.477
G1 F1800 X40.371 Y40.866 E167.18177
G0 F4320 X40.371 Y41.361
M104 S200
G1 F1800 X44.487 Y45.477 E167.40453
G0 F4320 X43.992 Y45.477
G1 F1800 X40.371 Y41.856 E167.60051
G0 F4320 X40.371 Y42.351
G1 F1800 X43.497 Y45.477 E167.76969
G0 F4320 X43.002 Y45.477
G1 F1800 X40.371 Y42.846 E167.91209
G0 F4320 X40.371 Y43.341
G1 F1800 X42.507 Y45.477 E168.02769
G0 F4320 X42.012 Y45.477
G1 F1800 X40.371 Y43.836 E168.11651
G0 F4320 X40.371 Y44.331
G1 F1800 X41.517 Y45.477 E168.17853
G0 F4320 X41.022 Y45.477
G1 F1800 X40.371 Y44.826 E168.21376
G0 F4320 X40.371 Y45.321
G1 F1800 X40.527 Y45.477 E168.22221
G0 F4320 X40.527 Y46.125
;MESH:NONMESH
G0 F600 X40.527 Y46.125 Z0.394
G0 F4320 X80.125 Y45.975
;TIME_ELAPSED:182.028437
;LAYER:1
M140 S60
M106 S255
;TYPE:WALL-INNER
;MESH:powermeterDisplay_prototype6_top_left.stl
G1 F2400 X39.875 Y45.975 E168.98946
G1 X39.875 Y14.025 E169.5985
G1 X80.125 Y14.025 E170.36575
G1 X80.125 Y44.581 E170.94822
G0 F2160 X80.125 Y45.975
G0 F5760 X80.475 Y46.325
G1 F2400 X39.525 Y46.325 E171.72881
G1 X39.525 Y13.675 E172.3512
G1 X80.475 Y13.675 E173.13179
G1 X80.475 Y44.931 E173.7276
G0 F2160 X80.475 Y46.325
G0 F5760 X80.8 Y46.65
;TYPE:WALL-OUTER
G1 F2025 X39.2 Y46.65 E174.52059
G1 X39.2 Y13.35 E175.15536
G1 X80.8 Y13.35 E175.94835
G1 X80.8 Y45.256 E176.55655
G0 F1822.5 X80.8 Y46.65
G0 F5760 X80.6 Y46.65
G0 X80.6 Y46.375
G0 X80.04 Y45.635
G0 X79.785 Y45.635
;TYPE:SKIN
G1 F1500 X40.215 Y45.635 E177.31084
G1 X40.215 Y14.365 E177.90692
G1 X79.785 Y14.365 E178.66121
G1 X79.785 Y44.241 E179.23071
G0 F1350 X79.785 Y45.635
G0 F5760 X79.627 Y45.106
G1 F1500 X79.255 Y45.478 E179.24074
G0 F5760 X78.76 Y45.478
G1 F1500 X79.627 Y44.611 E179.26411
G0 F5760 X79.627 Y44.116
G1 F1500 X78.265 Y45.478 E179.30083
G0 F5760 X77.77 Y45.478
G1 F1500 X79.627 Y43.621 E179.35089
G0 F5760 X79.627 Y43.126
G1 F1500 X77.275 Y45.478 E179.41429
G0 F5760 X76.78 Y45.478
G1 F1500 X79.627 Y42.631 E179.49104
G0 F5760 X79.627 Y42.136
G1 F1500 X76.285 Y45.478 E179.58114
G0 F5760 X75.79 Y45.478
G1 F1500 X79.627 Y41.641 E179.68458
G0 F5760 X79.627 Y41.146
G1 F1500 X75.295 Y45.478 E179.80136
G0 F5760 X74.8 Y45.478
G1 F1500 X79.627 Y40.651 E179.93148
G0 F5760 X79.627 Y40.156
G1 F1500 X74.305 Y45.478 E180.07496
G0 F5760 X73.81 Y45.478
G1 F1500 X79.627 Y39.661 E180.23177
G0 F5760 X79.627 Y39.166
G1 F1500 X73.315 Y45.478 E180.40193
G0 F5760 X72.82 Y45.478
G1 F1500 X79.627 Y38.671 E180.58543
G0 F5760 X79.627 Y38.176
G1 F1500 X72.325 Y45.478 E180.78228
G0 F5760 X71.83 Y45.478
G1 F1500 X79.627 Y37.681 E180.99247
G0 F5760 X79.627 Y37.186
G1 F1500 X71.335 Y45.478 E181.21601
G0 F5760 X70.84 Y45.478
G1 F1500 X79.627 Y36.691 E181.45289
G0 F5760 X79.627 Y36.196
G1 F1500 X70.345 Y45.478 E181.70311
G0 F5760 X69.85 Y45.478
G1 F1500 X79.627 Y35.701 E181.96668
G0 F5760 X79.627 Y35.206
G1 F1500 X69.355 Y45.478 E182.2436
G0 F5760 X68.86 Y45.478
G1 F1500 X79.627 Y34.711 E182.53385
G0 F5760 X79.627 Y34.216
G1 F1500 X68.365 Y45.478 E182.83745
G0 F5760 X67.87 Y45.478
G1 F1500 X79.627 Y33.721 E183.1544
G0 F5760 X79.627 Y33.226
G1 F1500 X67.375 Y45.478 E183.48469
G0 F5760 X66.88 Y45.478
G1 F1500 X79.627 Y32.731 E183.82832
G0 F5760 X79.627 Y32.236
G1 F1500 X66.386 Y45.478 E184.18529
G0 F5760 X65.891 Y45.478
G1 F1500 X79.627 Y31.742 E184.55558
G0 F5760 X79.627 Y31.247
G1 F1500 X65.396 Y45.478 E184.93922
G0 F5760 X64.901 Y45.478
G1 F1500 X79.627 Y30.752 E185.33621
G0 F5760 X79.627 Y30.257
G1 F1500 X64.406 Y45.478 E185.74654
