;FLAVOR:Marlin
;TIME:19273
;Filament used: 9.43448m
;Layer height: 0.13125
;MINX:2.475
;MINY:19.425
;MINZ:0.263
;MAXX:117.5
;MAXY:100.575
;MAXZ:26.987
;Generated with Cura_SteamEngine 4.7.0
M140 S65
M105
M190 S65
M104 S205
M105
M109 S205
M82 ;absolute extrusion mode
G21;(metric values)
G90;(absolute positioning)
M82;(set extruder to absolute mode)
M107;(start with the fan off)
G28;(Home the printer)
G92 E0;(Reset the extruder to 0)
G0 Z5 E5 F500;(Move up and prime the nozzle)
G0 X-1 Z0;(Move outside the printable area)
G1 Y60 E8 F500;(Draw a priming/wiping line to the rear)
G1 X-1;(Move a little closer to the print area)
G1 Y10 E16 F500;(draw more priming/wiping)
G1 E15 F250;(Small retract)
G92 E0;(Zero the extruder)
G92 E0
G92 E0
G1 F2400 E-2.5
;LAYER_COUNT:205
;LAYER:0
M107
G0 F4320 X34.596 Y21.08 Z0.263
;TYPE:SKIRT
G1 F2400 E0
G1 F1800 X34.912 Y20.653 E0.02033
G1 X35.289 Y20.279 E0.04065
G1 X35.717 Y19.966 E0.06094
G1 X36.188 Y19.721 E0.08126
G1 X36.69 Y19.549 E0.10157
G1 X37.469 Y19.437 E0.13169
G1 X37.9 Y19.425 E0.14819
G1 X78.913 Y19.425 E1.71776
G1 X79.614 Y19.435 E1.74459
G1 X80.143 Y19.483 E1.76491
G1 X80.658 Y19.609 E1.7852
G1 X81.149 Y19.811 E1.80552
G1 X81.604 Y20.085 E1.82585
G1 X82.012 Y20.424 E1.84615
G1 X82.365 Y20.82 E1.86645
G1 X82.655 Y21.265 E1.88678
G1 X82.874 Y21.748 E1.90707
G1 X83.225 Y22.659 E1.94444
G1 X83.526 Y23.47 E1.97754
G1 X84.565 Y26.048 E2.08391
G1 X85.64 Y28.51 E2.18672
G1 X86.801 Y30.979 E2.29114
G1 X88.044 Y33.437 E2.39655
G1 X89.347 Y35.844 E2.5013
G1 X90.7 Y38.18 E2.60461
G1 X92.13 Y40.498 E2.70884
G1 X93.63 Y42.783 E2.81344
G1 X95.192 Y45.019 E2.91783
G1 X96.833 Y47.234 E3.02332
G1 X98.477 Y49.326 E3.12515
G1 X100.271 Y51.482 E3.23249
G1 X102.052 Y53.501 E3.33552
G1 X103.918 Y55.502 E3.44023
G1 X105.851 Y57.458 E3.54547
G1 X107.792 Y59.314 E3.64825
G1 X108.913 Y60.329 E3.70612
G1 X109.39 Y60.772 E3.73103
G1 X109.75 Y61.161 E3.75132
G1 X110.048 Y61.601 E3.77165
G1 X110.277 Y62.079 E3.79194
G1 X110.431 Y62.587 E3.81225
G1 X110.481 Y62.858 E3.8228
G1 X110.596 Y63.663 E3.85392
G1 X111.02 Y66.357 E3.95829
G1 X111.518 Y69.022 E4.06204
G1 X112.104 Y71.737 E4.16834
G1 X112.734 Y74.307 E4.2696
G1 X113.481 Y77.007 E4.37681
G1 X114.275 Y79.598 E4.48052
G1 X115.145 Y82.172 E4.5845
G1 X116.1 Y84.753 E4.68982
G1 X117.002 Y86.971 E4.78146
G1 X117.249 Y87.604 E4.80746
G1 X117.404 Y88.111 E4.82775
G1 X117.488 Y88.764 E4.85295
G1 X117.5 Y89.397 E4.87718
G1 X117.5 Y92.97 E5.01391
G1 X117.489 Y93.677 E5.04097
G1 X117.44 Y94.205 E5.06127
G1 X117.273 Y94.837 E5.08628
G1 X117.042 Y95.466 E5.11193
G1 X116.822 Y95.949 E5.13224
G1 X116.526 Y96.402 E5.15295
G1 X116.056 Y96.924 E5.17983
G1 X115.814 Y97.158 E5.19271
G1 X115.405 Y97.496 E5.21302
G1 X114.949 Y97.768 E5.23334
G1 X114.556 Y97.936 E5.24969
G1 X113.279 Y98.39 E5.30156
G1 X110.743 Y99.332 E5.40509
G1 X108.37 Y100.288 E5.503
G1 X108.164 Y100.364 E5.5114
G1 X107.652 Y100.503 E5.53171
G1 X107.088 Y100.565 E5.55342
G1 X106.67 Y100.575 E5.56942
G1 X6.662 Y100.575 E9.39672
G1 X5.964 Y100.566 E9.42344
G1 X5.435 Y100.519 E9.44376
G1 X4.919 Y100.393 E9.46409
G1 X4.428 Y100.192 E9.48439
G1 X3.973 Y99.919 E9.5047
G1 X3.564 Y99.581 E9.52501
G1 X3.211 Y99.185 E9.54531
G1 X2.921 Y98.741 E9.5656
G1 X2.701 Y98.258 E9.58592
G1 X2.555 Y97.747 E9.60625
G1 X2.485 Y97.136 E9.62979
G1 X2.475 Y96.708 E9.64617
G1 X2.475 Y64.007 E10.89764
G1 X2.485 Y63.306 E10.92447
G1 X2.533 Y62.777 E10.9448
G1 X2.659 Y62.262 E10.96509
G1 X2.861 Y61.771 E10.98541
G1 X3.135 Y61.316 E11.00573
G1 X3.474 Y60.908 E11.02603
G1 X3.873 Y60.553 E11.04647
G1 X4.086 Y60.391 E11.05671
G1 X6.241 Y58.699 E11.16157
G1 X8.371 Y56.927 E11.2676
G1 X10.405 Y55.136 E11.37132
G1 X12.402 Y53.276 E11.47576
G1 X14.342 Y51.361 E11.58008
G1 X16.248 Y49.372 E11.68551
G1 X18.047 Y47.384 E11.78812
G1 X19.812 Y45.321 E11.89202
G1 X21.547 Y43.171 E11.99775
G1 X23.192 Y41.011 E12.10165
G1 X24.795 Y38.778 E12.20685
G1 X26.322 Y36.519 E12.3112
G1 X27.788 Y34.209 E12.4159
G1 X29.192 Y31.855 E12.5208
G1 X30.498 Y29.518 E12.62325
G1 X31.787 Y27.049 E12.72984
G1 X32.965 Y24.627 E12.83291
G1 X34.12 Y22.071 E12.94026
G1 X34.283 Y21.699 E12.9558
G0 F1620 X34.348 Y21.549
G0 X34.596 Y21.08
G0 F4320 X34.906 Y21.245
G1 F1800 X35.211 Y20.844 E12.97508
G1 X35.575 Y20.496 E12.99435
G1 X35.99 Y20.211 E13.01362
G1 X36.445 Y19.994 E13.03291
G1 X36.928 Y19.852 E13.05218
G1 X37.479 Y19.787 E13.07341
G1 X37.9 Y19.775 E13.08953
G1 X78.908 Y19.775 E14.6589
G1 X79.609 Y19.785 E14.68573
G1 X80.111 Y19.832 E14.70503
G1 X80.598 Y19.958 E14.72428
G1 X81.06 Y20.159 E14.74356
G1 X81.484 Y20.431 E14.76284
G1 X81.86 Y20.767 E14.78214
G1 X82.177 Y21.157 E14.80137
G1 X82.43 Y21.593 E14.82066
G1 X82.525 Y21.819 E14.83004
G1 X82.897 Y22.781 E14.86952
G1 X83.205 Y23.612 E14.90343
G1 X84.227 Y26.147 E15.00803
G1 X85.336 Y28.686 E15.11407
G1 X86.491 Y31.143 E15.21797
G1 X87.722 Y33.576 E15.32232
G1 X89.028 Y35.989 E15.42732
G1 X90.413 Y38.38 E15.53307
G1 X91.846 Y40.704 E15.63755
G1 X93.33 Y42.965 E15.74106
G1 X94.904 Y45.218 E15.84624
G1 X96.557 Y47.448 E15.95247
G1 X98.222 Y49.567 E16.0556
G1 X100.003 Y51.707 E16.16215
G1 X101.783 Y53.725 E16.26513
G1 X103.678 Y55.756 E16.37143
G1 X105.591 Y57.692 E16.47559
G1 X107.562 Y59.577 E16.57997
G1 X108.675 Y60.586 E16.63746
G1 X109.152 Y61.029 E16.66237
G1 X109.492 Y61.399 E16.6816
G1 X109.77 Y61.82 E16.70091
G1 X109.978 Y62.278 E16.72016
G1 X110.134 Y62.907 E16.74496
G1 X110.242 Y63.668 E16.77438
G1 X110.673 Y66.407 E16.88049
G1 X111.181 Y69.126 E16.98634
G1 X111.746 Y71.744 E17.08884
G1 X112.407 Y74.439 E17.19504
G1 X113.131 Y77.059 E17.29906
G1 X113.945 Y79.712 E17.40526
G1 X114.818 Y82.295 E17.50961
G1 X115.777 Y84.886 E17.61534
G1 X116.676 Y87.098 E17.70672
G1 X116.923 Y87.731 E17.73272
G1 X117.068 Y88.213 E17.75198
G1 X117.138 Y88.776 E17.77369
G1 X117.15 Y89.401 E17.79762
G1 X117.15 Y92.964 E17.93397
G1 X117.139 Y93.671 E17.96103
G1 X117.091 Y94.173 E17.98033
G1 X116.944 Y94.717 E18.0019
G1 X116.713 Y95.346 E18.02754
G1 X116.503 Y95.803 E18.04679
G1 X116.246 Y96.192 E18.06463
G1 X115.807 Y96.678 E18.0897
G1 X115.572 Y96.905 E18.1022
G1 X115.182 Y97.224 E18.12148
G1 X114.747 Y97.477 E18.14074
G1 X114.439 Y97.606 E18.15352
G1 X113.162 Y98.061 E18.2054
G1 X110.601 Y99.012 E18.30995
G1 X108.239 Y99.963 E18.40739
G1 X108.047 Y100.034 E18.41523
G1 X107.561 Y100.164 E18.43448
G1 X106.76 Y100.224 E18.46522
G1 X6.666 Y100.225 E22.29581
G1 X5.968 Y100.216 E22.32253
G1 X5.467 Y100.169 E22.34178
G1 X4.979 Y100.044 E22.36106
G1 X4.517 Y99.844 E22.38033
G1 X4.093 Y99.572 E22.39961
G1 X3.716 Y99.238 E22.41888
G1 X3.398 Y98.847 E22.43817
G1 X3.145 Y98.412 E22.45743
G1 X2.964 Y97.942 E22.4767
G1 X2.86 Y97.449 E22.49599
G1 X2.826 Y96.794 E22.52109
G1 X2.825 Y64.012 E23.77565
G1 X2.835 Y63.311 E23.80248
G1 X2.882 Y62.809 E23.82178
G1 X3.008 Y62.322 E23.84103
G1 X3.209 Y61.86 E23.86031
G1 X3.481 Y61.436 E23.87959
G1 X3.817 Y61.06 E23.89889
G1 X4.304 Y60.664 E23.92291
G1 X6.492 Y58.947 E24.02935
G1 X8.578 Y57.211 E24.13321
G1 X10.645 Y55.391 E24.2386
G1 X12.639 Y53.534 E24.34288
G1 X14.593 Y51.604 E24.44799
G1 X16.478 Y49.637 E24.55225
G1 X18.324 Y47.598 E24.65751
G1 X20.084 Y45.54 E24.76114
G1 X21.835 Y43.371 E24.86783
G1 X23.476 Y41.217 E24.97146
G1 X25.073 Y38.991 E25.0763
G1 X26.627 Y36.692 E25.1825
G1 X28.078 Y34.406 E25.28612
G1 X29.477 Y32.062 E25.39058
G1 X30.831 Y29.639 E25.49681
G1 X32.093 Y27.221 E25.60119
G1 X33.279 Y24.782 E25.70498
G1 X34.439 Y22.215 E25.81279
G1 X34.593 Y21.864 E25.82745
G0 F1620 X34.669 Y21.689
G0 X34.906 Y21.245
G1 F2400 E23.32745
G0 F4320 X36.934 Y56.796
G0 X107.146 Y62.714
G0 X107.85 Y88.95
;TYPE:SUPPORT
G1 F2400 E25.82745
G1 F1800 X113.799 Y88.95 E26.05512
G1 X113.8 Y93.549 E26.23113
G1 X113.56 Y93.79 E26.24414
G1 X113.56 Y94.198 E26.25976
G1 X113.306 Y94.45 E26.27345
G1 X111.794 Y94.45 E26.33131
G1 X110.885 Y93.55 E26.38027
G1 X107.85 Y93.55 E26.49642
G1 X107.85 Y89.644 E26.6459
G0 F1620 X107.85 Y88.95
G0 F4320 X109.651 Y89.09
G1 F1800 X109.651 Y93.41 E26.81122
G0 F4320 X107.99 Y93.32
G1 F1800 X113.66 Y93.32 E27.02822
G0 F4320 X111.984 Y94.31
G1 F1800 X111.984 Y89.09 E27.22798
G0 F4320 X113.66 Y90.987
G1 F1800 X107.99 Y90.987 E27.44498
G1 F2400 E24.94498
;MESH:powermeterDisplay_prototype6_top.stl
G0 F4320 X106.605 Y90.987
G0 X106.125 Y96.175
;TYPE:WALL-INNER
G1 F2400 E27.44498
G1 F1800 X6.875 Y96.175 E31.24327
G1 X6.875 Y87.912 E31.55949
G1 X6.875 Y71.157 E32.2007
G1 X6.875 Y64.225 E32.46599
G1 X106.125 Y64.225 E36.26428
G1 X106.125 Y95.481 E37.46045
G0 F1620 X106.125 Y96.175
G1 F2400 E34.96045
G0 F4320 X78.122 Y95.99
G0 X78.122 Y97.69
G0 X79.637 Y84.139
G0 X77.977 Y84.139
G0 X78.122 Y71.173
G1 F2400 E37.46045
G1 F1800 X78.122 Y87.928 E38.10166
G1 X103.877 Y87.928 E39.0873
G1 X103.877 Y71.173 E39.72852
G1 X78.816 Y71.173 E40.6876
G0 F1620 X78.122 Y71.173
G1 F2400 E38.1876
G0 F4320 X79.924 Y71.028
G0 X79.924 Y72.688
G0 X65.781 Y72.688
G0 X65.781 Y71.028
G0 X42.122 Y71.173
G1 F2400 E40.6876
G1 F1800 X42.122 Y87.928 E41.32881
G1 X67.877 Y87.928 E42.31446
G1 X67.877 Y71.173 E42.95567
G1 X42.816 Y71.173 E43.91475
G0 F1620 X42.122 Y71.173
G1 F2400 E41.41475
G0 F4320 X43.924 Y71.028
G0 X43.924 Y72.688
G0 X30.904 Y72.672
G0 X30.904 Y71.012
G0 X7.068 Y71.157
G1 F2400 E43.91475
G1 F1800 X7.068 Y87.912 E44.26833
G1 X32.823 Y87.912 E45.25398
G1 X32.823 Y71.157 E45.89519
G1 X7.762 Y71.157 E46.85427
G0 F1620 X7.068 Y71.157
G0 F4320 X7.418 Y71.507
G1 F1800 X7.418 Y87.562 E47.4687
G1 X32.473 Y87.562 E48.42755
G1 X32.473 Y71.507 E49.04197
G1 X8.112 Y71.507 E49.97427
G0 F1620 X7.418 Y71.507
G1 F2400 E47.47427
G0 F4320 X22.956 Y71.012
G0 X22.956 Y72.672
G0 X43.924 Y72.688
G0 X43.924 Y71.028
G0 X42.472 Y71.523
G1 F2400 E49.97427
G1 F1800 X42.472 Y87.578 E50.58869
G1 X67.527 Y87.578 E51.54755
G1 X67.527 Y71.523 E52.16197
G1 X43.166 Y71.523 E53.09426
G0 F1620 X42.472 Y71.523
G1 F2400 E50.59426
G0 F4320 X59.82 Y71.028
G0 X59.82 Y72.688
G0 X79.924 Y72.688
G0 X79.924 Y71.028
G0 X78.472 Y71.523
G1 F2400 E53.09426
G1 F1800 X78.472 Y87.578 E53.70869
G1 X103.527 Y87.578 E54.66754
G1 X103.527 Y71.523 E55.28196
G1 X79.166 Y71.523 E56.21426
G0 F1620 X78.472 Y71.523
G1 F2400 E53.71426
G0 F4320 X78.594 Y87.456
G0 X104.048 Y88.099
G0 X105.94 Y88.099
G0 X106.475 Y96.525
G1 F2400 E56.21426
G1 F1800 X6.525 Y96.525 E60.03934
G1 X6.525 Y63.875 E61.28885
G1 X106.475 Y63.875 E65.11393
G1 X106.475 Y95.831 E66.33689
G0 F1620 X106.475 Y96.525
G0 F4320 X106.8 Y96.85
;TYPE:WALL-OUTER
G1 F1800 X6.2 Y96.85 E70.18684
G1 X6.2 Y63.55 E71.46123
G1 X106.8 Y63.55 E75.31119
G1 X106.8 Y96.156 E76.55902
G0 F1620 X106.8 Y96.85
G0 F4320 X106.6 Y96.85
G1 F2400 E74.05902
G0 F4320 X106.525 Y96.575
G0 X78.522 Y95.99
G0 X78.522 Y97.69
G0 X79.637 Y84.139
G0 X77.977 Y84.139
G0 X78.522 Y71.848
G0 X78.797 Y71.848
G1 F2400 E76.55902
G1 F1800 X78.797 Y87.253 E77.14857
G1 X103.202 Y87.253 E78.08255
G1 X103.202 Y71.848 E78.67209
G1 X79.491 Y71.848 E79.57951
G0 F1620 X78.797 Y71.848
G0 F4320 X78.797 Y72.048
G1 F2400 E77.07951
G0 F4320 X78.522 Y72.048
G0 X79.625 Y72.676
G0 X66.374 Y72.676
G0 X68.042 Y71.848
G0 X42.594 Y71.645
G0 X42.797 Y71.848
G1 F2400 E79.57951
G1 F1800 X42.797 Y87.253 E80.16906
G1 X67.202 Y87.253 E81.10304
G1 X67.202 Y71.848 E81.69259
G1 X43.491 Y71.848 E82.60001
G0 F1620 X42.797 Y71.848
G0 F4320 X42.797 Y72.048
G1 F2400 E80.10001
G0 F4320 X42.522 Y72.048
G0 X43.625 Y72.676
G0 X30.904 Y72.672
G0 X30.904 Y71.012
G0 X7.54 Y71.629
G0 X7.743 Y71.832
G1 F2400 E82.60001
G1 F1800 X7.743 Y87.237 E83.18956
G1 X32.148 Y87.237 E84.12353
G1 X32.148 Y71.832 E84.71308
G1 X8.437 Y71.832 E85.6205
G0 F1620 X7.743 Y71.832
G0 F4320 X7.743 Y72.032
G0 X7.468 Y72.032
G0 X6.96 Y70.817
G0 X7.215 Y70.817
;TYPE:SKIN
G1 F1800 X7.215 Y64.565 E85.85976
G1 X105.785 Y64.565 E89.63203
G1 X105.785 Y95.835 E90.82873
G1 X7.215 Y95.835 E94.601
G1 X7.215 Y88.252 E94.8912
G1 X33.163 Y88.252 E95.88423
G1 X33.163 Y70.817 E96.55147
G1 X7.909 Y70.817 E97.51794
G0 F1620 X7.215 Y70.817
G1 F2400 E95.01794
G0 F4320 X6.96 Y70.817
G0 X24.943 Y71.012
G0 X24.943 Y72.672
G0 X43.924 Y72.688
G0 X43.924 Y71.028
G0 X42.037 Y71.058
G0 X41.782 Y70.833
G1 F2400 E97.51794
G1 F1800 X41.782 Y88.268 E98.18517
G1 X68.217 Y88.268 E99.19684
G1 X68.217 Y70.833 E99.86408
G1 X42.476 Y70.833 E100.84918
G0 F1620 X41.782 Y70.833
G1 F2400 E98.34918
G0 F4320 X42.037 Y71.058
G0 X59.82 Y71.028
G0 X59.82 Y72.688
G0 X79.924 Y72.688
G0 X79.924 Y71.028
G0 X78.037 Y71.058
G0 X77.782 Y70.833
G1 F2400 E100.84918
G1 F1800 X77.782 Y88.268 E101.51642
G1 X104.217 Y88.268 E102.52808
G1 X104.217 Y70.833 E103.19532
G1 X78.476 Y70.833 E104.18043
G0 F1620 X77.782 Y70.833
G1 F2400 E101.68043
G0 F4320 X78.037 Y71.058
G0 X104.048 Y71.002
G0 X105.94 Y71.002
G0 X106.04 Y65.038
G0 X105.626 Y65.038
G1 F2400 E104.18043
G1 F1800 X105.31 Y64.722 E104.19753
G0 F4320 X104.815 Y64.722
G1 F1800 X105.626 Y65.533 E104.24142
G0 F4320 X105.626 Y66.028
G1 F1800 X104.32 Y64.722 E104.31211
G0 F4320 X103.825 Y64.722
G1 F1800 X105.626 Y66.523 E104.40958
G0 F4320 X105.626 Y67.018
G1 F1800 X103.33 Y64.722 E104.53384
G0 F4320 X102.835 Y64.722
G1 F1800 X105.626 Y67.513 E104.6849
G0 F4320 X105.626 Y68.008
G1 F1800 X102.34 Y64.722 E104.86274
G0 F4320 X101.845 Y64.722
G1 F1800 X105.626 Y68.503 E105.06738
G0 F4320 X105.626 Y68.998
G1 F1800 X101.35 Y64.722 E105.2988
G0 F4320 X100.855 Y64.722
G1 F1800 X105.626 Y69.493 E105.55702
G0 F4320 X105.626 Y69.988
G1 F1800 X100.36 Y64.722 E105.84202
G0 F4320 X99.865 Y64.722
G1 F1800 X105.626 Y70.483 E106.15382
G0 F4320 X105.626 Y70.978
G1 F1800 X99.37 Y64.722 E106.49241
G0 F4320 X98.875 Y64.722
G1 F1800 X105.626 Y71.473 E106.85778
G0 F4320 X105.626 Y71.968
G1 F1800 X104.373 Y70.714 E106.92562
G0 F4320 X104.334 Y70.676
G1 F1800 X98.38 Y64.722 E107.24787
G0 F4320 X97.885 Y64.722
G1 F1800 X103.839 Y70.676 E107.57011
G0 F4320 X103.344 Y70.676
G1 F1800 X97.39 Y64.722 E107.89235
G0 F4320 X96.895 Y64.722
G1 F1800 X102.849 Y70.676 E108.21459
G0 F4320 X102.354 Y70.676
G1 F1800 X96.4 Y64.722 E108.53683
G0 F4320 X95.905 Y64.722
G1 F1800 X101.859 Y70.676 E108.85907
G0 F4320 X101.364 Y70.676
G1 F1800 X95.41 Y64.722 E109.18132
G0 F4320 X94.915 Y64.722
G1 F1800 X100.869 Y70.676 E109.50356
G0 F4320 X100.374 Y70.676
G1 F1800 X94.42 Y64.722 E109.8258
G0 F4320 X93.925 Y64.722
G1 F1800 X99.879 Y70.676 E110.14804
G0 F4320 X99.384 Y70.676
G1 F1800 X93.43 Y64.722 E110.47028
G0 F4320 X92.935 Y64.722
G1 F1800 X98.889 Y70.676 E110.79252
G0 F4320 X98.394 Y70.676
G1 F1800 X92.44 Y64.722 E111.11477
G0 F4320 X91.945 Y64.722
G1 F1800 X97.899 Y70.676 E111.43701
G0 F4320 X97.404 Y70.676
G1 F1800 X91.45 Y64.722 E111.75925
G0 F4320 X90.955 Y64.722
G1 F1800 X96.909 Y70.676 E112.08149
G0 F4320 X96.414 Y70.676
G1 F1800 X90.46 Y64.722 E112.40373
G0 F4320 X89.965 Y64.722
G1 F1800 X95.919 Y70.676 E112.72597
G0 F4320 X95.424 Y70.676
G1 F1800 X89.47 Y64.722 E113.04821
G0 F4320 X88.975 Y64.722
G1 F1800 X94.929 Y70.676 E113.37046
G0 F4320 X94.434 Y70.676
G1 F1800 X88.48 Y64.722 E113.6927
G0 F4320 X87.986 Y64.722
G1 F1800 X93.939 Y70.676 E114.01491
G0 F4320 X93.444 Y70.676
G1 F1800 X87.491 Y64.722 E114.33713
G0 F4320 X86.996 Y64.722
G1 F1800 X92.949 Y70.676 E114.65934
G0 F4320 X92.454 Y70.676
G1 F1800 X86.501 Y64.722 E114.98156
G0 F4320 X86.006 Y64.722
G1 F1800 X91.959 Y70.676 E115.30377
G0 F4320 X91.464 Y70.676
G1 F1800 X85.511 Y64.722 E115.62599
G0 F4320 X85.016 Y64.722
G1 F1800 X90.969 Y70.676 E115.9482
G0 F4320 X90.475 Y70.676
G1 F1800 X84.521 Y64.722 E116.27044
G0 F4320 X84.026 Y64.722
G1 F1800 X89.98 Y70.676 E116.59268
G0 F4320 X89.485 Y70.676
G1 F1800 X83.531 Y64.722 E116.91493
G0 F4320 X83.036 Y64.722
G1 F1800 X88.99 Y70.676 E117.23717
G0 F4320 X88.495 Y70.676
G1 F1800 X82.541 Y64.722 E117.55941
G0 F4320 X82.046 Y64.722
G1 F1800 X88 Y70.676 E117.88165
G0 F4320 X87.505 Y70.676
G1 F1800 X81.551 Y64.722 E118.20389
G0 F4320 X81.056 Y64.722
G1 F1800 X87.01 Y70.676 E118.52613
G0 F4320 X86.515 Y70.676
G1 F1800 X80.561 Y64.722 E118.84837
G0 F4320 X80.066 Y64.722
G1 F1800 X86.02 Y70.676 E119.17062
G0 F4320 X85.525 Y70.676
G1 F1800 X79.571 Y64.722 E119.49286
G0 F4320 X79.076 Y64.722
G1 F1800 X85.03 Y70.676 E119.8151
G0 F4320 X84.535 Y70.676
