;FLAVOR:Marlin
;TIME:2273
;Filament used: 1.17025m
;Layer height: 0.13125
;MINX:38.975
;MINY:41.475
;MINZ:0.263
;MAXX:81.025
;MAXY:78.525
;MAXZ:5.372
;Generated with Cura_SteamEngine 4.6.1
M140 S65
M105
M190 S65
M104 S205
M105
M109 S205
M82 ;absolute extrusion mode
G21;(metric values)
G90;(absolute positioning)
M82;(set extruder to absolute mode)
M107;(start with the fan off)
G28;(Home the printer)
G92 E0;(Reset the extruder to 0)
G0 Z5 E5 F500;(Move up and prime the nozzle)
G0 X-1 Z0;(Move outside the printable area)
G1 Y60 E8 F500;(Draw a priming/wiping line to the rear)
G1 X-1;(Move a little closer to the print area)
G1 Y10 E16 F500;(draw more priming/wiping)
G1 E15 F250;(Small retract)
G92 E0;(Zero the extruder)
G92 E0
G92 E0
G1 F2400 E-2.5
;LAYER_COUNT:40
;LAYER:0
M107
G0 F4320 X78.038 Y41.882 Z0.263
;TYPE:SKIRT
G1 F2400 E0
G1 F1800 X78.525 Y42.008 E0.01925
G1 X78.987 Y42.21 E0.03855
G1 X79.411 Y42.481 E0.05781
G1 X79.787 Y42.817 E0.0771
G1 X80.105 Y43.207 E0.09636
G1 X80.357 Y43.643 E0.11563
G1 X80.537 Y44.113 E0.13489
G1 X80.64 Y44.606 E0.15417
G1 X80.674 Y45.241 E0.17851
G1 X80.675 Y74.303 E1.29071
G1 X80.666 Y75.03 E1.31853
G1 X80.62 Y75.532 E1.33782
G1 X80.495 Y76.02 E1.3571
G1 X80.294 Y76.482 E1.37638
G1 X80.023 Y76.906 E1.39564
G1 X79.689 Y77.282 E1.41489
G1 X79.299 Y77.601 E1.43417
G1 X78.863 Y77.854 E1.45346
G1 X78.393 Y78.035 E1.47274
G1 X77.901 Y78.139 E1.49198
G1 X77.259 Y78.174 E1.51659
G1 X43.166 Y78.175 E2.82132
G1 X42.468 Y78.166 E2.84804
G1 X41.967 Y78.119 E2.8673
G1 X41.479 Y77.994 E2.88657
G1 X41.017 Y77.794 E2.90584
G1 X40.593 Y77.522 E2.92512
G1 X40.216 Y77.188 E2.94439
G1 X39.898 Y76.797 E2.96368
G1 X39.645 Y76.362 E2.98294
G1 X39.464 Y75.892 E3.00221
G1 X39.36 Y75.399 E3.0215
G1 X39.326 Y74.744 E3.0466
G1 X39.325 Y45.631 E4.16075
G1 X39.334 Y44.966 E4.1862
G1 X39.381 Y44.465 E4.20546
G1 X39.506 Y43.977 E4.22474
G1 X39.707 Y43.515 E4.24402
G1 X39.979 Y43.091 E4.2633
G1 X40.314 Y42.715 E4.28257
G1 X40.704 Y42.397 E4.30183
G1 X41.14 Y42.144 E4.32112
G1 X41.61 Y41.964 E4.34038
G1 X42.103 Y41.86 E4.35966
G1 X42.741 Y41.826 E4.38411
G1 X76.838 Y41.825 E5.689
G1 X77.346 Y41.833 E5.70845
G0 F1620 X77.536 Y41.835
G0 X78.038 Y41.882
G0 F4320 X78.07 Y41.533
G1 F1800 X78.585 Y41.659 E5.72874
G1 X79.076 Y41.861 E5.74906
G1 X79.531 Y42.135 E5.76938
G1 X79.939 Y42.474 E5.78968
G1 X80.292 Y42.87 E5.80999
G1 X80.582 Y43.315 E5.83031
G1 X80.801 Y43.798 E5.85061
G1 X80.946 Y44.309 E5.87094
G1 X81.015 Y44.911 E5.89413
G1 X81.025 Y74.308 E7.01915
G1 X81.016 Y75.035 E7.04697
G1 X80.969 Y75.563 E7.06726
G1 X80.844 Y76.079 E7.08758
G1 X80.643 Y76.57 E7.10788
G1 X80.37 Y77.025 E7.12819
G1 X80.032 Y77.434 E7.14849
G1 X79.636 Y77.788 E7.16882
G1 X79.192 Y78.078 E7.18912
G1 X78.709 Y78.299 E7.20944
G1 X78.199 Y78.444 E7.22973
G1 X77.59 Y78.515 E7.2532
G1 X43.162 Y78.525 E8.57076
G1 X42.464 Y78.516 E8.59747
G1 X41.935 Y78.469 E8.6178
G1 X41.419 Y78.343 E8.63812
G1 X40.928 Y78.142 E8.65843
G1 X40.473 Y77.869 E8.67873
G1 X40.064 Y77.531 E8.69904
G1 X39.711 Y77.135 E8.71934
G1 X39.421 Y76.691 E8.73964
G1 X39.201 Y76.208 E8.75995
G1 X39.055 Y75.697 E8.78029
G1 X38.985 Y75.086 E8.80382
G1 X38.975 Y45.626 E9.93126
G1 X38.984 Y44.961 E9.95671
G1 X39.031 Y44.433 E9.97699
G1 X39.157 Y43.917 E9.99732
G1 X39.359 Y43.426 E10.01764
G1 X39.632 Y42.972 E10.03791
G1 X39.971 Y42.563 E10.05824
G1 X40.367 Y42.21 E10.07855
G1 X40.811 Y41.92 E10.09884
G1 X41.294 Y41.7 E10.11915
G1 X41.805 Y41.555 E10.13948
G1 X42.41 Y41.485 E10.16279
G1 X76.843 Y41.475 E11.48054
G1 X77.378 Y41.483 E11.50101
G0 F1620 X77.541 Y41.485
G0 X78.07 Y41.533
G1 F2400 E9.00101
;MESH:prototype5_bottomright.stl
G0 F4320 X76.44 Y44.36
G0 X76.44 Y46.06
G0 X76.468 Y73.968
G0 X43.375 Y74.125
;TYPE:WALL-INNER
G1 F2400 E11.50101
G1 F1800 X43.375 Y45.875 E12.58214
G1 X76.625 Y45.875 E13.85462
G1 X76.625 Y74.125 E14.93574
G1 X44.069 Y74.125 E16.18166
G0 F1620 X43.375 Y74.125
G0 F4320 X43.025 Y74.475
G1 F1800 X43.025 Y45.525 E17.28957
G1 X76.975 Y45.525 E18.58884
G1 X76.975 Y74.475 E19.69675
G1 X43.719 Y74.475 E20.96946
G0 F1620 X43.025 Y74.475
G0 F4320 X42.7 Y74.8
;TYPE:WALL-OUTER
G1 F1800 X42.7 Y45.2 E22.10225
G1 X77.3 Y45.2 E23.42639
G1 X77.3 Y74.8 E24.55918
G1 X43.394 Y74.8 E25.85676
G0 F1620 X42.7 Y74.8
G0 F4320 X42.7 Y74.6
G0 X42.975 Y74.6
G0 X43.46 Y73.785
G0 X43.715 Y73.785
;TYPE:SKIN
G1 F1800 X43.715 Y46.215 E26.91186
G1 X76.285 Y46.215 E28.15831
G1 X76.285 Y73.785 E29.21341
G1 X44.409 Y73.785 E30.43331
G0 F1620 X43.715 Y73.785
G0 F4320 X43.929 Y73.627
G1 F1800 X43.872 Y73.57 E30.43639
G0 F4320 X43.872 Y73.075
G1 F1800 X44.423 Y73.627 E30.46624
G0 F4320 X44.918 Y73.627
G1 F1800 X43.872 Y72.58 E30.52288
G0 F4320 X43.872 Y72.086
G1 F1800 X45.413 Y73.627 E30.60628
G0 F4320 X45.908 Y73.627
G1 F1800 X43.872 Y71.591 E30.71647
G0 F4320 X43.872 Y71.096
G1 F1800 X46.403 Y73.627 E30.85346
G0 F4320 X46.898 Y73.627
G1 F1800 X43.872 Y70.601 E31.01723
G0 F4320 X43.872 Y70.106
G1 F1800 X47.393 Y73.627 E31.20779
G0 F4320 X47.888 Y73.627
G1 F1800 X43.872 Y69.611 E31.42515
G0 F4320 X43.872 Y69.116
G1 F1800 X48.383 Y73.627 E31.66929
G0 F4320 X48.878 Y73.627
G1 F1800 X43.872 Y68.621 E31.94022
G0 F4320 X43.872 Y68.126
G1 F1800 X49.373 Y73.627 E32.23795
G0 F4320 X49.868 Y73.627
G1 F1800 X43.872 Y67.631 E32.56246
G0 F4320 X43.872 Y67.136
G1 F1800 X50.363 Y73.627 E32.91377
G0 F4320 X50.858 Y73.627
G1 F1800 X43.872 Y66.641 E33.29186
G0 F4320 X43.872 Y66.146
G1 F1800 X51.353 Y73.627 E33.69675
G0 F4320 X51.848 Y73.627
G1 F1800 X43.872 Y65.651 E34.12842
G0 F4320 X43.872 Y65.156
G1 F1800 X52.343 Y73.627 E34.58689
G0 F4320 X52.838 Y73.627
G1 F1800 X43.872 Y64.661 E35.07215
G0 F4320 X43.872 Y64.166
G1 F1800 X53.333 Y73.627 E35.58419
G0 F4320 X53.828 Y73.627
G1 F1800 X43.872 Y63.671 E36.12303
G0 F4320 X43.872 Y63.176
G1 F1800 X54.323 Y73.627 E36.68866
G0 F4320 X54.818 Y73.627
G1 F1800 X43.872 Y62.681 E37.28108
G0 F4320 X43.872 Y62.186
G1 F1800 X55.313 Y73.627 E37.90029
G0 F4320 X55.808 Y73.627
G1 F1800 X43.872 Y61.691 E38.54628
G0 F4320 X43.872 Y61.196
G1 F1800 X56.303 Y73.627 E39.21907
G0 F4320 X56.798 Y73.627
G1 F1800 X43.872 Y60.701 E39.91865
G0 F4320 X43.872 Y60.206
G1 F1800 X57.293 Y73.627 E40.64502
G0 F4320 X57.788 Y73.627
G1 F1800 X43.872 Y59.711 E41.39818
G0 F4320 X43.872 Y59.216
G1 F1800 X58.283 Y73.627 E42.17813
G0 F4320 X58.778 Y73.627
G1 F1800 X43.872 Y58.721 E42.98487
G0 F4320 X43.872 Y58.226
G1 F1800 X59.273 Y73.627 E43.8184
G0 F4320 X59.768 Y73.627
G1 F1800 X43.872 Y57.731 E44.67873
G0 F4320 X43.872 Y57.236
G1 F1800 X60.263 Y73.627 E45.56584
G0 F4320 X60.758 Y73.627
G1 F1800 X43.872 Y56.741 E46.47974
G0 F4320 X43.872 Y56.246
G1 F1800 X61.253 Y73.627 E47.42043
G0 F4320 X61.748 Y73.627
G1 F1800 X43.872 Y55.751 E48.38791
G0 F4320 X43.872 Y55.256
G1 F1800 X62.243 Y73.627 E49.38219
G0 F4320 X62.738 Y73.627
G1 F1800 X43.872 Y54.761 E50.40325
G0 F4320 X43.872 Y54.266
G1 F1800 X63.233 Y73.627 E51.4511
G0 F4320 X63.727 Y73.627
G1 F1800 X43.872 Y53.771 E52.52572
G0 F4320 X43.872 Y53.276
G1 F1800 X64.222 Y73.627 E53.62713
G0 F4320 X64.717 Y73.627
G1 F1800 X43.872 Y52.781 E54.75533
G0 F4320 X43.872 Y52.287
G1 F1800 X65.212 Y73.627 E55.91029
G0 F4320 X65.707 Y73.627
G1 F1800 X43.872 Y51.792 E57.09204
G0 F4320 X43.872 Y51.297
G1 F1800 X66.202 Y73.627 E58.30058
G0 F4320 X66.697 Y73.627
G1 F1800 X43.872 Y50.802 E59.53591
G0 F4320 X43.872 Y50.307
G1 F1800 X67.192 Y73.627 E60.79803
G0 F4320 X67.687 Y73.627
G1 F1800 X43.872 Y49.812 E62.08694
G0 F4320 X43.872 Y49.317
G1 F1800 X68.182 Y73.627 E63.40265
G0 F4320 X68.677 Y73.627
G1 F1800 X43.872 Y48.822 E64.74514
G0 F4320 X43.872 Y48.327
G1 F1800 X69.172 Y73.627 E66.11442
G0 F4320 X69.667 Y73.627
G1 F1800 X43.872 Y47.832 E67.5105
G0 F4320 X43.872 Y47.337
G1 F1800 X70.162 Y73.627 E68.93336
G0 F4320 X70.657 Y73.627
G1 F1800 X43.872 Y46.842 E70.38302
G0 F4320 X43.897 Y46.372
G1 F1800 X71.152 Y73.627 E71.85811
G0 F4320 X71.647 Y73.627
G1 F1800 X44.392 Y46.372 E73.3332
G0 F4320 X44.887 Y46.372
G1 F1800 X72.142 Y73.627 E74.80829
G0 F4320 X72.637 Y73.627
G1 F1800 X45.382 Y46.372 E76.28338
G0 F4320 X45.877 Y46.372
G1 F1800 X73.132 Y73.627 E77.75847
G0 F4320 X73.627 Y73.627
G1 F1800 X46.372 Y46.372 E79.23357
G0 F4320 X46.867 Y46.372
G1 F1800 X74.122 Y73.627 E80.70866
G0 F4320 X74.617 Y73.627
G1 F1800 X47.362 Y46.372 E82.18375
G0 F4320 X47.856 Y46.372
G1 F1800 X75.112 Y73.627 E83.65887
G0 F4320 X75.607 Y73.627
G1 F1800 X48.351 Y46.372 E85.13399
G0 F4320 X48.846 Y46.372
G1 F1800 X76.102 Y73.627 E86.6091
G0 F4320 X76.127 Y73.157
G1 F1800 X49.341 Y46.372 E88.05879
G0 F4320 X49.836 Y46.372
G1 F1800 X76.127 Y72.662 E89.48168
G0 F4320 X76.127 Y72.167
G1 F1800 X50.331 Y46.372 E90.87778
G0 F4320 X50.826 Y46.372
G1 F1800 X76.127 Y71.672 E92.24709
G0 F4320 X76.127 Y71.177
G1 F1800 X51.321 Y46.372 E93.58961
G0 F4320 X51.816 Y46.372
G1 F1800 X76.127 Y70.682 E94.90534
G0 F4320 X76.127 Y70.187
G1 F1800 X52.311 Y46.372 E96.19428
G0 F4320 X52.806 Y46.372
G1 F1800 X76.127 Y69.692 E97.45643
G0 F4320 X76.127 Y69.197
G1 F1800 X53.301 Y46.372 E98.69179
G0 F4320 X53.796 Y46.372
G1 F1800 X76.127 Y68.702 E99.90035
G0 F4320 X76.127 Y68.207
G1 F1800 X54.291 Y46.372 E101.08213
G0 F4320 X54.786 Y46.372
G1 F1800 X76.127 Y67.712 E102.23712
G0 F4320 X76.127 Y67.217
G1 F1800 X55.281 Y46.372 E103.36532
G0 F4320 X55.776 Y46.372
G1 F1800 X76.127 Y66.722 E104.46672
G0 F4320 X76.127 Y66.227
G1 F1800 X56.271 Y46.372 E105.54134
G0 F4320 X56.766 Y46.372
G1 F1800 X76.127 Y65.732 E106.58917
G0 F4320 X76.127 Y65.237
G1 F1800 X57.261 Y46.372 E107.6102
G0 F4320 X57.756 Y46.372
G1 F1800 X76.127 Y64.742 E108.60445
G0 F4320 X76.127 Y64.247
G1 F1800 X58.251 Y46.372 E109.57191
G0 F4320 X58.746 Y46.372
G1 F1800 X76.127 Y63.752 E110.51257
G0 F4320 X76.127 Y63.257
G1 F1800 X59.241 Y46.372 E111.42645
G0 F4320 X59.736 Y46.372
G1 F1800 X76.127 Y62.762 E112.31353
G0 F4320 X76.127 Y62.267
G1 F1800 X60.231 Y46.372 E113.17382
G0 F4320 X60.726 Y46.372
G1 F1800 X76.127 Y61.772 E114.00733
G0 F4320 X76.127 Y61.277
G1 F1800 X61.221 Y46.372 E114.81404
G0 F4320 X61.716 Y46.372
G1 F1800 X76.127 Y60.782 E115.59397
G0 F4320 X76.127 Y60.287
G1 F1800 X62.211 Y46.372 E116.3471
G0 F4320 X62.706 Y46.372
G1 F1800 X76.127 Y59.792 E117.07344
G0 F4320 X76.127 Y59.297
G1 F1800 X63.201 Y46.372 E117.77299
G0 F4320 X63.696 Y46.372
G1 F1800 X76.127 Y58.802 E118.44576
G0 F4320 X76.127 Y58.308
G1 F1800 X64.191 Y46.372 E119.09175
G0 F4320 X64.686 Y46.372
G1 F1800 X76.127 Y57.813 E119.71096
G0 F4320 X76.127 Y57.318
G1 F1800 X65.181 Y46.372 E120.30338
G0 F4320 X65.676 Y46.372
G1 F1800 X76.127 Y56.823 E120.86901
G0 F4320 X76.127 Y56.328
G1 F1800 X66.171 Y46.372 E121.40785
G0 F4320 X66.666 Y46.372
G1 F1800 X76.127 Y55.833 E121.91989
G0 F4320 X76.127 Y55.338
G1 F1800 X67.161 Y46.372 E122.40515
G0 F4320 X67.655 Y46.372
G1 F1800 X76.127 Y54.843 E122.86364
G0 F4320 X76.127 Y54.348
G1 F1800 X68.15 Y46.372 E123.29535
G0 F4320 X68.645 Y46.372
G1 F1800 X76.127 Y53.853 E123.70026
G0 F4320 X76.127 Y53.358
G1 F1800 X69.14 Y46.372 E124.07838
G0 F4320 X69.635 Y46.372
G1 F1800 X76.127 Y52.863 E124.42971
G0 F4320 X76.127 Y52.368
G1 F1800 X70.13 Y46.372 E124.75425
G0 F4320 X70.625 Y46.372
G1 F1800 X76.127 Y51.873 E125.05201
G0 F4320 X76.127 Y51.378
G1 F1800 X71.12 Y46.372 E125.32297
G0 F4320 X71.615 Y46.372
G1 F1800 X76.127 Y50.883 E125.56714
G0 F4320 X76.127 Y50.388
M104 S200
G1 F1800 X72.11 Y46.372 E125.78452
G0 F4320 X72.605 Y46.372
G1 F1800 X76.127 Y49.893 E125.97511
G0 F4320 X76.127 Y49.398
G1 F1800 X73.1 Y46.372 E126.13891
G0 F4320 X73.595 Y46.372
G1 F1800 X76.127 Y48.903 E126.27592
G0 F4320 X76.127 Y48.408
G1 F1800 X74.09 Y46.372 E126.38614
G0 F4320 X74.585 Y46.372
G1 F1800 X76.127 Y47.913 E126.46957
G0 F4320 X76.127 Y47.418
G1 F1800 X75.08 Y46.372 E126.5262
G0 F4320 X75.575 Y46.372
G1 F1800 X76.127 Y46.923 E126.55605
G0 F4320 X76.127 Y46.428
G1 F1800 X76.07 Y46.372 E126.55911
G0 F4320 X76.07 Y45.725
;MESH:NONMESH
G0 F600 X76.07 Y45.725 Z0.394
G0 F4320 X43.532 Y46.032
G0 X43.375 Y74.125
;TIME_ELAPSED:144.631584
;LAYER:1
M140 S60
M106 S255
;TYPE:WALL-INNER
;MESH:prototype5_bottomright.stl
G1 F2400 X43.375 Y45.875 E127.09762
G1 X76.625 Y45.875 E127.73144
G1 X76.625 Y74.125 E128.26994
G1 X44.769 Y74.125 E128.87719
G0 F2160 X43.375 Y74.125
G0 F5760 X43.025 Y74.475
G1 F2400 X43.025 Y45.525 E129.42904
G1 X76.975 Y45.525 E130.0762
G1 X76.975 Y74.475 E130.62806
G1 X44.419 Y74.475 E131.24864
G0 F2160 X43.025 Y74.475
G0 F5760 X42.7 Y74.8
;TYPE:WALL-OUTER
G1 F2025 X42.7 Y45.2 E131.81289
G1 X77.3 Y45.2 E132.47244
G1 X77.3 Y74.8 E133.03668
G1 X44.094 Y74.8 E133.66966
G0 F1822.5 X42.7 Y74.8
G0 F5760 X42.7 Y74.6
G0 X42.975 Y74.6
G0 X43.46 Y73.785
G0 X43.715 Y73.785
;TYPE:SKIN
G1 F1500 X43.715 Y46.215 E134.19521
G1 X76.285 Y46.215 E134.81606
G1 X76.285 Y73.785 E135.34161
G1 X45.109 Y73.785 E135.93589
G0 F1350 X43.715 Y73.785
G0 F5760 X43.46 Y73.785
G0 X43.46 Y46.707
G0 X43.872 Y46.707
G1 F1500 X44.209 Y46.371 E135.94496
G0 F5760 X44.703 Y46.371
G1 F1500 X43.872 Y47.202 E135.96736
G0 F5760 X43.872 Y47.697
G1 F1500 X45.198 Y46.371 E136.00311
G0 F5760 X45.693 Y46.371
G1 F1500 X43.872 Y48.192 E136.0522
G0 F5760 X43.872 Y48.687
G1 F1500 X46.188 Y46.371 E136.11464
G0 F5760 X46.683 Y46.371
G1 F1500 X43.872 Y49.182 E136.19042
G0 F5760 X43.872 Y49.677
G1 F1500 X47.178 Y46.371 E136.27954
G0 F5760 X47.673 Y46.371
G1 F1500 X43.872 Y50.172 E136.38201
G0 F5760 X43.872 Y50.667
G1 F1500 X48.168 Y46.371 E136.49782
G0 F5760 X48.663 Y46.371
G1 F1500 X43.872 Y51.162 E136.62697
G0 F5760 X43.872 Y51.657
G1 F1500 X49.158 Y46.371 E136.76947
G0 F5760 X49.653 Y46.371
G1 F1500 X43.872 Y52.152 E136.92532
G0 F5760 X43.872 Y52.647
G1 F1500 X50.148 Y46.371 E137.09451
G0 F5760 X50.643 Y46.371
G1 F1500 X43.872 Y53.142 E137.27704
G0 F5760 X43.872 Y53.637
G1 F1500 X51.138 Y46.371 E137.47292
G0 F5760 X51.633 Y46.371
G1 F1500 X43.872 Y54.132 E137.68214
G0 F5760 X43.872 Y54.627
G1 F1500 X52.128 Y46.371 E137.9047
G0 F5760 X52.623 Y46.371
G1 F1500 X43.872 Y55.122 E138.14061
G0 F5760 X43.872 Y55.617
G1 F1500 X53.118 Y46.371 E138.38987
G0 F5760 X53.613 Y46.371
G1 F1500 X43.872 Y56.112 E138.65247
G0 F5760 X43.872 Y56.607
G1 F1500 X54.108 Y46.371 E138.92841
G0 F5760 X54.603 Y46.371
G1 F1500 X43.872 Y57.102 E139.2177
G0 F5760 X43.872 Y57.597
G1 F1500 X55.098 Y46.371 E139.52033
G0 F5760 X55.593 Y46.371
G1 F1500 X43.872 Y58.092 E139.8363
G0 F5760 X43.872 Y58.587
G1 F1500 X56.088 Y46.371 E140.16562
G0 F5760 X56.583 Y46.371
G1 F1500 X43.872 Y59.082 E140.50828
G0 F5760 X43.872 Y59.577
G1 F1500 X57.078 Y46.371 E140.86429
G0 F5760 X57.573 Y46.371
G1 F1500 X43.872 Y60.072 E141.23364
G0 F5760 X43.872 Y60.567
G1 F1500 X58.068 Y46.371 E141.61634
G0 F5760 X58.563 Y46.371
G1 F1500 X43.872 Y61.062 E142.01238
G0 F5760 X43.872 Y61.557
G1 F1500 X59.058 Y46.371 E142.42177
G0 F5760 X59.553 Y46.371
G1 F1500 X43.872 Y62.052 E142.8445
G0 F5760 X43.872 Y62.547
G1 F1500 X60.048 Y46.371 E143.28057
G0 F5760 X60.543 Y46.371
G1 F1500 X43.872 Y63.042 E143.72999
G0 F5760 X43.872 Y63.537
G1 F1500 X61.038 Y46.371 E144.19275
G0 F5760 X61.533 Y46.371
G1 F1500 X43.872 Y64.032 E144.66885
G0 F5760 X43.872 Y64.527
G1 F1500 X62.028 Y46.371 E145.1583
G0 F5760 X62.523 Y46.371
G1 F1500 X43.872 Y65.022 E145.6611
G0 F5760 X43.872 Y65.516
G1 F1500 X63.018 Y46.371 E146.17722
G0 F5760 X63.513 Y46.371
G1 F1500 X43.872 Y66.011 E146.70669
G0 F5760 X43.872 Y66.506
G1 F1500 X64.008 Y46.371 E147.24951
G0 F5760 X64.502 Y46.371
G1 F1500 X43.872 Y67.001 E147.80565
G0 F5760 X43.872 Y67.496
G1 F1500 X64.997 Y46.371 E148.37514
G0 F5760 X65.492 Y46.371
G1 F1500 X43.872 Y67.991 E148.95797
G0 F5760 X43.872 Y68.486
G1 F1500 X65.987 Y46.371 E149.55415
G0 F5760 X66.482 Y46.371
G1 F1500 X43.872 Y68.981 E150.16367
G0 F5760 X43.872 Y69.476
G1 F1500 X66.977 Y46.371 E150.78654
G0 F5760 X67.472 Y46.371
G1 F1500 X43.872 Y69.971 E151.42275
G0 F5760 X43.872 Y70.466
G1 F1500 X67.967 Y46.371 E152.0723
G0 F5760 X68.462 Y46.371
G1 F1500 X43.872 Y70.961 E152.7352
G0 F5760 X43.872 Y71.456
G1 F1500 X68.957 Y46.371 E153.41144
G0 F5760 X69.452 Y46.371
G1 F1500 X43.872 Y71.951 E154.10103
G0 F5760 X43.872 Y72.446
G1 F1500 X69.947 Y46.371 E154.80396
G0 F5760 X70.442 Y46.371
