;FLAVOR:Marlin
;TIME:3506
;Filament used: 1.85291m
;Layer height: 0.13125
;MINX:2.45
;MINY:14.95
;MINZ:0.263
;MAXX:117.55
;MAXY:105.05
;MAXZ:0.918
;Generated with Cura_SteamEngine 4.6.1
M140 S65
M105
M190 S65
M104 S205
M105
M109 S205
M82 ;absolute extrusion mode
G21;(metric values)
G90;(absolute positioning)
M82;(set extruder to absolute mode)
M107;(start with the fan off)
G28;(Home the printer)
G92 E0;(Reset the extruder to 0)
G0 Z5 E5 F500;(Move up and prime the nozzle)
G0 X-1 Z0;(Move outside the printable area)
G1 Y60 E8 F500;(Draw a priming/wiping line to the rear)
G1 X-1;(Move a little closer to the print area)
G1 Y10 E16 F500;(draw more priming/wiping)
G1 E15 F250;(Small retract)
G92 E0;(Zero the extruder)
G92 E0
G92 E0
G1 F2400 E-2.5
;LAYER_COUNT:6
;LAYER:0
M107
G0 F4320 X5.611 Y15.368 Z0.263
;TYPE:SKIRT
G1 F2400 E0
G1 F1800 X6.21 Y15.152 E0.02437
G1 X6.832 Y15.013 E0.04876
G1 X7.628 Y14.95 E0.07932
G1 X112.372 Y14.95 E4.08786
G1 X113.008 Y14.99 E4.11225
G1 X113.633 Y15.109 E4.1366
G1 X114.239 Y15.306 E4.16099
G1 X114.815 Y15.577 E4.18535
G1 X115.353 Y15.918 E4.20973
G1 X115.961 Y16.436 E4.24029
G1 X116.485 Y17.017 E4.27023
G1 X116.843 Y17.544 E4.29462
G1 X117.132 Y18.111 E4.31897
G1 X117.348 Y18.71 E4.34334
G1 X117.487 Y19.332 E4.36773
G1 X117.55 Y20.128 E4.39829
G1 X117.55 Y49.872 E5.53659
G1 X117.51 Y50.508 E5.56098
G1 X117.391 Y51.133 E5.58533
G1 X117.194 Y51.739 E5.60971
G1 X116.923 Y52.315 E5.63407
G1 X116.582 Y52.853 E5.65845
G1 X116.064 Y53.461 E5.68902
G1 X115.483 Y53.985 E5.71896
G1 X114.956 Y54.343 E5.74334
G1 X114.389 Y54.632 E5.7677
G1 X113.79 Y54.848 E5.79207
G1 X113.168 Y54.987 E5.81646
G1 X112.372 Y55.05 E5.84702
G1 X7.628 Y55.05 E9.85556
G1 X6.992 Y55.01 E9.87995
G1 X6.367 Y54.891 E9.9043
G1 X5.761 Y54.694 E9.92868
G1 X5.185 Y54.423 E9.95305
G1 X4.647 Y54.082 E9.97742
G1 X4.039 Y53.564 E10.00799
G1 X3.515 Y52.983 E10.03793
G1 X3.157 Y52.456 E10.06231
G1 X2.868 Y51.889 E10.08667
G1 X2.652 Y51.29 E10.11104
G1 X2.513 Y50.668 E10.13543
G1 X2.45 Y49.872 E10.16599
G1 X2.45 Y20.128 E11.30429
G1 X2.49 Y19.492 E11.32868
G1 X2.609 Y18.867 E11.35302
G1 X2.806 Y18.261 E11.37741
G1 X3.077 Y17.685 E11.40177
G1 X3.418 Y17.147 E11.42615
G1 X3.936 Y16.539 E11.45672
G1 X4.517 Y16.015 E11.48666
G1 X4.997 Y15.689 E11.50886
G0 F1620 X5.044 Y15.657
G0 X5.611 Y15.368
G0 F4320 X5.81 Y15.664
G1 F1800 X6.391 Y15.465 E11.53237
G1 X6.994 Y15.343 E11.55591
G1 X7.628 Y15.3 E11.58023
G1 X112.372 Y15.3 E15.58878
G1 X112.985 Y15.34 E15.61229
G1 X113.588 Y15.459 E15.63581
G1 X114.17 Y15.656 E15.65932
G1 X114.722 Y15.926 E15.68284
G1 X115.234 Y16.266 E15.70636
G1 X115.713 Y16.684 E15.73069
G1 X116.221 Y17.249 E15.75977
G1 X116.563 Y17.759 E15.78327
G1 X116.836 Y18.31 E15.8068
G1 X117.035 Y18.891 E15.8303
G1 X117.157 Y19.494 E15.85385
G1 X117.2 Y20.128 E15.87817
G1 X117.2 Y49.872 E17.01647
G1 X117.16 Y50.485 E17.03998
G1 X117.041 Y51.088 E17.0635
G1 X116.844 Y51.67 E17.08701
G1 X116.574 Y52.222 E17.11053
G1 X116.234 Y52.734 E17.13405
G1 X115.816 Y53.213 E17.15838
G1 X115.251 Y53.721 E17.18746
G1 X114.741 Y54.063 E17.21096
G1 X114.19 Y54.336 E17.23449
G1 X113.609 Y54.535 E17.25799
G1 X113.006 Y54.657 E17.28154
G1 X112.372 Y54.7 E17.30586
G1 X7.628 Y54.7 E21.3144
G1 X7.015 Y54.66 E21.33791
G1 X6.412 Y54.541 E21.36144
G1 X5.83 Y54.344 E21.38495
G1 X5.278 Y54.074 E21.40847
G1 X4.766 Y53.734 E21.43199
G1 X4.287 Y53.316 E21.45632
G1 X3.779 Y52.751 E21.4854
G1 X3.437 Y52.241 E21.5089
G1 X3.164 Y51.69 E21.53243
G1 X2.965 Y51.109 E21.55593
G1 X2.843 Y50.506 E21.57948
G1 X2.8 Y49.872 E21.60379
G1 X2.8 Y20.128 E22.7421
G1 X2.84 Y19.515 E22.7656
G1 X2.959 Y18.912 E22.78913
G1 X3.156 Y18.33 E22.81264
G1 X3.426 Y17.778 E22.83616
G1 X3.766 Y17.266 E22.85968
G1 X4.184 Y16.787 E22.88401
G1 X4.749 Y16.279 E22.91309
G1 X5.193 Y15.981 E22.93355
G0 F1620 X5.259 Y15.937
G0 X5.81 Y15.664
G0 F4320 X6.007 Y15.962
G1 F1800 X6.569 Y15.78 E22.95616
G1 X7.151 Y15.676 E22.97878
G1 X7.628 Y15.65 E22.99707
G1 X112.372 Y15.65 E27.00561
G1 X112.962 Y15.69 E27.02824
G1 X113.541 Y15.809 E27.05086
G1 X114.099 Y16.005 E27.0735
G1 X114.625 Y16.275 E27.09613
G1 X115.11 Y16.613 E27.11875
G1 X115.569 Y17.034 E27.14259
G1 X115.957 Y17.48 E27.16521
G1 X116.283 Y17.974 E27.18786
G1 X116.538 Y18.507 E27.21047
G1 X116.72 Y19.069 E27.23308
G1 X116.824 Y19.651 E27.2557
G1 X116.85 Y20.128 E27.27399
G1 X116.85 Y49.872 E28.41229
G1 X116.81 Y50.462 E28.43492
G1 X116.691 Y51.041 E28.45754
G1 X116.495 Y51.599 E28.48017
G1 X116.225 Y52.125 E28.5028
G1 X115.887 Y52.61 E28.52542
G1 X115.466 Y53.069 E28.54926
G1 X115.02 Y53.457 E28.57188
G1 X114.526 Y53.783 E28.59453
G1 X113.993 Y54.038 E28.61715
G1 X113.431 Y54.22 E28.63975
G1 X112.849 Y54.324 E28.66238
G1 X112.372 Y54.35 E28.68066
G1 X7.628 Y54.35 E32.68921
G1 X7.038 Y54.31 E32.71184
G1 X6.459 Y54.191 E32.73446
G1 X5.901 Y53.995 E32.7571
G1 X5.375 Y53.725 E32.77972
G1 X4.89 Y53.387 E32.80235
G1 X4.431 Y52.966 E32.82618
G1 X4.043 Y52.52 E32.84881
G1 X3.717 Y52.026 E32.87146
G1 X3.462 Y51.493 E32.89407
G1 X3.28 Y50.931 E32.91668
G1 X3.176 Y50.349 E32.9393
G1 X3.15 Y49.872 E32.95758
G1 X3.15 Y20.128 E34.09588
G1 X3.19 Y19.538 E34.11852
G1 X3.309 Y18.959 E34.14114
G1 X3.505 Y18.401 E34.16377
G1 X3.775 Y17.875 E34.1864
G1 X4.113 Y17.39 E34.20902
G1 X4.534 Y16.931 E34.23286
G1 X4.98 Y16.543 E34.25548
G1 X5.388 Y16.274 E34.27418
G0 F1620 X5.474 Y16.217
G0 X6.007 Y15.962
G0 F4320 X6.201 Y16.261
G1 F1800 X6.744 Y16.098 E34.29588
G1 X7.305 Y16.013 E34.31759
G1 X7.628 Y16 E34.32997
G1 X112.372 Y16 E38.33851
G1 X112.938 Y16.04 E38.36023
G1 X113.492 Y16.159 E38.38191
G1 X114.024 Y16.355 E38.40361
G1 X114.524 Y16.623 E38.42532
G1 X114.98 Y16.96 E38.44702
G1 X115.321 Y17.282 E38.46497
G1 X115.693 Y17.71 E38.48667
G1 X116.001 Y18.186 E38.50837
G1 X116.239 Y18.701 E38.53008
G1 X116.402 Y19.244 E38.55178
G1 X116.487 Y19.805 E38.57349
G1 X116.5 Y20.128 E38.58586
G1 X116.5 Y49.872 E39.72416
G1 X116.46 Y50.438 E39.74588
G1 X116.341 Y50.992 E39.76756
G1 X116.145 Y51.524 E39.78926
G1 X115.877 Y52.024 E39.81097
G1 X115.54 Y52.48 E39.83267
G1 X115.218 Y52.821 E39.85062
G1 X114.79 Y53.193 E39.87232
G1 X114.314 Y53.501 E39.89402
G1 X113.799 Y53.739 E39.91573
G1 X113.256 Y53.902 E39.93743
G1 X112.695 Y53.987 E39.95914
G1 X112.372 Y54 E39.97151
G1 X7.628 Y54 E43.98006
G1 X7.062 Y53.96 E44.00177
G1 X6.508 Y53.841 E44.02346
G1 X5.976 Y53.645 E44.04516
G1 X5.476 Y53.377 E44.06687
G1 X5.02 Y53.04 E44.08857
G1 X4.679 Y52.718 E44.10652
G1 X4.307 Y52.29 E44.12822
G1 X3.999 Y51.814 E44.14991
G1 X3.761 Y51.299 E44.17163
G1 X3.598 Y50.756 E44.19332
G1 X3.513 Y50.195 E44.21504
G1 X3.5 Y49.872 E44.22741
G1 X3.5 Y20.128 E45.36571
G1 X3.54 Y19.562 E45.38742
G1 X3.659 Y19.008 E45.40911
G1 X3.855 Y18.476 E45.43081
G1 X4.123 Y17.976 E45.45252
G1 X4.46 Y17.52 E45.47422
G1 X4.782 Y17.179 E45.49217
G1 X5.21 Y16.807 E45.51387
G1 X5.58 Y16.568 E45.53072
G0 F1620 X5.686 Y16.499
G0 X6.201 Y16.261
G0 F4320 X6.393 Y16.564
G1 F1800 X6.916 Y16.42 E45.55148
G1 X7.628 Y16.35 E45.57886
G1 X112.372 Y16.35 E49.58741
G1 X112.912 Y16.39 E49.60813
G1 X113.441 Y16.509 E49.62888
G1 X113.946 Y16.704 E49.6496
G1 X114.418 Y16.972 E49.67037
G1 X114.971 Y17.426 E49.69776
G1 X115.427 Y17.94 E49.72405
G1 X115.717 Y18.398 E49.7448
G1 X115.936 Y18.893 E49.76551
G1 X116.08 Y19.416 E49.78627
G1 X116.15 Y20.128 E49.81365
G1 X116.15 Y49.872 E50.95195
G1 X116.11 Y50.412 E50.97267
G1 X115.991 Y50.941 E50.99343
G1 X115.796 Y51.446 E51.01414
G1 X115.528 Y51.918 E51.03491
G1 X115.074 Y52.471 E51.0623
G1 X114.56 Y52.927 E51.08859
G1 X114.102 Y53.217 E51.10934
G1 X113.607 Y53.436 E51.13005
G1 X113.084 Y53.58 E51.15081
G1 X112.372 Y53.65 E51.17819
G1 X7.628 Y53.65 E55.18674
G1 X7.088 Y53.61 E55.20746
G1 X6.559 Y53.491 E55.22821
G1 X6.054 Y53.296 E55.24893
G1 X5.582 Y53.028 E55.2697
G1 X5.029 Y52.574 E55.29708
G1 X4.573 Y52.06 E55.32338
G1 X4.283 Y51.602 E55.34413
G1 X4.064 Y51.107 E55.36484
G1 X3.92 Y50.584 E55.3856
G1 X3.85 Y49.872 E55.41298
G1 X3.85 Y20.128 E56.55128
G1 X3.89 Y19.588 E56.572
G1 X4.009 Y19.059 E56.59275
G1 X4.204 Y18.554 E56.61347
G1 X4.472 Y18.082 E56.63424
G1 X4.926 Y17.529 E56.66163
G1 X5.44 Y17.073 E56.68792
G1 X5.769 Y16.864 E56.70284
G0 F1620 X5.898 Y16.783
G0 X6.393 Y16.564
G0 F4320 X6.107 Y17.068
G1 F1800 X6.582 Y16.869 E56.72255
G1 X7.083 Y16.745 E56.7423
G1 X7.628 Y16.7 E56.76323
G1 X112.372 Y16.7 E60.77177
G1 X112.886 Y16.74 E60.7915
G1 X113.387 Y16.859 E60.81121
G1 X113.864 Y17.054 E60.83093
G1 X114.306 Y17.32 E60.85067
G1 X114.723 Y17.674 E60.87161
G1 X115.161 Y18.168 E60.89687
G1 X115.432 Y18.607 E60.91662
G1 X115.631 Y19.082 E60.93633
G1 X115.755 Y19.583 E60.95608
G1 X115.8 Y20.128 E60.97701
G1 X115.8 Y49.872 E62.11531
G1 X115.76 Y50.386 E62.13504
G1 X115.641 Y50.887 E62.15474
G1 X115.446 Y51.364 E62.17447
G1 X115.18 Y51.806 E62.19421
G1 X114.826 Y52.223 E62.21514
G1 X114.332 Y52.661 E62.24041
G1 X113.893 Y52.932 E62.26015
G1 X113.418 Y53.131 E62.27986
G1 X112.917 Y53.255 E62.29961
G1 X112.372 Y53.3 E62.32054
G1 X7.628 Y53.3 E66.32909
G1 X7.114 Y53.26 E66.34882
G1 X6.613 Y53.141 E66.36852
G1 X6.136 Y52.946 E66.38825
G1 X5.694 Y52.68 E66.40799
G1 X5.277 Y52.326 E66.42892
G1 X4.839 Y51.832 E66.45419
G1 X4.568 Y51.393 E66.47393
G1 X4.369 Y50.918 E66.49364
G1 X4.245 Y50.417 E66.51339
G1 X4.2 Y49.872 E66.53432
G1 X4.2 Y20.128 E67.67262
G1 X4.24 Y19.614 E67.69235
G1 X4.359 Y19.113 E67.71206
G1 X4.554 Y18.636 E67.73178
G1 X4.82 Y18.194 E67.75152
G1 X5.174 Y17.777 E67.77246
G1 X5.535 Y17.457 E67.79092
G0 F1620 X5.668 Y17.339
G0 X6.107 Y17.068
G0 F4320 X6.314 Y17.356
G1 F1800 X6.768 Y17.177 E67.80959
G1 X7.244 Y17.075 E67.82822
G1 X7.628 Y17.05 E67.84295
G1 X112.372 Y17.05 E71.8515
G1 X112.858 Y17.09 E71.87016
G1 X113.331 Y17.209 E71.88882
G1 X113.778 Y17.403 E71.90747
G1 X114.187 Y17.668 E71.92612
G1 X114.579 Y18.024 E71.94639
G1 X114.894 Y18.396 E71.96504
G1 X115.144 Y18.814 E71.98368
G1 X115.323 Y19.268 E72.00236
G1 X115.425 Y19.744 E72.02099
G1 X115.45 Y20.128 E72.03572
G1 X115.45 Y49.872 E73.17402
G1 X115.41 Y50.358 E73.19268
G1 X115.291 Y50.831 E73.21135
G1 X115.097 Y51.278 E73.22999
G1 X114.832 Y51.687 E73.24864
G1 X114.476 Y52.079 E73.26891
G1 X114.104 Y52.394 E73.28756
G1 X113.686 Y52.644 E73.3062
G1 X113.232 Y52.823 E73.32488
G1 X112.756 Y52.925 E73.34351
G1 X112.372 Y52.95 E73.35824
G1 X7.628 Y52.95 E77.36678
G1 X7.142 Y52.91 E77.38545
G1 X6.669 Y52.791 E77.40411
G1 X6.222 Y52.597 E77.42276
G1 X5.813 Y52.332 E77.44141
G1 X5.421 Y51.976 E77.46168
G1 X5.106 Y51.604 E77.48033
G1 X4.856 Y51.186 E77.49897
G1 X4.677 Y50.732 E77.51765
G1 X4.575 Y50.256 E77.53628
G1 X4.55 Y49.872 E77.551
G1 X4.55 Y20.128 E78.6893
G1 X4.59 Y19.642 E78.70797
G1 X4.709 Y19.169 E78.72663
G1 X4.903 Y18.722 E78.74528
G1 X5.168 Y18.313 E78.76393
G1 X5.524 Y17.921 E78.7842
G1 X5.738 Y17.739 E78.79495
G0 F1620 X5.896 Y17.606
G0 X6.314 Y17.356
G0 F4320 X6.519 Y17.646
G1 F1800 X6.949 Y17.489 E78.81247
G1 X7.628 Y17.4 E78.83867
G1 X112.372 Y17.4 E82.84722
G1 X112.828 Y17.44 E82.86474
G1 X113.27 Y17.558 E82.88225
G1 X113.685 Y17.752 E82.89978
G1 X114.228 Y18.169 E82.92598
G1 X114.625 Y18.623 E82.94906
G1 X114.854 Y19.019 E82.96657
G1 X115.011 Y19.449 E82.98408
G1 X115.1 Y20.128 E83.01029
G1 X115.1 Y49.872 E84.14859
G1 X115.06 Y50.328 E84.16611
G1 X114.942 Y50.77 E84.18362
G1 X114.748 Y51.185 E84.20115
G1 X114.331 Y51.728 E84.22735
G1 X113.877 Y52.125 E84.25043
G1 X113.481 Y52.354 E84.26794
G1 X113.051 Y52.511 E84.28546
G1 X112.372 Y52.6 E84.31167
G1 X7.628 Y52.6 E88.32021
G1 X7.172 Y52.56 E88.33773
G1 X6.73 Y52.442 E88.35524
G1 X6.315 Y52.248 E88.37277
G1 X5.772 Y51.831 E88.39897
G1 X5.375 Y51.377 E88.42205
G1 X5.146 Y50.981 E88.43956
G1 X4.989 Y50.551 E88.45708
G1 X4.9 Y49.872 E88.48328
G1 X4.9 Y20.128 E89.62159
G1 X4.94 Y19.672 E89.6391
G1 X5.058 Y19.23 E89.65661
G1 X5.252 Y18.815 E89.67414
G1 X5.669 Y18.272 E89.70034
G1 X5.945 Y18.031 E89.71437
G0 F1620 X6.123 Y17.875
G0 X6.519 Y17.646
G0 F4320 X6.721 Y17.939
G1 F1800 X7.126 Y17.806 E89.73068
G1 X7.628 Y17.75 E89.75001
G1 X112.372 Y17.75 E93.75856
G1 X112.796 Y17.79 E93.77486
G1 X113.206 Y17.908 E93.79118
G1 X113.586 Y18.101 E93.80749
G1 X113.981 Y18.416 E93.82683
G1 X114.355 Y18.848 E93.8487
G1 X114.561 Y19.221 E93.865
G1 X114.694 Y19.626 E93.88132
G1 X114.75 Y20.128 E93.90065
G1 X114.75 Y49.872 E95.03895
G1 X114.71 Y50.296 E95.05525
G1 X114.592 Y50.706 E95.07158
G1 X114.399 Y51.086 E95.08789
G1 X114.084 Y51.481 E95.10722
G1 X113.652 Y51.855 E95.12909
G1 X113.279 Y52.061 E95.1454
G1 X112.874 Y52.194 E95.16171
G1 X112.372 Y52.25 E95.18104
G1 X7.628 Y52.25 E99.18959
G1 X7.204 Y52.21 E99.20589
G1 X6.794 Y52.092 E99.22221
G1 X6.414 Y51.899 E99.23852
G1 X6.019 Y51.584 E99.25786
G1 X5.645 Y51.152 E99.27973
G1 X5.439 Y50.779 E99.29603
G1 X5.306 Y50.374 E99.31235
G1 X5.25 Y49.872 E99.33168
G1 X5.25 Y20.128 E100.46998
G1 X5.29 Y19.704 E100.48628
G1 X5.408 Y19.294 E100.50261
G1 X5.601 Y18.914 E100.51892
G1 X5.916 Y18.519 E100.53825
G1 X6.146 Y18.32 E100.54989
G0 F1620 X6.348 Y18.145
G0 X6.721 Y17.939
G0 F4320 X6.918 Y18.236
G1 F1800 X7.296 Y18.129 E100.56492
G1 X7.628 Y18.1 E100.57768
G1 X112.372 Y18.1 E104.58623
G1 X112.762 Y18.14 E104.60123
G1 X113.136 Y18.258 E104.61624
G1 X113.478 Y18.449 E104.63123
G1 X113.836 Y18.767 E104.64955
G1 X114.084 Y19.071 E104.66457
G1 X114.264 Y19.418 E104.67953
G1 X114.371 Y19.796 E104.69456
G1 X114.4 Y20.128 E104.70732
G1 X114.4 Y49.872 E105.84562
G1 X114.36 Y50.262 E105.86062
G1 X114.242 Y50.636 E105.87563
G1 X114.051 Y50.978 E105.89062
G1 X113.733 Y51.336 E105.90895
G1 X113.429 Y51.584 E105.92396
G1 X113.082 Y51.764 E105.93892
G1 X112.704 Y51.871 E105.95395
G1 X112.372 Y51.9 E105.96671
G1 X7.628 Y51.9 E109.97526
G1 X7.238 Y51.86 E109.99026
G1 X6.864 Y51.742 E110.00527
G1 X6.522 Y51.551 E110.02026
G1 X6.164 Y51.233 E110.03858
G1 X5.916 Y50.929 E110.0536
G1 X5.736 Y50.582 E110.06856
G1 X5.629 Y50.204 E110.08359
G1 X5.6 Y49.872 E110.09635
G1 X5.6 Y20.128 E111.23465
G1 X5.64 Y19.738 E111.24965
G1 X5.758 Y19.364 E111.26466
G1 X5.949 Y19.022 E111.27965
G1 X6.267 Y18.664 E111.29798
G1 X6.336 Y18.608 E111.30138
G0 F1620 X6.571 Y18.416
G0 X6.918 Y18.236
G0 F4320 X7.111 Y18.537
G1 F1800 X7.628 Y18.45 E111.32144
G1 X112.372 Y18.45 E115.32999
G1 X112.724 Y18.49 E115.34355
G1 X113.058 Y18.607 E115.35709
G1 X113.486 Y18.911 E115.37718
G1 X113.81 Y19.292 E115.39632
G1 X113.963 Y19.611 E115.40986
G1 X114.05 Y20.128 E115.42992
G1 X114.05 Y49.872 E116.56822
G1 X114.01 Y50.224 E116.58178
G1 X113.893 Y50.558 E116.59533
G1 X113.589 Y50.986 E116.61542
G1 X113.208 Y51.31 E116.63456
G1 X112.889 Y51.463 E116.6481
G1 X112.372 Y51.55 E116.66816
G1 X7.628 Y51.55 E120.67671
G1 X7.276 Y51.51 E120.69027
G1 X6.942 Y51.393 E120.70381
G1 X6.514 Y51.089 E120.7239
G1 X6.19 Y50.708 E120.74304
G1 X6.037 Y50.389 E120.75658
G1 X5.95 Y49.872 E120.77664
G1 X5.95 Y20.128 E121.91494
G1 X5.99 Y19.776 E121.9285
G1 X6.107 Y19.442 E121.94205
G1 X6.411 Y19.014 E121.96214
G1 X6.533 Y18.91 E121.96827
G0 F1620 X6.792 Y18.69
G0 X7.111 Y18.537
G0 F4320 X7.009 Y18.968
G1 F1800 X7.297 Y18.846 E121.98024
G1 X7.628 Y18.8 E121.99303
G1 X112.372 Y18.8 E126.00158
G1 X112.682 Y18.84 E126.01354
G1 X112.972 Y18.957 E126.02551
G1 X113.238 Y19.159 E126.03829
G1 X113.341 Y19.262 E126.04386
G1 X113.532 Y19.509 E126.05581
G1 X113.654 Y19.797 E126.06778
G1 X113.7 Y20.128 E126.08057
G1 X113.7 Y49.872 E127.21887
G1 X113.66 Y50.182 E127.23084
G1 X113.543 Y50.472 E127.2428
G1 X113.341 Y50.738 E127.25559
G1 X113.238 Y50.841 E127.26116
G1 X112.991 Y51.032 E127.27311
G1 X112.703 Y51.154 E127.28508
G1 X112.372 Y51.2 E127.29787
G1 X7.628 Y51.2 E131.30642
G1 X7.318 Y51.16 E131.31838
G1 X7.028 Y51.043 E131.33034
G1 X6.762 Y50.841 E131.34313
G1 X6.659 Y50.738 E131.3487
G1 X6.468 Y50.491 E131.36065
G1 X6.346 Y50.203 E131.37262
G1 X6.3 Y49.872 E131.38541
G1 X6.3 Y20.128 E132.52371
G1 X6.34 Y19.818 E132.53567
G1 X6.457 Y19.528 E132.54764
G1 X6.516 Y19.45 E132.55138
G0 F1620 X6.659 Y19.262
G0 X6.762 Y19.159
G0 X7.009 Y18.968
G0 F4320 X7.222 Y19.25
G1 F1800 X7.471 Y19.164 E132.56146
G1 X7.628 Y19.15 E132.5675
G1 X112.372 Y19.15 E136.57604
G1 X112.633 Y19.19 E136.58615
G1 X112.87 Y19.305 E136.59623
