;FLAVOR:Marlin
;TIME:5666
;Filament used: 2.54681m
;Layer height: 0.13125
;MINX:3.975
;MINY:22.975
;MINZ:0.263
;MAXX:116.025
;MAXY:97.025
;MAXZ:1.442
;Generated with Cura_SteamEngine 4.7.1
M140 S65
M105
M190 S65
M104 S215
M105
M109 S215
M82 ;absolute extrusion mode
G21;(metric values)
G90;(absolute positioning)
M82;(set extruder to absolute mode)
M107;(start with the fan off)
G28;(Home the printer)
G92 E0;(Reset the extruder to 0)
G0 Z5 E5 F500;(Move up and prime the nozzle)
G0 X-1 Z0;(Move outside the printable area)
G1 Y60 E8 F500;(Draw a priming/wiping line to the rear)
G1 X-1;(Move a little closer to the print area)
G1 Y10 E16 F500;(draw more priming/wiping)
G1 E15 F250;(Small retract)
G92 E0;(Zero the extruder)
G92 E0
G92 E0
G1 F2400 E-3
;LAYER_COUNT:10
;LAYER:0
M107
G0 F4320 X38.404 Y24.836 Z0.263
;TYPE:SKIRT
G1 F2400 E0
G1 F1800 X38.69 Y24.39 E0.02028
G1 X39.04 Y23.991 E0.04059
G1 X39.446 Y23.649 E0.0609
G1 X39.899 Y23.373 E0.0812
G1 X40.388 Y23.167 E0.10151
G1 X40.903 Y23.037 E0.12184
G1 X41.721 Y22.977 E0.15323
G1 X41.83 Y22.975 E0.1574
G1 X75.843 Y22.975 E1.45907
G1 X76.544 Y22.985 E1.4859
G1 X77.073 Y23.033 E1.50623
G1 X77.588 Y23.159 E1.52652
G1 X78.079 Y23.361 E1.54684
G1 X78.534 Y23.635 E1.56717
G1 X78.942 Y23.974 E1.58747
G1 X79.295 Y24.37 E1.60777
G1 X79.57 Y24.786 E1.62686
G1 X80.899 Y27.083 E1.72841
G1 X82.333 Y29.41 E1.83302
G1 X83.827 Y31.687 E1.93724
G1 X85.388 Y33.924 E2.04164
G1 X87.028 Y36.139 E2.14711
G1 X88.682 Y38.245 E2.24959
G1 X90.46 Y40.381 E2.35595
G1 X92.249 Y42.412 E2.45953
G1 X94.109 Y44.407 E2.56391
G1 X96.026 Y46.349 E2.66834
G1 X97.999 Y48.237 E2.77285
G1 X100.023 Y50.069 E2.87733
G1 X102.067 Y51.817 E2.98026
G1 X104.223 Y53.556 E3.08626
G1 X106.388 Y55.204 E3.19039
G1 X108.618 Y56.803 E3.2954
G1 X110.855 Y58.314 E3.39871
G1 X113.215 Y59.813 E3.50571
G1 X114.339 Y60.506 E3.55624
G1 X114.769 Y60.818 E3.57657
G1 X115.147 Y61.19 E3.59687
G1 X115.464 Y61.615 E3.61716
G1 X115.715 Y62.083 E3.63748
G1 X115.892 Y62.584 E3.65782
G1 X115.992 Y63.105 E3.67812
G1 X116.023 Y63.721 E3.70173
G1 X116.025 Y63.83 E3.7059
G1 X116.025 Y92.808 E4.81488
G1 X116.016 Y93.535 E4.84271
G1 X115.969 Y94.063 E4.86299
G1 X115.844 Y94.579 E4.88331
G1 X115.643 Y95.07 E4.90362
G1 X115.37 Y95.525 E4.92392
G1 X115.032 Y95.934 E4.94423
G1 X114.636 Y96.288 E4.96456
G1 X114.192 Y96.578 E4.98485
G1 X113.709 Y96.799 E5.00518
G1 X113.199 Y96.944 E5.02547
G1 X112.59 Y97.015 E5.04893
G1 X112.17 Y97.025 E5.06501
G1 X8.162 Y97.025 E9.04539
G1 X7.464 Y97.016 E9.07211
G1 X6.935 Y96.969 E9.09243
G1 X6.419 Y96.843 E9.11276
G1 X5.928 Y96.642 E9.13306
G1 X5.473 Y96.369 E9.15337
G1 X5.064 Y96.031 E9.17368
G1 X4.711 Y95.635 E9.19398
G1 X4.421 Y95.191 E9.21427
G1 X4.201 Y94.708 E9.23458
G1 X4.055 Y94.197 E9.25492
G1 X3.985 Y93.586 E9.27846
G1 X3.975 Y93.158 E9.29484
G1 X3.975 Y64.157 E10.40471
G1 X3.985 Y63.456 E10.43154
G1 X4.033 Y62.927 E10.45187
G1 X4.159 Y62.412 E10.47216
G1 X4.361 Y61.921 E10.49248
G1 X4.635 Y61.466 E10.5128
G1 X4.974 Y61.058 E10.5331
G1 X5.534 Y60.587 E10.56111
G1 X6.177 Y60.152 E10.59082
G1 X7.357 Y59.376 E10.64487
G1 X9.591 Y57.816 E10.74914
G1 X11.777 Y56.195 E10.85329
G1 X13.943 Y54.492 E10.95874
G1 X16.02 Y52.761 E11.06221
G1 X18.07 Y50.954 E11.16679
G1 X20.065 Y49.093 E11.2712
G1 X22.022 Y47.158 E11.37652
G1 X23.873 Y45.223 E11.479
G1 X25.74 Y43.155 E11.58563
G1 X27.471 Y41.129 E11.68761
G1 X29.199 Y38.985 E11.79299
G1 X30.849 Y36.813 E11.89738
G1 X32.442 Y34.591 E12.00201
G1 X33.977 Y32.315 E12.10707
G1 X35.44 Y30.009 E12.21158
G1 X36.833 Y27.665 E12.31593
G1 X38.074 Y25.446 E12.41323
G0 F1620 X38.121 Y25.361
G0 X38.404 Y24.836
G0 F4320 X38.712 Y25.003
G1 F1800 X38.985 Y24.58 E12.4325
G1 X39.322 Y24.205 E12.45179
G1 X39.714 Y23.889 E12.47106
G1 X40.151 Y23.639 E12.49033
G1 X40.622 Y23.461 E12.5096
G1 X41.115 Y23.359 E12.52886
G1 X41.732 Y23.327 E12.55251
G1 X41.83 Y23.325 E12.55626
G1 X75.838 Y23.325 E13.85774
G1 X76.539 Y23.335 E13.88457
G1 X77.041 Y23.382 E13.90387
G1 X77.528 Y23.508 E13.92312
G1 X77.99 Y23.709 E13.9424
G1 X78.414 Y23.981 E13.96168
G1 X78.79 Y24.317 E13.98098
G1 X79.205 Y24.857 E14.00704
G1 X79.267 Y24.961 E14.01168
G1 X80.595 Y27.256 E14.11315
G1 X82.033 Y29.59 E14.21806
G1 X83.544 Y31.893 E14.32348
G1 X85.112 Y34.139 E14.4283
G1 X86.738 Y36.336 E14.53291
G1 X88.418 Y38.475 E14.63699
G1 X90.177 Y40.588 E14.74221
G1 X92.012 Y42.672 E14.84848
G1 X93.851 Y44.645 E14.9517
G1 X95.782 Y46.6 E15.05686
G1 X97.751 Y48.484 E15.16115
G1 X99.808 Y50.347 E15.26736
G1 X101.847 Y52.09 E15.37002
G1 X103.979 Y53.81 E15.47485
G1 X106.205 Y55.504 E15.5819
G1 X108.405 Y57.081 E15.68549
G1 X110.681 Y58.619 E15.79062
G1 X112.991 Y60.086 E15.89534
G1 X114.156 Y60.804 E15.94771
G1 X114.562 Y61.101 E15.96696
G1 X114.916 Y61.459 E15.98623
G1 X115.21 Y61.869 E16.00554
G1 X115.435 Y62.319 E16.02479
G1 X115.585 Y62.8 E16.04407
G1 X115.663 Y63.409 E16.06757
G1 X115.675 Y63.83 E16.08369
G1 X115.675 Y92.803 E17.19248
G1 X115.666 Y93.53 E17.22031
G1 X115.62 Y94.032 E17.2396
G1 X115.495 Y94.52 E17.25888
G1 X115.294 Y94.982 E17.27816
G1 X115.023 Y95.406 E17.29742
G1 X114.689 Y95.782 E17.31667
G1 X114.299 Y96.101 E17.33595
G1 X113.863 Y96.354 E17.35524
G1 X113.393 Y96.535 E17.37451
G1 X112.901 Y96.639 E17.39376
G1 X112.259 Y96.674 E17.41836
G1 X8.166 Y96.675 E21.402
G1 X7.468 Y96.666 E21.42871
G1 X6.967 Y96.619 E21.44797
G1 X6.479 Y96.494 E21.46725
G1 X6.017 Y96.294 E21.48651
G1 X5.593 Y96.022 E21.50579
G1 X5.216 Y95.688 E21.52507
G1 X4.898 Y95.297 E21.54436
G1 X4.645 Y94.862 E21.56361
G1 X4.464 Y94.392 E21.58289
G1 X4.36 Y93.899 E21.60217
G1 X4.326 Y93.244 E21.62727
G1 X4.325 Y64.162 E22.74024
G1 X4.335 Y63.461 E22.76707
G1 X4.382 Y62.959 E22.78636
G1 X4.508 Y62.472 E22.80561
G1 X4.709 Y62.01 E22.8249
G1 X4.981 Y61.586 E22.84417
G1 X5.317 Y61.21 E22.86347
G1 X5.73 Y60.877 E22.88378
G1 X6.369 Y60.444 E22.91332
G1 X7.563 Y59.659 E22.968
G1 X9.79 Y58.104 E23.07195
G1 X12.009 Y56.458 E23.17768
G1 X14.156 Y54.77 E23.2822
G1 X16.227 Y53.045 E23.38535
G1 X18.329 Y51.191 E23.49261
G1 X20.302 Y49.35 E23.59589
G1 X22.256 Y47.419 E23.70102
G1 X24.154 Y45.434 E23.80612
G1 X25.985 Y43.407 E23.91066
G1 X27.743 Y41.348 E24.01427
G1 X29.483 Y39.189 E24.12039
G1 X31.15 Y36.995 E24.22584
G1 X32.737 Y34.781 E24.33009
G1 X34.256 Y32.529 E24.43405
G1 X35.73 Y30.205 E24.53937
G1 X37.127 Y27.856 E24.64396
G1 X38.381 Y25.613 E24.7423
G0 F1620 X38.448 Y25.493
G0 X38.712 Y25.003
G1 F2400 E21.7423
;MESH:powermeterDisplay_prototype7_bottoms.stl
G0 F4320 X40.86 Y27.56
G0 X42.56 Y27.56
G0 X42.532 Y55.468
G0 X75.625 Y55.625
;TYPE:WALL-INNER
G1 F2400 E24.7423
G1 F1800 X42.375 Y55.625 E26.01478
G1 X42.375 Y27.375 E27.0959
G1 X75.625 Y27.375 E28.36838
G1 X75.625 Y54.931 E29.42295
G0 F1620 X75.625 Y55.625
G0 F4320 X75.975 Y55.975
G1 F1800 X42.025 Y55.975 E30.72221
G1 X42.025 Y27.025 E31.83013
G1 X75.975 Y27.025 E33.12939
G1 X75.975 Y55.281 E34.21075
G0 F1620 X75.975 Y55.975
G0 F4320 X76.3 Y56.3
;TYPE:WALL-OUTER
G1 F1800 X41.7 Y56.3 E35.53489
G1 X41.7 Y26.7 E36.66768
G1 X76.3 Y26.7 E37.99182
G1 X76.3 Y55.606 E39.09805
G0 F1620 X76.3 Y56.3
G0 F4320 X76.1 Y56.3
G0 X76.1 Y56.025
G0 X75.54 Y55.285
G0 X75.285 Y55.285
;TYPE:SKIN
G1 F1800 X42.715 Y55.285 E40.3445
G1 X42.715 Y27.715 E41.3996
G1 X75.285 Y27.715 E42.64605
G1 X75.285 Y54.591 E43.6746
G0 F1620 X75.285 Y55.285
G0 F4320 X75.54 Y55.285
G0 X75.54 Y28.104
G0 X75.127 Y28.104
G1 F1800 X74.894 Y27.872 E43.68718
G0 F4320 X74.399 Y27.872
G1 F1800 X75.127 Y28.599 E43.72655
G0 F4320 X75.127 Y29.094
G1 F1800 X73.904 Y27.872 E43.79272
G0 F4320 X73.409 Y27.872
G1 F1800 X75.127 Y29.589 E43.88567
G0 F4320 X75.127 Y30.084
G1 F1800 X72.914 Y27.872 E44.00542
G0 F4320 X72.419 Y27.872
G1 F1800 X75.127 Y30.579 E44.15195
G0 F4320 X75.127 Y31.074
G1 F1800 X71.924 Y27.872 E44.32528
G0 F4320 X71.429 Y27.872
G1 F1800 X75.127 Y31.569 E44.52539
G0 F4320 X75.127 Y32.064
G1 F1800 X70.934 Y27.872 E44.7523
G0 F4320 X70.439 Y27.872
G1 F1800 X75.127 Y32.559 E45.00599
G0 F4320 X75.127 Y33.054
G1 F1800 X69.944 Y27.872 E45.28648
G0 F4320 X69.449 Y27.872
G1 F1800 X75.127 Y33.549 E45.59376
G0 F4320 X75.127 Y34.044
G1 F1800 X68.954 Y27.872 E45.92783
G0 F4320 X68.459 Y27.872
G1 F1800 X75.127 Y34.539 E46.28868
G0 F4320 X75.127 Y35.034
G1 F1800 X67.964 Y27.872 E46.67633
G0 F4320 X67.47 Y27.872
G1 F1800 X75.127 Y35.529 E47.09074
G0 F4320 X75.127 Y36.024
G1 F1800 X66.975 Y27.872 E47.53194
G0 F4320 X66.48 Y27.872
G1 F1800 X75.127 Y36.519 E47.99994
G0 F4320 X75.127 Y37.014
G1 F1800 X65.985 Y27.872 E48.49472
G0 F4320 X65.49 Y27.872
G1 F1800 X75.127 Y37.509 E49.01629
G0 F4320 X75.127 Y38.004
G1 F1800 X64.995 Y27.872 E49.56465
G0 F4320 X64.5 Y27.872
G1 F1800 X75.127 Y38.499 E50.13981
G0 F4320 X75.127 Y38.994
G1 F1800 X64.005 Y27.872 E50.74175
G0 F4320 X63.51 Y27.872
G1 F1800 X75.127 Y39.489 E51.37048
G0 F4320 X75.127 Y39.984
G1 F1800 X63.015 Y27.872 E52.02601
G0 F4320 X62.52 Y27.872
G1 F1800 X75.127 Y40.479 E52.70832
G0 F4320 X75.127 Y40.974
G1 F1800 X62.025 Y27.872 E53.41743
G0 F4320 X61.53 Y27.872
G1 F1800 X75.127 Y41.468 E54.15329
G0 F4320 X75.127 Y41.963
G1 F1800 X61.035 Y27.872 E54.91595
G0 F4320 X60.54 Y27.872
G1 F1800 X75.127 Y42.458 E55.7054
G0 F4320 X75.127 Y42.953
G1 F1800 X60.045 Y27.872 E56.52164
G0 F4320 X59.55 Y27.872
G1 F1800 X75.127 Y43.448 E57.36467
G0 F4320 X75.127 Y43.943
G1 F1800 X59.055 Y27.872 E58.23449
G0 F4320 X58.56 Y27.872
G1 F1800 X75.127 Y44.438 E59.1311
G0 F4320 X75.127 Y44.933
G1 F1800 X58.065 Y27.872 E60.0545
G0 F4320 X57.57 Y27.872
G1 F1800 X75.127 Y45.428 E61.00469
G0 F4320 X75.127 Y45.923
G1 F1800 X57.075 Y27.872 E61.98167
G0 F4320 X56.58 Y27.872
G1 F1800 X75.127 Y46.418 E62.98544
G0 F4320 X75.127 Y46.913
G1 F1800 X56.085 Y27.872 E64.016
G0 F4320 X55.59 Y27.872
G1 F1800 X75.127 Y47.408 E65.07336
G0 F4320 X75.127 Y47.903
G1 F1800 X55.095 Y27.872 E66.1575
G0 F4320 X54.6 Y27.872
G1 F1800 X75.127 Y48.398 E67.26843
G0 F4320 X75.127 Y48.893
G1 F1800 X54.105 Y27.872 E68.40615
G0 F4320 X53.61 Y27.872
G1 F1800 X75.127 Y49.388 E69.57067
G0 F4320 X75.127 Y49.883
G1 F1800 X53.115 Y27.872 E70.76197
G0 F4320 X52.62 Y27.872
G1 F1800 X75.127 Y50.378 E71.98006
G0 F4320 X75.127 Y50.873
G1 F1800 X52.125 Y27.872 E73.22495
G0 F4320 X51.63 Y27.872
G1 F1800 X75.127 Y51.368 E74.49662
G0 F4320 X75.127 Y51.863
G1 F1800 X51.135 Y27.872 E75.79509
G0 F4320 X50.64 Y27.872
G1 F1800 X75.127 Y52.358 E77.12034
G0 F4320 X75.127 Y52.853
G1 F1800 X50.145 Y27.872 E78.47239
G0 F4320 X49.65 Y27.872
G1 F1800 X75.127 Y53.348 E79.85123
G0 F4320 X75.127 Y53.843
G1 F1800 X49.155 Y27.872 E81.25685
G0 F4320 X48.66 Y27.872
G1 F1800 X75.127 Y54.338 E82.68927
G0 F4320 X75.127 Y54.833
G1 F1800 X48.165 Y27.872 E84.14847
G0 F4320 X47.671 Y27.872
G1 F1800 X74.926 Y55.127 E85.62357
G0 F4320 X74.431 Y55.127
G1 F1800 X47.176 Y27.872 E87.09866
G0 F4320 X46.681 Y27.872
G1 F1800 X73.936 Y55.127 E88.57375
G0 F4320 X73.441 Y55.127
G1 F1800 X46.186 Y27.872 E90.04884
G0 F4320 X45.691 Y27.872
G1 F1800 X72.946 Y55.127 E91.52393
G0 F4320 X72.451 Y55.127
G1 F1800 X45.196 Y27.872 E92.99902
G0 F4320 X44.701 Y27.872
G1 F1800 X71.956 Y55.127 E94.47412
G0 F4320 X71.461 Y55.127
G1 F1800 X44.206 Y27.872 E95.94921
G0 F4320 X43.711 Y27.872
G1 F1800 X70.966 Y55.127 E97.4243
G0 F4320 X70.471 Y55.127
G1 F1800 X43.216 Y27.872 E98.89939
G0 F4320 X42.871 Y28.021
G1 F1800 X69.976 Y55.127 E100.36639
G0 F4320 X69.481 Y55.127
G1 F1800 X42.871 Y28.516 E101.8066
G0 F4320 X42.871 Y29.011
G1 F1800 X68.986 Y55.127 E103.22002
G0 F4320 X68.491 Y55.127
G1 F1800 X42.871 Y29.506 E104.60665
G0 F4320 X42.871 Y30.001
G1 F1800 X67.996 Y55.127 E105.96649
G0 F4320 X67.501 Y55.127
G1 F1800 X42.871 Y30.496 E107.29954
G0 F4320 X42.871 Y30.991
G1 F1800 X67.006 Y55.127 E108.6058
G0 F4320 X66.511 Y55.127
G1 F1800 X42.871 Y31.486 E109.88527
G0 F4320 X42.871 Y31.981
G1 F1800 X66.016 Y55.127 E111.13794
G0 F4320 X65.521 Y55.127
G1 F1800 X42.871 Y32.476 E112.36383
G0 F4320 X42.871 Y32.971
G1 F1800 X65.026 Y55.127 E113.56293
G0 F4320 X64.531 Y55.127
G1 F1800 X42.871 Y33.466 E114.73523
G0 F4320 X42.871 Y33.961
G1 F1800 X64.037 Y55.127 E115.88078
G0 F4320 X63.542 Y55.127
G1 F1800 X42.871 Y34.456 E116.99953
G0 F4320 X42.871 Y34.951
G1 F1800 X63.047 Y55.127 E118.09149
G0 F4320 X62.552 Y55.127
G1 F1800 X42.871 Y35.446 E119.15667
G0 F4320 X42.871 Y35.941
G1 F1800 X62.057 Y55.127 E120.19505
G0 F4320 X61.562 Y55.127
G1 F1800 X42.871 Y36.436 E121.20664
G0 F4320 X42.871 Y36.931
G1 F1800 X61.067 Y55.127 E122.19144
G0 F4320 X60.572 Y55.127
G1 F1800 X42.871 Y37.426 E123.14945
G0 F4320 X42.871 Y37.921
G1 F1800 X60.077 Y55.127 E124.08067
G0 F4320 X59.582 Y55.127
G1 F1800 X42.871 Y38.416 E124.98511
G0 F4320 X42.871 Y38.911
G1 F1800 X59.087 Y55.127 E125.86275
G0 F4320 X58.592 Y55.127
G1 F1800 X42.871 Y39.406 E126.7136
G0 F4320 X42.871 Y39.901
G1 F1800 X58.097 Y55.127 E127.53766
G0 F4320 X57.602 Y55.127
G1 F1800 X42.871 Y40.396 E128.33492
G0 F4320 X42.871 Y40.891
G1 F1800 X57.107 Y55.127 E129.1054
G0 F4320 X56.612 Y55.127
G1 F1800 X42.871 Y41.386 E129.84909
G0 F4320 X42.871 Y41.881
G1 F1800 X56.117 Y55.127 E130.56599
G0 F4320 X55.622 Y55.127
G1 F1800 X42.871 Y42.376 E131.2561
G0 F4320 X42.871 Y42.871
G1 F1800 X55.127 Y55.127 E131.91942
G0 F4320 X54.632 Y55.127
G1 F1800 X42.871 Y43.366 E132.55594
G0 F4320 X42.871 Y43.861
G1 F1800 X54.137 Y55.127 E133.16568
G0 F4320 X53.642 Y55.127
G1 F1800 X42.871 Y44.356 E133.74863
G0 F4320 X42.871 Y44.851
G1 F1800 X53.147 Y55.127 E134.30478
G0 F4320 X52.652 Y55.127
G1 F1800 X42.871 Y45.346 E134.83415
G0 F4320 X42.871 Y45.841
G1 F1800 X52.157 Y55.127 E135.33673
G0 F4320 X51.662 Y55.127
G1 F1800 X42.871 Y46.336 E135.81251
G0 F4320 X42.871 Y46.83
G1 F1800 X51.167 Y55.127 E136.26153
G0 F4320 X50.672 Y55.127
G1 F1800 X42.871 Y47.325 E136.68376
G0 F4320 X42.871 Y47.82
G1 F1800 X50.177 Y55.127 E137.07921
G0 F4320 X49.682 Y55.127
G1 F1800 X42.871 Y48.315 E137.44786
G0 F4320 X42.871 Y48.81
G1 F1800 X49.187 Y55.127 E137.78972
G0 F4320 X48.692 Y55.127
G1 F1800 X42.871 Y49.305 E138.10479
G0 F4320 X42.871 Y49.8
G1 F1800 X48.197 Y55.127 E138.39307
G0 F4320 X47.702 Y55.127
G1 F1800 X42.871 Y50.295 E138.65456
G0 F4320 X42.871 Y50.79
G1 F1800 X47.207 Y55.127 E138.88926
G0 F4320 X46.712 Y55.127
G1 F1800 X42.871 Y51.285 E139.09717
G0 F4320 X42.871 Y51.78
G1 F1800 X46.217 Y55.127 E139.27829
G0 F4320 X45.722 Y55.127
G1 F1800 X42.871 Y52.275 E139.43261
G0 F4320 X42.871 Y52.77
G1 F1800 X45.227 Y55.127 E139.56015
G0 F4320 X44.732 Y55.127
G1 F1800 X42.871 Y53.265 E139.6609
G0 F4320 X42.871 Y53.76
G1 F1800 X44.238 Y55.127 E139.73489
G0 F4320 X43.743 Y55.127
G1 F1800 X42.871 Y54.255 E139.78208
G0 F4320 X42.871 Y54.75
G1 F1800 X43.248 Y55.127 E139.80248
G0 F4320 X43.248 Y55.775
G1 F2400 E136.80248
G0 F4320 X76.111 Y56.111
G0 X76.111 Y57.14
G0 X76.111 Y62.86
G0 X76.111 Y63.895
G0 X111.468 Y64.532
G0 X111.625 Y92.625
;TYPE:WALL-INNER
G1 F2400 E139.80248
G1 F1800 X8.375 Y92.625 E143.75385
G1 X8.375 Y64.375 E144.83498
G1 X111.625 Y64.375 E148.78635
G1 X111.625 Y91.931 E149.84092
G0 F1620 X111.625 Y92.625
G0 F4320 X111.975 Y92.975
G1 F1800 X8.025 Y92.975 E153.81908
G1 X8.025 Y64.025 E154.92699
G1 X111.975 Y64.025 E158.90515
G1 X111.975 Y92.281 E159.98651
G0 F1620 X111.975 Y92.975
G0 F4320 X112.3 Y93.3
;TYPE:WALL-OUTER
G1 F1800 X7.7 Y93.3 E163.98955
G1 X7.7 Y63.7 E165.12234
G1 X112.3 Y63.7 E169.12537
G1 X112.3 Y92.606 E170.2316
G0 F1620 X112.3 Y93.3
G0 F4320 X112.1 Y93.3
G0 X112.1 Y93.025
G0 X111.54 Y92.285
G0 X111.285 Y92.285
;TYPE:SKIN
G1 F1800 X8.715 Y92.285 E174.15695
G1 X8.715 Y64.715 E175.21205
G1 X111.285 Y64.715 E179.1374
G1 X111.285 Y91.591 E180.16595
G0 F1620 X111.285 Y92.285
G0 F4320 X111.54 Y92.285
G0 X111.54 Y65.094
G0 X111.127 Y65.094
G1 F1800 X110.904 Y64.872 E180.17799
G0 F4320 X110.409 Y64.872
G1 F1800 X111.127 Y65.589 E180.21682
G0 F4320 X111.127 Y66.084
G1 F1800 X109.914 Y64.872 E180.28244
G0 F4320 X109.419 Y64.872
G1 F1800 X111.127 Y66.579 E180.37486
G0 F4320 X111.127 Y67.074
G1 F1800 X108.924 Y64.872 E180.49406
G0 F4320 X108.429 Y64.872
G1 F1800 X111.127 Y67.569 E180.64005
G0 F4320 X111.127 Y68.064
G1 F1800 X107.934 Y64.872 E180.81284
G0 F4320 X107.439 Y64.872
G1 F1800 X111.127 Y68.559 E181.01241
