;FLAVOR:Marlin
;TIME:22445
;Filament used: 11.492m
;Layer height: 0.13125
;MINX:0.745
;MINY:1.95
;MINZ:0.263
;MAXX:117.738
;MAXY:118.05
;MAXZ:26.987
;Generated with Cura_SteamEngine 4.6.1
M140 S65
M105
M190 S65
M104 S205
M105
M109 S205
M82 ;absolute extrusion mode
G21;(metric values)
G90;(absolute positioning)
M82;(set extruder to absolute mode)
M107;(start with the fan off)
G28;(Home the printer)
G92 E0;(Reset the extruder to 0)
G0 Z5 E5 F500;(Move up and prime the nozzle)
G0 X-1 Z0;(Move outside the printable area)
G1 Y60 E8 F500;(Draw a priming/wiping line to the rear)
G1 X-1;(Move a little closer to the print area)
G1 Y10 E16 F500;(draw more priming/wiping)
G1 E15 F250;(Small retract)
G92 E0;(Zero the extruder)
G92 E0
G92 E0
G1 F2400 E-2.5
;LAYER_COUNT:205
;LAYER:0
M107
G0 F4320 X7.5 Y104.701 Z0.263
;TYPE:SKIRT
G1 F2400 E0
G1 F1800 X8.137 Y104.717 E0.02439
G1 X8.767 Y104.812 E0.04877
G1 X9.379 Y104.986 E0.07312
G1 X9.965 Y105.235 E0.09748
G1 X10.516 Y105.556 E0.12189
G1 X11.022 Y105.943 E0.14627
G1 X11.475 Y106.39 E0.17062
G1 X11.869 Y106.891 E0.19502
G1 X12.197 Y107.437 E0.21939
G1 X12.454 Y108.019 E0.24374
G1 X12.636 Y108.63 E0.26814
G1 X12.74 Y109.258 E0.2925
G1 X12.766 Y109.738 E0.31089
G1 X12.781 Y111.983 E0.39681
G1 X12.825 Y112.179 E0.4045
G1 X12.885 Y112.813 E0.42887
G1 X12.866 Y113.449 E0.45322
G1 X12.767 Y114.079 E0.47763
G1 X12.589 Y114.69 E0.50198
G1 X12.337 Y115.275 E0.52636
G1 X12.013 Y115.823 E0.55072
G1 X11.623 Y116.327 E0.57511
G1 X11.174 Y116.778 E0.59947
G1 X10.671 Y117.169 E0.62385
G1 X10.123 Y117.494 E0.64823
G1 X9.539 Y117.747 E0.67259
G1 X8.928 Y117.926 E0.69695
G1 X8.299 Y118.027 E0.72133
G1 X7.746 Y118.05 E0.74252
G1 X7.368 Y118.045 E0.75698
G1 X6.733 Y117.996 E0.78136
G1 X6.109 Y117.869 E0.80573
G1 X5.506 Y117.664 E0.8301
G1 X4.933 Y117.385 E0.85449
G1 X4.4 Y117.037 E0.87885
G1 X3.828 Y116.54 E0.90785
G1 X3.312 Y115.961 E0.93753
G1 X2.956 Y115.433 E0.9619
G1 X2.67 Y114.864 E0.98627
G1 X2.457 Y114.264 E1.01064
G1 X2.321 Y113.642 E1.035
G1 X2.262 Y112.871 E1.0646
G1 X2.262 Y110.13 E1.1695
G1 X2.302 Y109.494 E1.19388
G1 X2.421 Y108.869 E1.21823
G1 X2.618 Y108.263 E1.24262
G1 X2.889 Y107.687 E1.26698
G1 X3.23 Y107.149 E1.29136
G1 X3.728 Y106.562 E1.32082
G1 X4.082 Y106.204 E1.34008
G1 X4.558 Y105.78 E1.36448
G1 X5.082 Y105.419 E1.38883
G1 X5.648 Y105.126 E1.41322
G1 X6.246 Y104.907 E1.43759
G1 X6.811 Y104.777 E1.45978
G0 F1620 X6.867 Y104.764
G0 X7.5 Y104.701
G0 F4320 X7.643 Y105.047
G1 F1800 X8.257 Y105.081 E1.48331
G1 X8.861 Y105.194 E1.50683
G1 X9.445 Y105.385 E1.53034
G1 X9.999 Y105.649 E1.55383
G1 X10.515 Y105.984 E1.57737
G1 X10.983 Y106.382 E1.60089
G1 X11.395 Y106.838 E1.6244
G1 X11.744 Y107.343 E1.6479
G1 X12.025 Y107.89 E1.67143
G1 X12.233 Y108.468 E1.69494
G1 X12.363 Y109.069 E1.71847
G1 X12.416 Y109.74 E1.74423
G1 X12.431 Y112.027 E1.83176
G1 X12.495 Y112.341 E1.84402
G1 X12.538 Y112.954 E1.86754
G1 X12.501 Y113.567 E1.89104
G1 X12.384 Y114.17 E1.91455
G1 X12.191 Y114.753 E1.93805
G1 X11.923 Y115.306 E1.96157
G1 X11.585 Y115.82 E1.98511
G1 X11.184 Y116.286 E2.00864
G1 X10.726 Y116.695 E2.03214
G1 X10.219 Y117.042 E2.05565
G1 X9.671 Y117.32 E2.07916
G1 X9.091 Y117.524 E2.10269
G1 X8.49 Y117.651 E2.1262
G1 X7.751 Y117.7 E2.15455
G1 X7.373 Y117.695 E2.16901
G1 X6.76 Y117.647 E2.19254
G1 X6.159 Y117.519 E2.21606
G1 X5.579 Y117.315 E2.23959
G1 X5.031 Y117.038 E2.26309
G1 X4.523 Y116.691 E2.28663
G1 X4.077 Y116.294 E2.30948
G1 X3.576 Y115.731 E2.33833
G1 X3.237 Y115.219 E2.36183
G1 X2.967 Y114.667 E2.38534
G1 X2.771 Y114.085 E2.40884
G1 X2.652 Y113.482 E2.43237
G1 X2.612 Y112.871 E2.4558
G1 X2.612 Y110.13 E2.5607
G1 X2.652 Y109.517 E2.58421
G1 X2.771 Y108.914 E2.60773
G1 X2.968 Y108.332 E2.63124
G1 X3.238 Y107.78 E2.65476
G1 X3.578 Y107.268 E2.67828
G1 X3.977 Y106.808 E2.70158
G1 X4.331 Y106.45 E2.72085
G1 X4.791 Y106.042 E2.74438
G1 X5.299 Y105.697 E2.76788
G1 X5.848 Y105.421 E2.7914
G1 X6.429 Y105.219 E2.81494
G1 X6.952 Y105.109 E2.83539
G0 F1620 X7.03 Y105.093
G0 X7.643 Y105.047
G0 F4320 X7.781 Y105.398
G1 F1800 X8.37 Y105.45 E2.85802
G1 X8.946 Y105.581 E2.88063
G1 X9.5 Y105.788 E2.90326
G1 X10.02 Y106.069 E2.92588
G1 X10.499 Y106.417 E2.94854
G1 X10.925 Y106.826 E2.97114
G1 X11.293 Y107.289 E2.99377
G1 X11.595 Y107.797 E3.01639
G1 X11.826 Y108.342 E3.03904
G1 X11.981 Y108.912 E3.06165
G1 X12.066 Y109.742 E3.09358
G1 X12.082 Y112.048 E3.18183
G1 X12.162 Y112.498 E3.19933
G1 X12.187 Y113.089 E3.22196
G1 X12.131 Y113.678 E3.24461
G1 X11.997 Y114.254 E3.26724
G1 X11.786 Y114.806 E3.28985
G1 X11.503 Y115.325 E3.31248
G1 X11.153 Y115.801 E3.33509
G1 X10.741 Y116.226 E3.35774
G1 X10.276 Y116.591 E3.38036
G1 X9.766 Y116.89 E3.40299
G1 X9.22 Y117.118 E3.42563
G1 X8.649 Y117.269 E3.44824
G1 X8.062 Y117.343 E3.47088
G1 X7.377 Y117.345 E3.49709
G1 X6.788 Y117.297 E3.51971
G1 X6.21 Y117.17 E3.54236
G1 X5.655 Y116.967 E3.56497
G1 X5.132 Y116.69 E3.58762
G1 X4.652 Y116.346 E3.61022
G1 X4.228 Y115.949 E3.63245
G1 X3.841 Y115.501 E3.65511
G1 X3.518 Y115.006 E3.67773
G1 X3.265 Y114.472 E3.70034
G1 X3.087 Y113.908 E3.72297
G1 X2.986 Y113.325 E3.74562
G1 X2.962 Y112.871 E3.76302
G1 X2.962 Y110.13 E3.86791
G1 X3.002 Y109.54 E3.89054
G1 X3.121 Y108.961 E3.91317
G1 X3.317 Y108.403 E3.9358
G1 X3.587 Y107.877 E3.95843
G1 X3.925 Y107.392 E3.98105
G1 X4.58 Y106.696 E4.01763
G1 X5.023 Y106.304 E4.04026
G1 X5.515 Y105.976 E4.06289
G1 X6.047 Y105.718 E4.08552
G1 X6.609 Y105.533 E4.10816
G1 X7.089 Y105.444 E4.12685
G0 F1620 X7.19 Y105.426
G0 X7.781 Y105.398
G0 F4320 X7.345 Y105.762
G1 F1800 X7.912 Y105.753 E4.14855
G1 X8.475 Y105.824 E4.17027
G1 X9.022 Y105.973 E4.19196
G1 X9.543 Y106.198 E4.21368
G1 X10.027 Y106.494 E4.23539
G1 X10.464 Y106.855 E4.25709
G1 X10.847 Y107.274 E4.27881
G1 X11.166 Y107.742 E4.30049
G1 X11.417 Y108.25 E4.32217
G1 X11.594 Y108.789 E4.34388
G1 X11.694 Y109.348 E4.36561
G1 X11.716 Y109.745 E4.38083
G1 X11.732 Y112.063 E4.46954
G1 X11.825 Y112.652 E4.49236
G1 X11.831 Y113.219 E4.51406
G1 X11.756 Y113.781 E4.53576
G1 X11.604 Y114.327 E4.55745
G1 X11.376 Y114.847 E4.57918
G1 X11.078 Y115.329 E4.60087
G1 X10.715 Y115.765 E4.62258
G1 X10.294 Y116.145 E4.64428
G1 X9.824 Y116.462 E4.66598
G1 X9.314 Y116.71 E4.68768
G1 X8.774 Y116.884 E4.70939
G1 X8.215 Y116.98 E4.7311
G1 X7.382 Y116.995 E4.76298
G1 X6.817 Y116.947 E4.78468
G1 X6.264 Y116.821 E4.80639
G1 X5.734 Y116.618 E4.82811
G1 X5.238 Y116.343 E4.84981
G1 X4.786 Y116.001 E4.87151
G1 X4.476 Y115.703 E4.88796
G1 X4.107 Y115.272 E4.90968
G1 X3.801 Y114.795 E4.93136
G1 X3.566 Y114.279 E4.95306
G1 X3.406 Y113.735 E4.97476
G1 X3.323 Y113.174 E4.99647
G1 X3.312 Y110.13 E5.11296
G1 X3.352 Y109.564 E5.13468
G1 X3.471 Y109.01 E5.15636
G1 X3.667 Y108.478 E5.17806
G1 X3.935 Y107.978 E5.19977
G1 X4.272 Y107.522 E5.22147
G1 X4.829 Y106.942 E5.25224
G1 X5.255 Y106.568 E5.27394
G1 X5.73 Y106.257 E5.29567
G1 X6.243 Y106.016 E5.31736
G1 X6.663 Y105.887 E5.33417
G0 F1620 X6.785 Y105.85
G0 X7.345 Y105.762
G0 F4320 X7.496 Y106.102
G1 F1800 X8.038 Y106.113 E5.35492
G1 X8.572 Y106.204 E5.37565
G1 X9.087 Y106.372 E5.39638
G1 X9.572 Y106.615 E5.41714
G1 X10.015 Y106.925 E5.43783
G1 X10.409 Y107.298 E5.4586
G1 X10.743 Y107.725 E5.47934
G1 X11.011 Y108.196 E5.50008
G1 X11.206 Y108.701 E5.5208
G1 X11.326 Y109.229 E5.54152
G1 X11.366 Y109.747 E5.5614
G1 X11.382 Y112.133 E5.65272
G1 X11.418 Y112.263 E5.65788
G1 X11.484 Y112.8 E5.67858
G1 X11.47 Y113.342 E5.69933
G1 X11.376 Y113.876 E5.72008
G1 X11.205 Y114.39 E5.74081
G1 X10.96 Y114.873 E5.76154
G1 X10.646 Y115.315 E5.78229
G1 X10.272 Y115.706 E5.803
G1 X9.843 Y116.038 E5.82376
G1 X9.371 Y116.304 E5.84449
G1 X8.864 Y116.496 E5.86524
G1 X8.335 Y116.613 E5.88597
G1 X7.764 Y116.65 E5.90787
G1 X7.386 Y116.645 E5.92234
G1 X6.847 Y116.598 E5.94304
G1 X6.32 Y116.472 E5.96378
G1 X5.817 Y116.27 E5.98452
G1 X5.349 Y115.996 E6.00528
G1 X4.823 Y115.555 E6.03155
G1 X4.373 Y115.044 E6.05761
G1 X4.086 Y114.585 E6.07832
G1 X3.869 Y114.088 E6.09908
G1 X3.728 Y113.565 E6.11981
G1 X3.662 Y112.871 E6.14649
G1 X3.662 Y110.13 E6.25138
G1 X3.702 Y109.59 E6.27211
G1 X3.821 Y109.061 E6.29286
G1 X4.016 Y108.556 E6.31357
G1 X4.284 Y108.084 E6.33435
G1 X4.724 Y107.546 E6.36094
G1 X5.078 Y107.188 E6.38021
G1 X5.486 Y106.832 E6.40093
G1 X5.942 Y106.54 E6.42166
G1 X6.437 Y106.318 E6.44242
G1 X6.812 Y106.212 E6.45733
G0 F1620 X6.958 Y106.171
G0 X7.496 Y106.102
G0 F4320 X7.64 Y106.447
G1 F1800 X8.155 Y106.479 E6.47708
G1 X8.658 Y106.591 E6.4968
G1 X9.138 Y106.778 E6.51651
G1 X9.583 Y107.038 E6.53624
G1 X9.983 Y107.363 E6.55596
G1 X10.328 Y107.746 E6.57569
G1 X10.609 Y108.178 E6.59541
G1 X10.82 Y108.648 E6.61513
G1 X10.956 Y109.145 E6.63485
G1 X11.016 Y109.749 E6.65808
G1 X11.032 Y112.186 E6.75134
G1 X11.093 Y112.43 E6.76097
G1 X11.138 Y112.943 E6.78068
G1 X11.103 Y113.457 E6.80039
G1 X10.989 Y113.96 E6.82013
G1 X10.799 Y114.439 E6.83985
G1 X10.536 Y114.882 E6.85957
G1 X10.209 Y115.28 E6.87928
G1 X9.824 Y115.623 E6.89901
G1 X9.391 Y115.902 E6.91873
G1 X8.919 Y116.111 E6.93848
G1 X8.422 Y116.244 E6.95817
G1 X7.769 Y116.3 E6.98325
G1 X7.391 Y116.295 E6.99772
G1 X6.878 Y116.248 E7.01743
G1 X6.378 Y116.122 E7.03717
G1 X5.903 Y115.921 E7.05691
G1 X5.466 Y115.649 E7.0766
G1 X5.072 Y115.309 E7.09652
G1 X4.641 Y114.817 E7.12155
G1 X4.373 Y114.377 E7.14127
G1 X4.175 Y113.901 E7.161
G1 X4.054 Y113.4 E7.18072
G1 X4.012 Y112.871 E7.20103
G1 X4.012 Y110.13 E7.30593
G1 X4.052 Y109.616 E7.32566
G1 X4.171 Y109.115 E7.34537
G1 X4.366 Y108.638 E7.36509
G1 X4.632 Y108.196 E7.38483
G1 X4.973 Y107.792 E7.40506
G1 X5.327 Y107.434 E7.42433
G1 X5.716 Y107.097 E7.44403
G1 X6.153 Y106.824 E7.46375
G1 X6.628 Y106.622 E7.4835
G1 X6.954 Y106.539 E7.49637
G0 F1620 X7.127 Y106.495
G0 X7.64 Y106.447
G0 F4320 X7.778 Y106.798
G1 F1800 X8.262 Y106.852 E7.51501
G1 X8.731 Y106.985 E7.53367
G1 X9.172 Y107.192 E7.55231
G1 X9.574 Y107.469 E7.57099
G1 X9.925 Y107.807 E7.58964
G1 X10.216 Y108.198 E7.6083
G1 X10.439 Y108.631 E7.62694
G1 X10.588 Y109.095 E7.64559
G1 X10.666 Y109.752 E7.67091
G1 X10.683 Y112.216 E7.7652
G1 X10.763 Y112.591 E7.77988
G1 X10.786 Y113.078 E7.79854
G1 X10.729 Y113.562 E7.81719
G1 X10.594 Y114.031 E7.83587
G1 X10.385 Y114.471 E7.85451
G1 X10.106 Y114.871 E7.87317
G1 X9.765 Y115.22 E7.89184
G1 X9.373 Y115.508 E7.91046
G1 X8.938 Y115.729 E7.92913
G1 X8.473 Y115.876 E7.9478
G1 X7.774 Y115.95 E7.9747
G1 X7.396 Y115.945 E7.98916
G1 X6.91 Y115.898 E8.00785
G1 X6.439 Y115.773 E8.0265
G1 X5.995 Y115.573 E8.04513
G1 X5.589 Y115.303 E8.06379
G1 X5.223 Y114.964 E8.08289
G1 X4.909 Y114.591 E8.10155
G1 X4.661 Y114.171 E8.12021
G1 X4.485 Y113.717 E8.13885
G1 X4.385 Y113.24 E8.1575
G1 X4.362 Y112.871 E8.17165
G1 X4.362 Y110.13 E8.27655
G1 X4.402 Y109.644 E8.29521
G1 X4.521 Y109.171 E8.31387
G1 X4.715 Y108.724 E8.33252
G1 X4.98 Y108.315 E8.35117
G1 X5.222 Y108.038 E8.36525
G1 X5.576 Y107.68 E8.38452
G1 X5.946 Y107.363 E8.40316
G1 X6.362 Y107.11 E8.4218
G1 X6.815 Y106.929 E8.44046
G1 X7.089 Y106.868 E8.45121
G0 F1620 X7.291 Y106.824
G0 X7.778 Y106.798
G0 F4320 X7.449 Y107.158
G1 F1800 X7.906 Y107.156 E8.4687
G1 X8.358 Y107.233 E8.48624
G1 X8.789 Y107.387 E8.50376
G1 X9.186 Y107.614 E8.52126
G1 X9.538 Y107.907 E8.53879
G1 X9.834 Y108.256 E8.5563
G1 X10.065 Y108.652 E8.57385
G1 X10.224 Y109.081 E8.59136
G1 X10.316 Y109.754 E8.61735
G1 X10.333 Y112.252 E8.71295
G1 X10.428 Y112.747 E8.73224
G1 X10.428 Y113.205 E8.74977
G1 X10.348 Y113.656 E8.7673
G1 X10.191 Y114.086 E8.78482
G1 X9.962 Y114.482 E8.80232
G1 X9.668 Y114.833 E8.81984
G1 X9.317 Y115.127 E8.83737
G1 X8.92 Y115.355 E8.85489
G1 X8.489 Y115.511 E8.87243
G1 X8.038 Y115.59 E8.88995
G1 X7.4 Y115.595 E8.91437
G1 X6.945 Y115.549 E8.93187
G1 X6.504 Y115.424 E8.94941
G1 X6.092 Y115.225 E8.96692
G1 X5.569 Y114.817 E8.99231
G1 X5.179 Y114.365 E9.01515
G1 X4.952 Y113.968 E9.03266
G1 X4.798 Y113.537 E9.05017
G1 X4.712 Y112.871 E9.07587
G1 X4.712 Y110.13 E9.18077
G1 X4.752 Y109.674 E9.19829
G1 X4.87 Y109.232 E9.21579
G1 X5.064 Y108.817 E9.23333
G1 X5.47 Y108.284 E9.25897
G1 X5.824 Y107.926 E9.27824
G1 X6.174 Y107.63 E9.29578
G1 X6.569 Y107.399 E9.31329
G1 X6.777 Y107.322 E9.32178
G0 F1620 X6.998 Y107.24
G0 X7.449 Y107.158
G0 F4320 X7.599 Y107.499
G1 F1800 X8.024 Y107.522 E9.33807
G1 X8.438 Y107.623 E9.35437
G1 X8.826 Y107.8 E9.3707
G1 X9.173 Y108.046 E9.38697
G1 X9.469 Y108.353 E9.40329
G1 X9.703 Y108.71 E9.41963
G1 X9.866 Y109.103 E9.43591
G1 X9.952 Y109.521 E9.45224
G1 X9.983 Y112.325 E9.55956
G1 X10.032 Y112.473 E9.56553
G1 X10.087 Y112.895 E9.58181
G1 X10.062 Y113.321 E9.59814
G1 X9.958 Y113.734 E9.61444
G1 X9.778 Y114.121 E9.63078
G1 X9.53 Y114.467 E9.64707
G1 X9.222 Y114.761 E9.66336
G1 X8.864 Y114.993 E9.67969
G1 X8.469 Y115.153 E9.696
G1 X8.052 Y115.237 E9.71228
G1 X7.405 Y115.245 E9.73704
G1 X6.981 Y115.199 E9.75336
G1 X6.573 Y115.076 E9.76967
G1 X6.196 Y114.878 E9.78597
G1 X5.72 Y114.471 E9.80993
G1 X5.45 Y114.142 E9.82622
G1 X5.246 Y113.768 E9.84253
G1 X5.116 Y113.362 E9.85884
G1 X5.062 Y112.871 E9.87774
G1 X5.062 Y110.13 E9.98264
G1 X5.102 Y109.706 E9.99894
G1 X5.22 Y109.296 E10.01527
G1 X5.413 Y108.916 E10.03158
G1 X5.719 Y108.53 E10.05043
G1 X6.073 Y108.172 E10.0697
G1 X6.4 Y107.899 E10.086
G1 X6.772 Y107.691 E10.10231
G1 X6.922 Y107.641 E10.10836
G0 F1620 X7.176 Y107.556
G0 X7.599 Y107.499
G0 F4320 X7.739 Y107.848
G1 F1800 X8.127 Y107.897 E10.12333
G1 X8.498 Y108.024 E10.13834
G1 X8.835 Y108.224 E10.15333
G1 X9.125 Y108.488 E10.16834
G1 X9.356 Y108.805 E10.18335
G1 X9.517 Y109.162 E10.19834
G1 X9.603 Y109.545 E10.21336
G1 X9.634 Y112.377 E10.32175
G1 X9.709 Y112.643 E10.33233
G1 X9.737 Y113.033 E10.34729
G1 X9.685 Y113.422 E10.36231
G1 X9.556 Y113.792 E10.3773
G1 X9.354 Y114.128 E10.39231
G1 X9.089 Y114.416 E10.40729
G1 X8.771 Y114.645 E10.42228
G1 X8.413 Y114.804 E10.43727
G1 X8.03 Y114.888 E10.45228
G1 X7.41 Y114.895 E10.47601
G1 X7.02 Y114.85 E10.49103
G1 X6.648 Y114.727 E10.50603
G1 X6.309 Y114.531 E10.52101
G1 X5.969 Y114.225 E10.53852
G1 X5.723 Y113.92 E10.55351
G1 X5.544 Y113.571 E10.56852
G1 X5.439 Y113.194 E10.5835
G1 X5.412 Y112.871 E10.59591
G1 X5.412 Y110.13 E10.7008
G1 X5.452 Y109.74 E10.71581
G1 X5.57 Y109.366 E10.73082
G1 X5.761 Y109.024 E10.74581
G1 X5.968 Y108.776 E10.75817
G1 X6.322 Y108.418 E10.77744
G1 X6.625 Y108.169 E10.79245
G1 X6.971 Y107.987 E10.80741
G1 X7.058 Y107.961 E10.81088
G0 F1620 X7.348 Y107.878
G0 X7.739 Y107.848
G0 F4320 X7.511 Y108.207
G1 F1800 X7.865 Y108.207 E10.82443
G1 X8.211 Y108.285 E10.838
G1 X8.53 Y108.439 E10.85156
G1 X8.807 Y108.661 E10.86515
G1 X9.027 Y108.938 E10.87868
G1 X9.18 Y109.258 E10.89226
G1 X9.266 Y109.761 E10.91179
G1 X9.284 Y112.423 E11.01366
G1 X9.379 Y112.804 E11.02869
G1 X9.377 Y113.158 E11.04224
G1 X9.297 Y113.503 E11.05579
G1 X9.141 Y113.822 E11.06938
G1 X8.918 Y114.097 E11.08293
G1 X8.639 Y114.316 E11.09651
G1 X8.319 Y114.467 E11.11005
G1 X7.972 Y114.542 E11.12363
G1 X7.414 Y114.545 E11.14499
G1 X7.063 Y114.5 E11.15853
G1 X6.73 Y114.378 E11.1721
G1 X6.316 Y114.078 E11.19167
G1 X5.998 Y113.701 E11.21054
G1 X5.847 Y113.38 E11.22412
G1 X5.762 Y112.871 E11.24387
G1 X5.762 Y110.13 E11.34877
G1 X5.802 Y109.778 E11.36232
G1 X5.919 Y109.444 E11.37587
G1 X6.217 Y109.023 E11.39561
G1 X6.571 Y108.665 E11.41488
G1 X6.847 Y108.442 E11.42845
G1 X6.86 Y108.435 E11.42902
G0 F1620 X7.166 Y108.287
G0 X7.511 Y108.207
G0 F4320 X7.662 Y108.547
G1 F1800 X7.973 Y108.58 E11.44099
G1 X8.265 Y108.69 E11.45293
G1 X8.52 Y108.87 E11.46488
G1 X8.721 Y109.109 E11.47683
G1 X8.855 Y109.391 E11.48877
G1 X8.916 Y109.764 E11.50324
G1 X8.935 Y112.508 E11.60825
G1 X8.992 Y112.644 E11.6139
G1 X9.038 Y112.953 E11.62585
G1 X9.004 Y113.263 E11.63779
G1 X8.892 Y113.555 E11.64976
G1 X8.71 Y113.809 E11.66172
G1 X8.47 Y114.009 E11.67367
G1 X8.187 Y114.141 E11.68562
G1 X7.797 Y114.2 E11.70072
G1 X7.419 Y114.195 E11.71518
G1 X7.109 Y114.151 E11.72717
G1 X6.821 Y114.03 E11.73912
G1 X6.564 Y113.832 E11.75154
G1 X6.277 Y113.485 E11.76877
G1 X6.156 Y113.196 E11.78076
G1 X6.112 Y112.871 E11.79331
G1 X6.112 Y110.13 E11.89821
G1 X6.152 Y109.82 E11.91017
G1 X6.269 Y109.53 E11.92214
G1 X6.466 Y109.269 E11.93465
G1 X6.82 Y108.911 E11.95392
G1 X7.011 Y108.761 E11.96322
G0 F1620 X7.066 Y108.718
