;FLAVOR:Marlin
;TIME:13589
;Filament used: 7.56814m
;Layer height: 0.13125
;MINX:0.82
;MINY:39.675
;MINZ:0.263
;MAXX:119.172
;MAXY:80.325
;MAXZ:32.096
;Generated with Cura_SteamEngine 4.7.0
M140 S65
M105
M190 S65
M104 S215
M105
M109 S215
M82 ;absolute extrusion mode
G21;(metric values)
G90;(absolute positioning)
M82;(set extruder to absolute mode)
M107;(start with the fan off)
G28;(Home the printer)
G92 E0;(Reset the extruder to 0)
G0 Z5 E5 F500;(Move up and prime the nozzle)
G0 X-1 Z0;(Move outside the printable area)
G1 Y60 E8 F500;(Draw a priming/wiping line to the rear)
G1 X-1;(Move a little closer to the print area)
G1 Y10 E16 F500;(draw more priming/wiping)
G1 E15 F250;(Small retract)
G92 E0;(Zero the extruder)
G92 E0
G92 E0
G1 F2400 E-3
;LAYER_COUNT:244
;LAYER:0
M107
G0 F4320 X13.685 Y39.838 Z0.263
;TYPE:SKIRT
G1 F2400 E0
G1 F1800 X14.205 Y39.732 E0.02031
G1 X14.571 Y39.706 E0.03435
G1 X16.112 Y39.675 E0.09334
G1 X114.99 Y39.675 E3.87739
G1 X115.688 Y39.685 E3.90411
G1 X116.217 Y39.733 E3.92444
G1 X116.732 Y39.859 E3.94473
G1 X117.223 Y40.061 E3.96505
G1 X117.678 Y40.335 E3.98537
G1 X118.086 Y40.674 E4.00567
G1 X118.439 Y41.07 E4.02597
G1 X118.729 Y41.515 E4.0463
G1 X118.948 Y41.998 E4.0666
G1 X119.093 Y42.509 E4.08693
G1 X119.162 Y43.111 E4.11011
G1 X119.172 Y43.53 E4.12615
G1 X119.171 Y76.114 E5.37314
G1 X119.161 Y76.839 E5.40089
G1 X119.113 Y77.367 E5.42118
G1 X118.987 Y77.883 E5.44151
G1 X118.785 Y78.373 E5.46179
G1 X118.512 Y78.828 E5.4821
G1 X118.173 Y79.237 E5.50243
G1 X117.777 Y79.59 E5.52273
G1 X117.333 Y79.88 E5.54302
G1 X116.85 Y80.099 E5.56332
G1 X116.339 Y80.244 E5.58365
G1 X115.75 Y80.313 E5.60634
G1 X115.275 Y80.325 E5.62453
G1 X113.323 Y80.297 E5.69924
G1 X111.935 Y80.287 E5.75236
G1 X15.304 Y80.287 E9.45042
G1 X14.6 Y80.277 E9.47737
G1 X14.071 Y80.229 E9.49769
G1 X13.556 Y80.103 E9.51798
G1 X13.245 Y79.985 E9.53071
G1 X12.291 Y79.57 E9.57053
G1 X11.856 Y79.373 E9.5888
G1 X9.308 Y78.302 E9.69458
G1 X6.819 Y77.336 E9.79676
G1 X6.333 Y77.163 E9.8165
G1 X5.757 Y76.944 E9.84008
G1 X5.277 Y76.718 E9.86038
G1 X4.836 Y76.424 E9.88067
G1 X4.451 Y76.08 E9.90043
G1 X4.107 Y75.739 E9.91896
G1 X2.293 Y73.891 E10.01807
G1 X1.795 Y73.369 E10.04568
G1 X1.458 Y72.959 E10.06599
G1 X1.187 Y72.503 E10.08629
G1 X0.988 Y72.011 E10.1066
G1 X0.865 Y71.495 E10.1269
G1 X0.82 Y70.966 E10.14722
G1 X0.833 Y70.635 E10.15989
G1 X0.885 Y70.035 E10.18294
G1 X1.056 Y68.326 E10.24867
G1 X1.253 Y65.596 E10.35342
G1 X1.372 Y62.864 E10.45807
G1 X1.413 Y60.129 E10.56275
G1 X1.378 Y57.395 E10.66739
G1 X1.264 Y54.664 E10.772
G1 X1.078 Y51.989 E10.87462
G1 X0.91 Y50.186 E10.94392
G1 X0.839 Y49.492 E10.97061
G1 X0.824 Y48.962 E10.9909
G1 X0.889 Y48.435 E11.01123
G1 X1.033 Y47.924 E11.03154
G1 X1.252 Y47.441 E11.05184
G1 X1.54 Y46.996 E11.07212
G1 X1.969 Y46.509 E11.09696
G1 X2.132 Y46.338 E11.106
G1 X4.052 Y44.384 E11.21084
G1 X4.529 Y43.912 E11.23652
G1 X4.933 Y43.569 E11.2568
G1 X5.384 Y43.289 E11.27712
G1 X5.844 Y43.09 E11.2963
G1 X8.389 Y42.103 E11.40077
G1 X12.078 Y40.523 E11.55435
G1 X13.038 Y40.087 E11.5947
G0 F1620 X13.187 Y40.02
G0 X13.685 Y39.838
G0 F4320 X13.805 Y40.168
G1 F1800 X14.3 Y40.074 E11.61398
G1 X14.578 Y40.056 E11.62464
G1 X16.112 Y40.025 E11.68336
G1 X114.985 Y40.025 E15.46722
G1 X115.683 Y40.035 E15.49394
G1 X116.185 Y40.082 E15.51323
G1 X116.672 Y40.208 E15.53249
G1 X117.134 Y40.41 E15.55178
G1 X117.558 Y40.681 E15.57104
G1 X117.934 Y41.017 E15.59034
G1 X118.252 Y41.407 E15.6096
G1 X118.504 Y41.843 E15.62887
G1 X118.684 Y42.313 E15.64813
G1 X118.787 Y42.806 E15.6674
G1 X118.821 Y43.441 E15.69174
G1 X118.821 Y76.109 E16.94194
G1 X118.811 Y76.834 E16.96969
G1 X118.764 Y77.335 E16.98895
G1 X118.638 Y77.823 E17.00824
G1 X118.437 Y78.285 E17.02752
G1 X118.166 Y78.709 E17.04678
G1 X117.83 Y79.085 E17.06607
G1 X117.44 Y79.403 E17.08533
G1 X117.004 Y79.655 E17.1046
G1 X116.534 Y79.835 E17.12386
G1 X116.041 Y79.939 E17.14315
G1 X115.428 Y79.973 E17.16664
G1 X115.28 Y79.975 E17.17231
G1 X113.328 Y79.947 E17.24702
G1 X111.938 Y79.937 E17.30021
G1 X15.309 Y79.937 E20.9982
G1 X14.605 Y79.927 E21.02514
G1 X14.104 Y79.88 E21.0444
G1 X13.385 Y79.664 E21.07313
G1 X12.436 Y79.251 E21.11274
G1 X11.995 Y79.051 E21.13127
G1 X9.472 Y77.99 E21.23602
G1 X6.934 Y77.005 E21.34021
G1 X6.458 Y76.836 E21.35954
G1 X5.882 Y76.617 E21.38312
G1 X5.427 Y76.401 E21.40239
G1 X4.826 Y75.953 E21.43108
G1 X4.381 Y75.518 E21.4549
G1 X2.546 Y73.65 E21.55511
G1 X2.048 Y73.128 E21.58272
G1 X1.73 Y72.737 E21.60201
G1 X1.478 Y72.301 E21.62128
G1 X1.299 Y71.83 E21.64056
G1 X1.195 Y71.337 E21.65984
G1 X1.182 Y70.665 E21.68556
G1 X1.233 Y70.07 E21.70842
G1 X1.405 Y68.351 E21.77453
G1 X1.603 Y65.601 E21.88005
G1 X1.721 Y62.884 E21.98413
G1 X1.763 Y60.131 E22.0895
G1 X1.727 Y57.375 E22.19498
G1 X1.615 Y54.659 E22.29901
G1 X1.424 Y51.921 E22.40404
G1 X1.259 Y50.154 E22.47196
G1 X1.187 Y49.456 E22.49881
G1 X1.175 Y48.953 E22.51807
G1 X1.243 Y48.454 E22.53734
G1 X1.389 Y47.972 E22.55662
G1 X1.61 Y47.519 E22.57591
G1 X2.015 Y46.974 E22.60189
G1 X2.382 Y46.583 E22.62241
G1 X4.298 Y44.633 E22.72704
G1 X4.775 Y44.161 E22.75272
G1 X5.16 Y43.836 E22.772
G1 X5.591 Y43.577 E22.79124
G1 X5.962 Y43.42 E22.80666
G1 X8.508 Y42.432 E22.91117
G1 X12.249 Y40.83 E23.06692
G1 X13.158 Y40.417 E23.10513
G0 F1620 X13.331 Y40.339
G0 X13.805 Y40.168
G0 F4320 X13.797 Y46.6
;TYPE:SUPPORT
G1 F1800 X13.797 Y49.2 E23.20463
G1 X7.781 Y49.2 E23.43486
G1 X7.517 Y49.431 E23.44828
G1 X4.674 Y49.48 E23.5571
G1 X4.542 Y49.166 E23.57014
G1 X7.062 Y46.6 E23.70778
G1 X8.945 Y46.6 E23.77984
G1 X10.002 Y47.656 E23.83702
G1 X10.494 Y47.656 E23.85585
G1 X11.551 Y46.6 E23.91303
G1 X13.103 Y46.6 E23.97242
G0 F1620 X13.797 Y46.6
G0 F4320 X11.665 Y46.74
G1 F1800 X11.665 Y49.06 E24.06121
G0 F4320 X13.656 Y48.993
G1 F1800 X4.908 Y48.993 E24.39599
G0 F4320 X6.999 Y49.3
G1 F1800 X6.999 Y46.864 E24.48922
G0 F4320 X9.332 Y47.185
G1 F1800 X9.332 Y49.06 E24.56097
G0 F4320 X7.521 Y70.637
G1 F1800 X7.8 Y70.85 E24.57441
G1 X13.797 Y70.85 E24.80391
G1 X13.797 Y73.45 E24.90341
G1 X11.551 Y73.45 E24.98937
G1 X10.494 Y72.394 E25.04655
G1 X10.002 Y72.394 E25.06538
G1 X8.945 Y73.45 E25.12256
G1 X7.051 Y73.45 E25.19504
G1 X7.047 Y73.452 E25.19521
G1 X4.54 Y70.899 E25.33215
G1 X4.672 Y70.585 E25.34518
G1 X6.827 Y70.625 E25.42767
G0 F1620 X7.521 Y70.637
G0 F4320 X6.999 Y70.768
G1 F1800 X6.999 Y73.203 E25.52085
G0 F4320 X6.133 Y72.323
G1 F1800 X9.874 Y72.323 E25.66402
G0 F4320 X10.619 Y72.323
G1 F1800 X13.656 Y72.323 E25.78025
G0 F4320 X11.665 Y73.31
G1 F1800 X11.665 Y70.99 E25.86903
G0 F4320 X9.332 Y70.99
G1 F1800 X9.332 Y72.866 E25.94083
G1 F2400 E22.94083
;MESH:powermeterDisplay_prototype7_topright.stl
G0 F4320 X20.286 Y53.353
G0 X18.626 Y53.353
G0 X18.771 Y50.322
;TYPE:WALL-INNER
G1 F2400 E25.94083
G1 F1800 X18.771 Y67.077 E26.58204
G1 X44.525 Y67.077 E27.56765
G1 X44.525 Y50.322 E28.20886
G1 X19.465 Y50.322 E29.1679
G0 F1620 X18.771 Y50.322
G1 F2400 E26.1679
G0 F4320 X36.469 Y50.177
G0 X36.469 Y51.837
G0 X55.572 Y51.837
G0 X55.572 Y50.177
G0 X53.77 Y50.322
G1 F2400 E29.1679
G1 F1800 X53.77 Y67.077 E29.80912
G1 X79.525 Y67.077 E30.79476
G1 X79.525 Y50.322 E31.43597
G1 X54.464 Y50.322 E32.39505
G0 F1620 X53.77 Y50.322
G1 F2400 E29.39505
G0 F4320 X71.468 Y50.177
G0 X71.468 Y51.837
G0 X90.626 Y51.853
G0 X90.626 Y50.193
G0 X88.824 Y50.338
G1 F2400 E32.39505
G1 F1800 X88.824 Y67.093 E33.03627
G1 X114.501 Y67.093 E34.01892
G1 X114.579 Y67.093 E34.02191
G1 X114.579 Y50.338 E34.66312
G1 X89.518 Y50.338 E35.62221
G0 F1620 X88.824 Y50.338
G0 F4320 X114.772 Y50.338
G1 F1800 X114.772 Y67.093 E35.97579
G1 X114.772 Y67.171 E35.9783
G1 X114.771 Y75.887 E36.31186
G1 X15.522 Y75.887 E40.11012
G1 X15.522 Y44.075 E41.32756
G1 X114.772 Y44.075 E45.12585
G1 X114.772 Y49.644 E45.33898
G0 F1620 X114.772 Y50.338
G0 F4320 X115.122 Y43.9
G1 F1800 X115.121 Y76.237 E46.57651
G1 X15.172 Y76.237 E50.40155
G1 X15.172 Y43.725 E51.64579
G1 X114.947 Y43.725 E55.46417
G1 X115.122 Y43.725 E55.47087
G1 X115.122 Y43.9 E55.4752
G0 F4320 X114.615 Y50.181
G0 X89.174 Y50.688
G1 F1800 X89.174 Y66.743 E56.08963
G1 X114.229 Y66.743 E57.04848
G1 X114.229 Y50.688 E57.6629
G1 X89.868 Y50.688 E58.5952
G0 F1620 X89.174 Y50.688
G1 F2400 E55.5952
G0 F4320 X90.626 Y50.193
G0 X90.626 Y51.853
G0 X77.429 Y51.837
G0 X77.429 Y50.177
G0 X54.12 Y50.672
G1 F2400 E58.5952
G1 F1800 X54.12 Y66.727 E59.20962
G1 X79.175 Y66.727 E60.16847
G1 X79.175 Y50.672 E60.7829
G1 X54.814 Y50.672 E61.71519
G0 F1620 X54.12 Y50.672
G1 F2400 E58.71519
G0 F4320 X55.572 Y50.177
G0 X55.572 Y51.837
G0 X42.43 Y51.837
G0 X42.43 Y50.177
G0 X19.121 Y50.672
G1 F2400 E61.71519
G1 F1800 X19.121 Y66.727 E62.32962
G1 X44.175 Y66.727 E63.28843
G1 X44.175 Y50.672 E63.90286
G1 X19.815 Y50.672 E64.83511
G0 F1620 X19.121 Y50.672
G0 F4320 X19.446 Y50.997
;TYPE:WALL-OUTER
G1 F1800 X19.446 Y66.402 E65.42466
G1 X43.85 Y66.402 E66.3586
G1 X43.85 Y50.997 E66.94815
G1 X20.14 Y50.997 E67.85553
G0 F1620 X19.446 Y50.997
G0 F4320 X19.446 Y51.197
G1 F2400 E64.85553
G0 F4320 X19.171 Y51.197
G0 X44.053 Y50.794
G0 X43.022 Y51.825
G0 X55.273 Y51.825
G0 X53.605 Y50.997
G0 X54.445 Y50.997
G1 F2400 E67.85553
G1 F1800 X54.445 Y66.402 E68.44508
G1 X78.85 Y66.402 E69.37905
G1 X78.85 Y50.997 E69.9686
G1 X55.139 Y50.997 E70.87602
G0 F1620 X54.445 Y50.997
G0 F4320 X54.445 Y51.197
G1 F2400 E67.87602
G0 F4320 X54.17 Y51.197
G0 X79.053 Y50.794
G0 X78.022 Y51.825
G0 X90.626 Y51.853
G0 X90.626 Y50.193
G0 X89.296 Y50.81
G0 X89.499 Y51.013
G1 F2400 E70.87602
G1 F1800 X89.499 Y66.418 E71.46557
G1 X113.904 Y66.418 E72.39955
G1 X113.904 Y51.013 E72.9891
G1 X90.193 Y51.013 E73.89652
G0 F1620 X89.499 Y51.013
G0 F4320 X89.499 Y51.213
G0 X89.224 Y51.213
G0 X89.296 Y66.621
G0 X114.614 Y67.25
G0 X114.847 Y76.287
G0 X114.847 Y76.562
G1 F1800 X14.847 Y76.562 E77.72351
G1 X14.847 Y43.409 E78.99227
G1 X15.064 Y43.4 E79.00058
G1 X115.272 Y43.4 E82.83554
G1 X115.447 Y43.4 E82.84224
G1 X115.447 Y43.575 E82.84657
G1 X115.446 Y76.6 E84.11044
G1 X114.856 Y76.6 E84.13301
G0 F1620 X114.847 Y76.6
G0 X114.847 Y76.562
G0 F4320 X114.647 Y76.562
G0 X114.647 Y76.287
G0 X114.686 Y75.547
G0 X114.431 Y75.547
;TYPE:SKIN
G1 F1800 X15.862 Y75.547 E87.90524
G1 X15.862 Y44.415 E89.09666
G1 X114.432 Y44.415 E92.86893
G1 X114.432 Y49.998 E93.08259
G1 X88.484 Y49.998 E94.07562
G1 X88.484 Y67.433 E94.74286
G1 X114.431 Y67.433 E95.73585
G1 X114.431 Y74.853 E96.01981
G0 F1620 X114.431 Y75.547
G1 F2400 E93.01981
G0 F4320 X114.686 Y75.547
G0 X114.586 Y67.278
G0 X116.287 Y67.278
G0 X77.723 Y65.562
G0 X77.723 Y67.222
G0 X79.61 Y67.192
G0 X79.865 Y67.417
G1 F2400 E96.01981
G1 F1800 X79.865 Y49.982 E96.68705
G1 X53.43 Y49.982 E97.69871
G1 X53.43 Y67.417 E98.36595
G1 X79.171 Y67.417 E99.35106
G0 F1620 X79.865 Y67.417
G1 F2400 E96.35106
G0 F4320 X79.61 Y67.192
G0 X61.827 Y67.222
G0 X61.827 Y65.562
G0 X42.723 Y65.562
G0 X42.723 Y67.222
G0 X44.61 Y67.192
G0 X44.865 Y67.417
G1 F2400 E99.35106
G1 F1800 X44.865 Y49.982 E100.01829
G1 X18.431 Y49.982 E101.02992
G1 X18.431 Y67.417 E101.69716
G1 X44.171 Y67.417 E102.68223
G0 F1620 X44.865 Y67.417
G1 F2400 E99.68223
G0 F4320 X44.61 Y67.192
G0 X40.736 Y67.222
G0 X40.736 Y65.562
G0 X18.6 Y77.402
G0 X18.6 Y75.702
G0 X16.486 Y75.802
G0 X16.486 Y75.388
G1 F2400 E102.68223
G1 F1800 X16.018 Y74.92 E102.70756
G0 F4320 X16.018 Y74.425
G1 F1800 X16.981 Y75.388 E102.75967
G0 F4320 X17.476 Y75.388
G1 F1800 X16.018 Y73.93 E102.83858
G0 F4320 X16.018 Y73.435
G1 F1800 X17.971 Y75.388 E102.94428
G0 F4320 X18.466 Y75.388
G1 F1800 X16.018 Y72.94 E103.07677
G0 F4320 X16.018 Y72.445
G1 F1800 X18.961 Y75.388 E103.23606
G0 F4320 X19.456 Y75.388
G1 F1800 X16.018 Y71.95 E103.42213
G0 F4320 X16.018 Y71.455
G1 F1800 X19.951 Y75.388 E103.63499
G0 F4320 X20.446 Y75.388
G1 F1800 X16.018 Y70.96 E103.87464
G0 F4320 X16.018 Y70.466
G1 F1800 X20.941 Y75.388 E104.14105
G0 F4320 X21.436 Y75.388
G1 F1800 X16.018 Y69.971 E104.43426
G0 F4320 X16.018 Y69.476
G1 F1800 X21.931 Y75.388 E104.75426
G0 F4320 X22.426 Y75.388
G1 F1800 X16.018 Y68.981 E105.10104
G0 F4320 X16.018 Y68.486
G1 F1800 X22.921 Y75.388 E105.47462
G0 F4320 X23.416 Y75.388
G1 F1800 X16.018 Y67.991 E105.87498
G0 F4320 X16.018 Y67.496
G1 F1800 X23.911 Y75.388 E106.30214
G0 F4320 X24.406 Y75.388
G1 F1800 X16.018 Y67.001 E106.75609
G0 F4320 X16.018 Y66.506
G1 F1800 X24.901 Y75.388 E107.23683
G0 F4320 X25.396 Y75.388
G1 F1800 X16.018 Y66.011 E107.74435
G0 F4320 X16.018 Y65.516
G1 F1800 X25.891 Y75.388 E108.27867
G0 F4320 X26.386 Y75.388
G1 F1800 X18.57 Y67.573 E108.70166
G0 F4320 X18.274 Y67.276
G1 F1800 X16.018 Y65.021 E108.82373
G0 F4320 X16.018 Y64.526
G1 F1800 X18.274 Y66.781 E108.9458
G0 F4320 X18.274 Y66.287
G1 F1800 X16.018 Y64.031 E109.0679
G0 F4320 X16.018 Y63.536
G1 F1800 X18.274 Y65.792 E109.19
G0 F4320 X18.274 Y65.297
G1 F1800 X16.018 Y63.041 E109.3121
G0 F4320 X16.018 Y62.546
G1 F1800 X18.274 Y64.802 E109.4342
G0 F4320 X18.274 Y64.307
G1 F1800 X16.018 Y62.051 E109.5563
G0 F4320 X16.018 Y61.556
G1 F1800 X18.274 Y63.812 E109.6784
G0 F4320 X18.274 Y63.317
G1 F1800 X16.018 Y61.061 E109.8005
G0 F4320 X16.018 Y60.566
G1 F1800 X18.274 Y62.822 E109.9226
G0 F4320 X18.274 Y62.327
G1 F1800 X16.018 Y60.071 E110.0447
G0 F4320 X16.018 Y59.576
G1 F1800 X18.274 Y61.832 E110.16679
G0 F4320 X18.274 Y61.337
G1 F1800 X16.018 Y59.081 E110.28889
G0 F4320 X16.018 Y58.586
G1 F1800 X18.274 Y60.842 E110.41099
G0 F4320 X18.274 Y60.347
G1 F1800 X16.018 Y58.091 E110.53309
G0 F4320 X16.018 Y57.596
G1 F1800 X18.274 Y59.852 E110.65519
G0 F4320 X18.274 Y59.357
G1 F1800 X16.018 Y57.101 E110.77729
G0 F4320 X16.018 Y56.606
G1 F1800 X18.274 Y58.862 E110.89939
G0 F4320 X18.274 Y58.367
G1 F1800 X16.018 Y56.111 E111.02149
G0 F4320 X16.018 Y55.616
G1 F1800 X18.274 Y57.872 E111.14359
G0 F4320 X18.274 Y57.377
G1 F1800 X16.018 Y55.121 E111.26568
G0 F4320 X16.018 Y54.626
G1 F1800 X18.274 Y56.882 E111.38778
G0 F4320 X18.274 Y56.387
G1 F1800 X16.018 Y54.131 E111.50988
G0 F4320 X16.018 Y53.636
G1 F1800 X18.274 Y55.892 E111.63198
G0 F4320 X18.274 Y55.397
G1 F1800 X16.018 Y53.141 E111.75408
G0 F4320 X16.018 Y52.646
G1 F1800 X18.274 Y54.902 E111.87618
G0 F4320 X18.274 Y54.407
G1 F1800 X16.018 Y52.151 E111.99828
G0 F4320 X16.018 Y51.656
G1 F1800 X18.274 Y53.912 E112.12038
G0 F4320 X18.274 Y53.417
G1 F1800 X16.018 Y51.162 E112.24245
G0 F4320 X16.018 Y50.667
G1 F1800 X18.274 Y52.922 E112.36452
G0 F4320 X18.274 Y52.427
G1 F1800 X16.018 Y50.172 E112.48659
G0 F4320 X16.018 Y49.677
G1 F1800 X18.274 Y51.932 E112.60866
G0 F4320 X18.274 Y51.437
G1 F1800 X16.018 Y49.182 E112.73074
G0 F4320 X16.018 Y48.687
G1 F1800 X18.274 Y50.942 E112.85281
G0 F4320 X18.274 Y50.447
G1 F1800 X16.018 Y48.192 E112.97488
G0 F4320 X16.018 Y47.697
G1 F1800 X18.274 Y49.952 E113.09695
G0 F4320 X18.64 Y49.824
G1 F1800 X16.018 Y47.202 E113.23886
G0 F4320 X16.018 Y46.707
G1 F1800 X19.135 Y49.824 E113.40756
G0 F4320 X19.63 Y49.824
G1 F1800 X16.018 Y46.212 E113.60305
G0 F4320 X16.018 Y45.717
G1 F1800 X20.125 Y49.824 E113.82532
G0 F4320 X20.62 Y49.824
G1 F1800 X16.018 Y45.222 E114.07439
G0 F4320 X16.018 Y44.727
G1 F1800 X21.115 Y49.824 E114.35025
G0 F4320 X21.61 Y49.824
G1 F1800 X16.358 Y44.571 E114.63453
G0 F4320 X16.853 Y44.571
G1 F1800 X22.105 Y49.824 E114.9188
G0 F4320 X22.6 Y49.824
G1 F1800 X17.348 Y44.571 E115.20308
G0 F4320 X17.843 Y44.571
G1 F1800 X23.095 Y49.824 E115.48735
G0 F4320 X23.59 Y49.824
G1 F1800 X18.338 Y44.571 E115.77163
G0 F4320 X18.833 Y44.571
G1 F1800 X24.085 Y49.824 E116.0559
G0 F4320 X24.58 Y49.824
G1 F1800 X19.328 Y44.571 E116.34018
G0 F4320 X19.823 Y44.571
G1 F1800 X25.075 Y49.824 E116.62445
G0 F4320 X25.57 Y49.824
G1 F1800 X20.318 Y44.571 E116.90873
G0 F4320 X20.812 Y44.571
G1 F1800 X26.065 Y49.824 E117.19303
G0 F4320 X26.56 Y49.824
G1 F1800 X21.307 Y44.571 E117.47733
G0 F4320 X21.802 Y44.571
G1 F1800 X27.055 Y49.824 E117.76164
G0 F4320 X27.55 Y49.824
G1 F1800 X22.297 Y44.571 E118.04594
G0 F4320 X22.792 Y44.571
G1 F1800 X28.045 Y49.824 E118.33024
G0 F4320 X28.54 Y49.824
G1 F1800 X23.287 Y44.571 E118.61454
G0 F4320 X23.782 Y44.571
G1 F1800 X29.035 Y49.824 E118.89884
G0 F4320 X29.53 Y49.824
G1 F1800 X24.277 Y44.571 E119.18315
G0 F4320 X24.772 Y44.571
