;FLAVOR:Marlin
;TIME:9912
;Filament used: 4.39828m
;Layer height: 0.13125
;MINX:17.605
;MINY:17.45
;MINZ:0.263
;MAXX:102.395
;MAXY:102.55
;MAXZ:22.795
;Generated with Cura_SteamEngine 4.6.1
M140 S65
M105
M190 S65
M104 S205
M105
M109 S205
M82 ;absolute extrusion mode
G21;(metric values)
G90;(absolute positioning)
M82;(set extruder to absolute mode)
M107;(start with the fan off)
G28;(Home the printer)
G92 E0;(Reset the extruder to 0)
G0 Z5 E5 F500;(Move up and prime the nozzle)
G0 X-1 Z0;(Move outside the printable area)
G1 Y60 E8 F500;(Draw a priming/wiping line to the rear)
G1 X-1;(Move a little closer to the print area)
G1 Y10 E16 F500;(draw more priming/wiping)
G1 E15 F250;(Small retract)
G92 E0;(Zero the extruder)
G92 E0
G92 E0
G1 F2400 E-2.5
;LAYER_COUNT:173
;LAYER:0
M107
G0 F4320 X19.091 Y19.039 Z0.263
;TYPE:SKIRT
G1 F2400 E0
G1 F1800 X19.672 Y18.515 E0.02994
G1 X20.199 Y18.157 E0.05432
G1 X20.766 Y17.868 E0.07868
G1 X21.365 Y17.652 E0.10305
G1 X21.987 Y17.513 E0.12744
G1 X22.783 Y17.45 E0.158
G1 X54.526 Y17.45 E1.3728
G1 X55.162 Y17.49 E1.39719
G1 X55.787 Y17.609 E1.42154
G1 X56.393 Y17.806 E1.44592
G1 X56.969 Y18.077 E1.47028
G1 X57.507 Y18.418 E1.49466
G1 X57.998 Y18.824 E1.51904
G1 X58.434 Y19.288 E1.54341
G1 X58.809 Y19.803 E1.56779
G1 X59.116 Y20.36 E1.59213
G1 X59.232 Y20.652 E1.60415
G1 X59.506 Y20.466 E1.61683
G1 X60.073 Y20.177 E1.64118
G1 X60.672 Y19.961 E1.66555
G1 X61.294 Y19.822 E1.68994
G1 X62.09 Y19.759 E1.7205
G1 X97.217 Y19.759 E3.06481
G1 X97.853 Y19.799 E3.0892
G1 X98.478 Y19.918 E3.11354
G1 X99.084 Y20.115 E3.13793
G1 X99.66 Y20.386 E3.16229
G1 X100.198 Y20.727 E3.18667
G1 X100.689 Y21.133 E3.21105
G1 X101.125 Y21.597 E3.23542
G1 X101.5 Y22.112 E3.2598
G1 X101.807 Y22.669 E3.28414
G1 X102.042 Y23.261 E3.30851
G1 X102.201 Y23.878 E3.3329
G1 X102.292 Y24.827 E3.36938
G1 X102.395 Y96.674 E6.11897
G1 X102.356 Y97.309 E6.14331
G1 X102.238 Y97.935 E6.16769
G1 X102.042 Y98.541 E6.19207
G1 X101.772 Y99.118 E6.21645
G1 X101.431 Y99.656 E6.24082
G1 X100.909 Y100.27 E6.27166
G1 X100.328 Y100.794 E6.30161
G1 X99.801 Y101.152 E6.32599
G1 X99.234 Y101.441 E6.35034
G1 X98.635 Y101.657 E6.37471
G1 X98.013 Y101.796 E6.3991
G1 X97.217 Y101.859 E6.42966
G1 X62.09 Y101.859 E7.77397
G1 X61.454 Y101.819 E7.79836
G1 X60.829 Y101.7 E7.82271
G1 X60.223 Y101.503 E7.84709
G1 X59.647 Y101.232 E7.87145
G1 X59.109 Y100.891 E7.89583
G1 X58.627 Y100.48 E7.92007
G1 X58.218 Y100.961 E7.94423
G1 X57.637 Y101.485 E7.97418
G1 X57.11 Y101.843 E7.99856
G1 X56.543 Y102.132 E8.02291
G1 X55.944 Y102.348 E8.04728
G1 X55.322 Y102.487 E8.07167
G1 X54.526 Y102.55 E8.10223
G1 X22.783 Y102.55 E9.31703
G1 X22.147 Y102.51 E9.34142
G1 X21.522 Y102.391 E9.36577
G1 X20.916 Y102.194 E9.39016
G1 X20.34 Y101.923 E9.41452
G1 X19.802 Y101.582 E9.43889
G1 X19.194 Y101.064 E9.46946
G1 X18.67 Y100.483 E9.4994
G1 X18.312 Y99.956 E9.52379
G1 X18.023 Y99.389 E9.54814
G1 X17.807 Y98.79 E9.57251
G1 X17.668 Y98.168 E9.5969
G1 X17.605 Y97.372 E9.62746
G1 X17.605 Y22.628 E12.48791
G1 X17.645 Y21.992 E12.5123
G1 X17.764 Y21.367 E12.53664
G1 X17.961 Y20.761 E12.56103
G1 X18.232 Y20.185 E12.58539
G1 X18.573 Y19.647 E12.60977
G1 X18.641 Y19.567 E12.61379
G0 F1620 X19.091 Y19.039
G0 F4320 X19.339 Y19.287
G1 F1800 X19.904 Y18.779 E12.64286
G1 X20.414 Y18.437 E12.66636
G1 X20.965 Y18.164 E12.6899
G1 X21.546 Y17.965 E12.7134
G1 X22.149 Y17.843 E12.73694
G1 X22.783 Y17.8 E12.76126
G1 X54.526 Y17.8 E13.97607
G1 X55.139 Y17.84 E13.99957
G1 X55.742 Y17.959 E14.0231
G1 X56.324 Y18.156 E14.04661
G1 X56.876 Y18.426 E14.07013
G1 X57.388 Y18.766 E14.09365
G1 X57.852 Y19.169 E14.11717
G1 X58.259 Y19.629 E14.14067
G1 X58.604 Y20.138 E14.16421
G1 X58.879 Y20.687 E14.18771
G1 X59.063 Y21.217 E14.20918
G1 X59.211 Y21.088 E14.21669
G1 X59.721 Y20.746 E14.24019
G1 X60.272 Y20.473 E14.26372
G1 X60.853 Y20.274 E14.28722
G1 X61.456 Y20.152 E14.31077
G1 X62.09 Y20.109 E14.33509
G1 X97.217 Y20.109 E15.6794
G1 X97.83 Y20.149 E15.70291
G1 X98.433 Y20.268 E15.72643
G1 X99.015 Y20.465 E15.74994
G1 X99.567 Y20.735 E15.77346
G1 X100.079 Y21.075 E15.79698
G1 X100.543 Y21.478 E15.8205
G1 X100.95 Y21.938 E15.84401
G1 X101.295 Y22.447 E15.86754
G1 X101.57 Y22.996 E15.89104
G1 X101.772 Y23.577 E15.91458
G1 X101.896 Y24.178 E15.93806
G1 X101.942 Y24.827 E15.96296
G1 X102.045 Y96.674 E18.71254
G1 X102.006 Y97.287 E18.73605
G1 X101.888 Y97.89 E18.75957
G1 X101.692 Y98.473 E18.7831
G1 X101.422 Y99.025 E18.80662
G1 X101.084 Y99.538 E18.83013
G1 X100.661 Y100.022 E18.85473
G1 X100.096 Y100.53 E18.88381
G1 X99.586 Y100.872 E18.90731
G1 X99.035 Y101.145 E18.93084
G1 X98.454 Y101.344 E18.95434
G1 X97.851 Y101.466 E18.97789
G1 X97.217 Y101.509 E19.00221
G1 X62.09 Y101.509 E20.34652
G1 X61.477 Y101.469 E20.37003
G1 X60.874 Y101.35 E20.39355
G1 X60.292 Y101.153 E20.41706
G1 X59.74 Y100.883 E20.44058
G1 X59.228 Y100.543 E20.4641
G1 X58.749 Y100.125 E20.48843
G1 X58.579 Y99.946 E20.49788
G1 X58.392 Y100.229 E20.51086
G1 X57.97 Y100.713 E20.53543
G1 X57.405 Y101.221 E20.56451
G1 X56.895 Y101.563 E20.58801
G1 X56.344 Y101.836 E20.61154
G1 X55.763 Y102.035 E20.63505
G1 X55.16 Y102.157 E20.65859
G1 X54.526 Y102.2 E20.68291
G1 X22.783 Y102.2 E21.89771
G1 X22.17 Y102.16 E21.92122
G1 X21.567 Y102.041 E21.94474
G1 X20.985 Y101.844 E21.96826
G1 X20.433 Y101.574 E21.99177
G1 X19.921 Y101.234 E22.0153
G1 X19.442 Y100.816 E22.03962
G1 X18.934 Y100.251 E22.0687
G1 X18.592 Y99.741 E22.0922
G1 X18.319 Y99.19 E22.11573
G1 X18.12 Y98.609 E22.13924
G1 X17.998 Y98.006 E22.16278
G1 X17.955 Y97.372 E22.1871
G1 X17.955 Y22.628 E25.04755
G1 X17.995 Y22.015 E25.07106
G1 X18.114 Y21.412 E25.09458
G1 X18.311 Y20.83 E25.1181
G1 X18.581 Y20.278 E25.14161
G1 X18.889 Y19.815 E25.16289
G0 F1620 X18.921 Y19.766
G0 X19.339 Y19.287
G0 F4320 X19.689 Y19.431
G1 F1800 X20.135 Y19.043 E25.18552
G1 X20.629 Y18.717 E25.20817
G1 X21.162 Y18.462 E25.23078
G1 X21.724 Y18.28 E25.25339
G1 X22.306 Y18.176 E25.27601
G1 X22.783 Y18.15 E25.2943
G1 X54.526 Y18.15 E26.5091
G1 X55.116 Y18.19 E26.53173
G1 X55.695 Y18.309 E26.55435
G1 X56.253 Y18.505 E26.57698
G1 X56.779 Y18.775 E26.59961
G1 X57.264 Y19.113 E26.62223
G1 X57.699 Y19.513 E26.64485
G1 X58.076 Y19.969 E26.66749
G1 X58.389 Y20.471 E26.69013
G1 X58.63 Y21.01 E26.71273
G1 X58.797 Y21.578 E26.73539
G1 X58.845 Y21.896 E26.74769
G1 X58.996 Y21.74 E26.756
G1 X59.442 Y21.352 E26.77863
G1 X59.936 Y21.026 E26.80128
G1 X60.469 Y20.771 E26.82389
G1 X61.031 Y20.589 E26.8465
G1 X61.613 Y20.485 E26.86912
G1 X62.09 Y20.459 E26.8874
G1 X97.217 Y20.459 E28.23171
G1 X97.807 Y20.499 E28.25434
G1 X98.386 Y20.618 E28.27697
G1 X98.944 Y20.814 E28.2996
G1 X99.47 Y21.084 E28.32223
G1 X99.955 Y21.422 E28.34485
G1 X100.39 Y21.822 E28.36747
G1 X100.767 Y22.278 E28.39011
G1 X101.08 Y22.78 E28.41275
G1 X101.321 Y23.319 E28.43534
G1 X101.488 Y23.887 E28.458
G1 X101.577 Y24.471 E28.48061
G1 X101.592 Y24.828 E28.49428
G1 X101.695 Y96.675 E31.24387
G1 X101.656 Y97.265 E31.2665
G1 X101.538 Y97.844 E31.28911
G1 X101.342 Y98.402 E31.31174
G1 X101.073 Y98.929 E31.33439
G1 X100.736 Y99.414 E31.35699
G1 X100.311 Y99.878 E31.38107
G1 X99.865 Y100.266 E31.40369
G1 X99.371 Y100.592 E31.42634
G1 X98.838 Y100.847 E31.44895
G1 X98.276 Y101.029 E31.47156
G1 X97.694 Y101.133 E31.49419
G1 X97.217 Y101.159 E31.51247
G1 X62.09 Y101.159 E32.85678
G1 X61.5 Y101.119 E32.87941
G1 X60.921 Y101 E32.90203
G1 X60.363 Y100.804 E32.92466
G1 X59.837 Y100.534 E32.94729
G1 X59.352 Y100.196 E32.96992
G1 X58.893 Y99.775 E32.99375
G1 X58.521 Y99.347 E33.01545
G1 X58.382 Y99.62 E33.02718
G1 X58.045 Y100.106 E33.04981
G1 X57.62 Y100.569 E33.07386
G1 X57.174 Y100.957 E33.09649
G1 X56.68 Y101.283 E33.11914
G1 X56.147 Y101.538 E33.14175
G1 X55.585 Y101.72 E33.16436
G1 X55.003 Y101.824 E33.18698
G1 X54.526 Y101.85 E33.20526
G1 X22.783 Y101.85 E34.42007
G1 X22.193 Y101.81 E34.4427
G1 X21.614 Y101.691 E34.46532
G1 X21.056 Y101.495 E34.48795
G1 X20.53 Y101.225 E34.51058
G1 X20.045 Y100.887 E34.5332
G1 X19.586 Y100.466 E34.55704
G1 X19.198 Y100.02 E34.57966
G1 X18.872 Y99.526 E34.60231
G1 X18.617 Y98.993 E34.62493
G1 X18.435 Y98.431 E34.64753
G1 X18.331 Y97.849 E34.67016
G1 X18.305 Y97.372 E34.68844
G1 X18.305 Y22.628 E37.54889
G1 X18.345 Y22.038 E37.57152
G1 X18.464 Y21.459 E37.59414
G1 X18.66 Y20.901 E37.61678
G1 X18.93 Y20.375 E37.6394
G1 X19.227 Y19.949 E37.65928
G0 F1620 X19.268 Y19.89
G0 X19.689 Y19.431
G0 F4320 X19.937 Y19.679
G1 F1800 X20.365 Y19.307 E37.68098
G1 X20.841 Y18.999 E37.70268
G1 X21.356 Y18.761 E37.72439
G1 X21.899 Y18.598 E37.74608
G1 X22.46 Y18.513 E37.7678
G1 X22.783 Y18.5 E37.78017
G1 X54.526 Y18.5 E38.99497
G1 X55.092 Y18.54 E39.01669
G1 X55.646 Y18.659 E39.03837
G1 X56.178 Y18.855 E39.06007
G1 X56.678 Y19.123 E39.08178
G1 X57.134 Y19.46 E39.10348
G1 X57.539 Y19.857 E39.12518
G1 X57.885 Y20.307 E39.14691
G1 X58.163 Y20.801 E39.1686
G1 X58.369 Y21.329 E39.19029
G1 X58.499 Y21.881 E39.21199
G1 X58.551 Y22.519 E39.23649
G1 X58.551 Y22.848 E39.24908
G1 X58.922 Y22.329 E39.2735
G1 X59.244 Y21.988 E39.29145
G1 X59.672 Y21.616 E39.31315
G1 X60.148 Y21.308 E39.33484
G1 X60.663 Y21.07 E39.35656
G1 X61.206 Y20.907 E39.37825
G1 X61.767 Y20.822 E39.39997
G1 X62.09 Y20.809 E39.41234
G1 X97.217 Y20.809 E40.75665
G1 X97.783 Y20.849 E40.77836
G1 X98.337 Y20.968 E40.80005
G1 X98.869 Y21.164 E40.82174
G1 X99.369 Y21.432 E40.84345
G1 X99.825 Y21.769 E40.86515
G1 X100.23 Y22.166 E40.88686
G1 X100.576 Y22.616 E40.90858
G1 X100.854 Y23.11 E40.93028
G1 X101.06 Y23.638 E40.95197
G1 X101.19 Y24.19 E40.97367
G1 X101.242 Y24.828 E40.99817
G1 X101.345 Y96.675 E43.74775
G1 X101.306 Y97.241 E43.76946
G1 X101.188 Y97.796 E43.79118
G1 X100.993 Y98.328 E43.81286
G1 X100.725 Y98.828 E43.83457
G1 X100.389 Y99.285 E43.85628
G1 X100.063 Y99.63 E43.87444
G1 X99.635 Y100.002 E43.89614
G1 X99.159 Y100.31 E43.91784
G1 X98.644 Y100.548 E43.93955
G1 X98.101 Y100.711 E43.96125
G1 X97.54 Y100.796 E43.98297
G1 X97.217 Y100.809 E43.99534
G1 X62.09 Y100.809 E45.33964
G1 X61.524 Y100.769 E45.36136
G1 X60.97 Y100.65 E45.38304
G1 X60.438 Y100.454 E45.40474
G1 X59.938 Y100.186 E45.42645
G1 X59.482 Y99.849 E45.44815
G1 X59.141 Y99.527 E45.4661
G1 X58.769 Y99.099 E45.4878
G1 X58.461 Y98.623 E45.5095
G1 X58.453 Y98.606 E45.51022
G1 X58.301 Y99.019 E45.52706
G1 X58.033 Y99.519 E45.54877
G1 X57.698 Y99.976 E45.57046
G1 X57.372 Y100.321 E45.58862
G1 X56.944 Y100.693 E45.61032
G1 X56.468 Y101.001 E45.63202
G1 X55.953 Y101.239 E45.65373
G1 X55.41 Y101.402 E45.67543
G1 X54.849 Y101.487 E45.69714
G1 X54.526 Y101.5 E45.70951
G1 X22.783 Y101.5 E46.92432
G1 X22.217 Y101.46 E46.94603
G1 X21.663 Y101.341 E46.96772
G1 X21.131 Y101.145 E46.98941
G1 X20.631 Y100.877 E47.01113
G1 X20.175 Y100.54 E47.03282
G1 X19.834 Y100.218 E47.05077
G1 X19.462 Y99.79 E47.07248
G1 X19.154 Y99.314 E47.09417
G1 X18.916 Y98.799 E47.11588
G1 X18.753 Y98.256 E47.13758
G1 X18.668 Y97.695 E47.1593
G1 X18.655 Y97.372 E47.17167
G1 X18.655 Y22.628 E50.03212
G1 X18.695 Y22.062 E50.05383
G1 X18.814 Y21.508 E50.07552
G1 X19.01 Y20.976 E50.09721
G1 X19.278 Y20.476 E50.11892
G1 X19.482 Y20.2 E50.13206
G0 F1620 X19.615 Y20.02
G0 X19.937 Y19.679
G0 F4320 X20.081 Y20.029
G1 F1800 X20.595 Y19.573 E50.15835
G1 X21.053 Y19.283 E50.1791
G1 X21.548 Y19.064 E50.19981
G1 X22.071 Y18.92 E50.22057
G1 X22.783 Y18.85 E50.24795
G1 X54.526 Y18.85 E51.46276
G1 X55.066 Y18.89 E51.48348
G1 X55.595 Y19.009 E51.50423
G1 X56.1 Y19.204 E51.52495
G1 X56.572 Y19.472 E51.54572
G1 X56.998 Y19.806 E51.56644
G1 X57.371 Y20.199 E51.58717
G1 X57.682 Y20.643 E51.60792
G1 X57.925 Y21.127 E51.62864
G1 X58.093 Y21.642 E51.64937
G1 X58.184 Y22.176 E51.67011
G1 X58.201 Y22.52 E51.68329
G1 X58.219 Y35.862 E52.19388
G1 X58.312 Y35.853 E52.19746
G1 X58.312 Y24.937 E52.61521
G1 X58.352 Y24.397 E52.63594
G1 X58.471 Y23.868 E52.65669
G1 X58.666 Y23.363 E52.6774
G1 X58.934 Y22.891 E52.69818
G1 X59.388 Y22.338 E52.72556
G1 X59.902 Y21.882 E52.75185
G1 X60.36 Y21.592 E52.7726
G1 X60.855 Y21.373 E52.79332
G1 X61.378 Y21.229 E52.81408
G1 X62.09 Y21.159 E52.84145
G1 X97.217 Y21.159 E54.18576
G1 X97.757 Y21.199 E54.20649
G1 X98.286 Y21.318 E54.22724
G1 X98.791 Y21.513 E54.24795
G1 X99.263 Y21.781 E54.26873
G1 X99.689 Y22.115 E54.28944
G1 X100.062 Y22.508 E54.31018
G1 X100.373 Y22.952 E54.33092
G1 X100.616 Y23.436 E54.35165
G1 X100.784 Y23.951 E54.37238
G1 X100.875 Y24.485 E54.39311
G1 X100.892 Y24.829 E54.40629
G1 X100.995 Y96.676 E57.15588
G1 X100.956 Y97.216 E57.17659
G1 X100.838 Y97.745 E57.19734
G1 X100.643 Y98.251 E57.21809
G1 X100.376 Y98.722 E57.23881
G1 X99.919 Y99.28 E57.26641
G1 X99.405 Y99.736 E57.29271
G1 X98.947 Y100.026 E57.31345
G1 X98.452 Y100.245 E57.33417
G1 X97.929 Y100.389 E57.35493
G1 X97.217 Y100.459 E57.38231
G1 X62.09 Y100.459 E58.72662
G1 X61.55 Y100.419 E58.74734
G1 X61.021 Y100.3 E58.76809
G1 X60.516 Y100.105 E58.78881
G1 X60.044 Y99.837 E58.80958
G1 X59.491 Y99.383 E58.83696
G1 X59.035 Y98.869 E58.86326
G1 X58.745 Y98.411 E58.884
G1 X58.526 Y97.916 E58.90472
G1 X58.382 Y97.393 E58.92548
G1 X58.312 Y96.681 E58.95286
G1 X58.312 Y73.147 E59.8535
G1 X58.271 Y73.144 E59.85508
G1 X58.304 Y97.367 E60.78209
G1 X58.265 Y97.907 E60.80281
G1 X58.147 Y98.436 E60.82355
G1 X57.952 Y98.942 E60.8443
G1 X57.685 Y99.413 E60.86502
G1 X57.228 Y99.971 E60.89263
G1 X56.714 Y100.427 E60.91892
G1 X56.256 Y100.717 E60.93967
G1 X55.761 Y100.936 E60.96038
G1 X55.238 Y101.08 E60.98114
G1 X54.526 Y101.15 E61.00852
G1 X22.783 Y101.15 E62.22333
G1 X22.243 Y101.11 E62.24405
G1 X21.714 Y100.991 E62.2648
G1 X21.209 Y100.796 E62.28552
G1 X20.737 Y100.528 E62.30629
G1 X20.184 Y100.074 E62.33367
G1 X19.728 Y99.56 E62.35997
G1 X19.438 Y99.102 E62.38071
G1 X19.219 Y98.607 E62.40143
G1 X19.075 Y98.084 E62.42219
G1 X19.005 Y97.372 E62.44957
G1 X19.005 Y22.628 E65.31001
G1 X19.045 Y22.088 E65.33074
G1 X19.164 Y21.559 E65.35149
G1 X19.359 Y21.054 E65.3722
G1 X19.627 Y20.582 E65.39298
G1 X19.641 Y20.565 E65.39382
G0 F1620 X20.081 Y20.029
G0 F4320 X20.329 Y20.277
G1 F1800 X20.823 Y19.839 E65.41909
G1 X21.262 Y19.568 E65.43883
G1 X21.737 Y19.369 E65.45854
G1 X22.238 Y19.245 E65.47829
G1 X22.783 Y19.2 E65.49922
G1 X54.526 Y19.2 E66.71402
G1 X55.04 Y19.24 E66.73375
G1 X55.541 Y19.359 E66.75346
G1 X56.018 Y19.554 E66.77318
G1 X56.46 Y19.82 E66.79292
G1 X56.854 Y20.151 E66.81261
G1 X57.193 Y20.54 E66.83236
G1 X57.468 Y20.976 E66.85209
G1 X57.672 Y21.449 E66.8718
G1 X57.801 Y21.948 E66.89153
G1 X57.851 Y22.52 E66.9135
G1 X57.87 Y36.239 E67.43853
G1 X58.344 Y36.2 E67.45673
G1 X58.662 Y36.2 E67.4689
G1 X58.662 Y24.937 E67.89993
G1 X58.702 Y24.423 E67.91966
G1 X58.821 Y23.922 E67.93937
G1 X59.016 Y23.445 E67.95909
G1 X59.282 Y23.003 E67.97883
G1 X59.636 Y22.586 E67.99977
G1 X60.13 Y22.148 E68.02503
G1 X60.569 Y21.877 E68.04478
G1 X61.044 Y21.678 E68.06448
G1 X61.545 Y21.554 E68.08424
G1 X62.09 Y21.509 E68.10516
G1 X97.217 Y21.509 E69.44947
G1 X97.731 Y21.549 E69.4692
G1 X98.232 Y21.668 E69.48891
G1 X98.709 Y21.863 E69.50863
G1 X99.151 Y22.129 E69.52837
G1 X99.545 Y22.46 E69.54807
G1 X99.884 Y22.849 E69.56781
G1 X100.159 Y23.285 E69.58754
G1 X100.363 Y23.758 E69.60725
G1 X100.492 Y24.257 E69.62698
G1 X100.542 Y24.829 E69.64895
G1 X100.645 Y96.676 E72.39854
G1 X100.606 Y97.19 E72.41826
G1 X100.488 Y97.692 E72.438
G1 X100.293 Y98.169 E72.45772
G1 X100.028 Y98.611 E72.47744
G1 X99.671 Y99.032 E72.49857
G1 X99.177 Y99.47 E72.52383
G1 X98.738 Y99.741 E72.54358
G1 X98.263 Y99.94 E72.56329
G1 X97.762 Y100.064 E72.58304
G1 X97.217 Y100.109 E72.60397
G1 X62.09 Y100.109 E73.94827
G1 X61.576 Y100.069 E73.968
G1 X61.075 Y99.95 E73.98771
G1 X60.598 Y99.755 E74.00743
G1 X60.156 Y99.489 E74.02717
G1 X59.739 Y99.135 E74.04811
G1 X59.301 Y98.641 E74.07337
G1 X59.03 Y98.202 E74.09312
G1 X58.831 Y97.727 E74.11283
G1 X58.707 Y97.226 E74.13258
G1 X58.662 Y96.681 E74.15351
G1 X58.662 Y72.8 E75.06743
G1 X58.349 Y72.8 E75.07941
G1 X57.92 Y72.767 E75.09588
G1 X57.954 Y97.367 E76.03732
G1 X57.915 Y97.881 E76.05705
G1 X57.797 Y98.383 E76.07678
G1 X57.602 Y98.86 E76.0965
G1 X57.337 Y99.302 E76.11622
G1 X56.98 Y99.723 E76.13735
G1 X56.486 Y100.161 E76.16261
G1 X56.047 Y100.432 E76.18236
G1 X55.572 Y100.631 E76.20207
